; generated by Slic3r 0.9.8 on 2015-03-10 at 01:05:26

; layer_height = 0.30
; perimeters = 6
; top_solid_layers = 3
; bottom_solid_layers = 3
; fill_density = 0.25
; perimeter_speed = 30
; infill_speed = 50
; travel_speed = 200
; scale = 1
; nozzle_diameter = 0.5
; filament_diameter = 3
; extrusion_multiplier = 1.15
; perimeters extrusion width = 0.51mm
; infill extrusion width = 0.54mm
; first layer extrusion width = 0.30mm

M107
M190 S50 ; wait for bed temperature to be reached
M104 S210 ; set temperature
G28 ; home all axes
G90 ; use absolute coordinates
G21 ; set units to millimeters
G92 E0
M82 ; use absolute distances for extrusion
M109 S190 ; wait for temperature to be reached
G1 E10 F400 ; prime the nozzle
G90 ; use absolute coordinates
G21 ; set units to millimeters
G92 E0
M82 ; use absolute distances for extrusion
G1 F3900.000 E-5.00000
G92 E0
G1 Z0.300 F12000.000
G1 X114.450 Y114.580
G1 F3900.000 E5.10000
G1 X113.990 Y115.000 F1530.000 E5.11043
G1 X113.240 Y115.560 E5.12609
G1 X112.700 Y115.870 E5.13651
G1 X112.130 Y116.140 E5.14707
G1 X111.540 Y116.350 E5.15755
G1 X110.670 Y116.610 E5.17275
G1 X110.020 Y116.730 E5.18381
G1 X109.370 Y116.800 E5.19475
G1 X88.950 Y116.810 E5.53652
G1 X88.240 Y116.770 E5.54843
G1 X87.550 Y116.660 E5.56012
G1 X86.450 Y116.360 E5.57920
G1 X85.910 Y116.170 E5.58879
G1 X85.140 Y115.790 E5.60316
G1 X84.650 Y115.480 E5.61286
G1 X84.200 Y115.130 E5.62240
G1 X83.330 Y114.350 E5.64196
G1 X82.920 Y113.900 E5.65215
G1 X82.390 Y113.180 E5.66711
G1 X82.090 Y112.650 E5.67731
G1 X81.840 Y112.110 E5.68727
G1 X81.640 Y111.540 E5.69738
G1 X81.380 Y110.670 E5.71257
G1 X81.260 Y110.020 E5.72364
G1 X81.190 Y109.370 E5.73458
G1 X81.180 Y88.950 E6.07635
G1 X81.220 Y88.240 E6.08825
G1 X81.330 Y87.550 E6.09995
G1 X81.630 Y86.450 E6.11903
G1 X81.820 Y85.910 E6.12861
G1 X82.200 Y85.140 E6.14298
G1 X82.510 Y84.650 E6.15269
G1 X82.860 Y84.200 E6.16223
G1 X83.640 Y83.330 E6.18179
G1 X84.090 Y82.920 E6.19197
G1 X84.810 Y82.390 E6.20694
G1 X85.340 Y82.090 E6.21713
G1 X85.880 Y81.840 E6.22709
G1 X86.450 Y81.640 E6.23720
G1 X87.320 Y81.380 E6.25240
G1 X87.970 Y81.260 E6.26346
G1 X88.620 Y81.190 E6.27440
G1 X109.040 Y81.180 E6.61618
G1 X109.750 Y81.220 E6.62808
G1 X110.440 Y81.330 E6.63977
G1 X111.540 Y81.630 E6.65885
G1 X112.080 Y81.820 E6.66844
G1 X112.850 Y82.200 E6.68281
G1 X113.340 Y82.510 E6.69251
G1 X113.790 Y82.860 E6.70205
G1 X114.660 Y83.640 E6.72161
G1 X115.070 Y84.090 E6.73180
G1 X115.600 Y84.810 E6.74676
G1 X115.900 Y85.340 E6.75696
G1 X116.150 Y85.880 E6.76692
G1 X116.350 Y86.450 E6.77703
G1 X116.610 Y87.320 E6.79222
G1 X116.730 Y87.970 E6.80329
G1 X116.800 Y88.620 E6.81423
G1 X116.810 Y109.040 E7.15600
G1 X116.750 Y109.870 E7.16993
G1 X116.660 Y110.420 E7.17926
G1 X116.430 Y111.380 E7.19578
G1 X116.230 Y111.940 E7.20573
G1 X116.110 Y112.220 E7.21083
G1 X115.840 Y112.750 E7.22079
G1 X115.290 Y113.610 E7.23787
G1 X114.900 Y114.110 E7.24848
G1 X114.486 Y114.544 E7.25851
G1 X114.450 Y114.580 E7.25937
G1 X114.220 Y114.330 F12000.000
G1 X113.530 Y114.930 F1530.000 E7.27468
G1 X113.050 Y115.270 E7.28452
G1 X112.540 Y115.570 E7.29443
G1 X112.000 Y115.820 E7.30439
G1 X111.440 Y116.020 E7.31434
G1 X110.580 Y116.270 E7.32933
G1 X109.970 Y116.390 E7.33973
G1 X109.350 Y116.460 E7.35018
G1 X88.950 Y116.460 E7.69161
G1 X88.280 Y116.430 E7.70284
G1 X87.620 Y116.320 E7.71404
G1 X86.520 Y116.030 E7.73308
G1 X85.960 Y115.820 E7.74309
G1 X85.170 Y115.400 E7.75806
G1 X84.670 Y115.070 E7.76809
G1 X84.210 Y114.690 E7.77808
G1 X83.370 Y113.900 E7.79738
G1 X83.010 Y113.460 E7.80689
G1 X82.680 Y112.990 E7.81650
G1 X82.400 Y112.500 E7.82595
G1 X82.160 Y111.980 E7.83553
G1 X81.970 Y111.440 E7.84512
G1 X81.720 Y110.580 E7.86011
G1 X81.600 Y109.970 E7.87051
G1 X81.530 Y109.350 E7.88095
G1 X81.530 Y88.950 E8.22239
G1 X81.560 Y88.280 E8.23362
G1 X81.670 Y87.620 E8.24481
G1 X81.960 Y86.520 E8.26385
G1 X82.170 Y85.960 E8.27386
G1 X82.590 Y85.170 E8.28884
G1 X82.920 Y84.670 E8.29887
G1 X83.300 Y84.210 E8.30885
G1 X83.890 Y83.570 E8.32342
G1 X84.090 Y83.370 E8.32815
G1 X84.760 Y82.840 E8.34245
G1 X85.240 Y82.530 E8.35202
G1 X85.750 Y82.270 E8.36160
G1 X86.550 Y81.970 E8.37590
G1 X87.410 Y81.720 E8.39089
G1 X88.020 Y81.600 E8.40129
G1 X88.640 Y81.530 E8.41174
G1 X109.040 Y81.530 E8.75317
G1 X109.710 Y81.560 E8.76440
G1 X110.370 Y81.670 E8.77560
G1 X111.470 Y81.960 E8.79464
G1 X112.030 Y82.170 E8.80465
G1 X112.820 Y82.590 E8.81962
G1 X113.320 Y82.920 E8.82965
G1 X113.780 Y83.300 E8.83963
G1 X114.620 Y84.090 E8.85893
G1 X114.980 Y84.530 E8.86845
G1 X115.310 Y85.000 E8.87806
G1 X115.590 Y85.490 E8.88751
G1 X115.830 Y86.010 E8.89709
G1 X116.020 Y86.550 E8.90667
G1 X116.270 Y87.410 E8.92166
G1 X116.390 Y88.020 E8.93207
G1 X116.460 Y88.640 E8.94251
G1 X116.460 Y109.300 E9.28830
G1 X116.380 Y110.090 E9.30159
G1 X116.250 Y110.730 E9.31252
G1 X116.020 Y111.550 E9.32677
G1 X115.800 Y112.080 E9.33638
G1 X115.540 Y112.580 E9.34581
G1 X115.010 Y113.410 E9.36229
G1 X114.640 Y113.890 E9.37244
G1 X114.256 Y114.293 E9.38176
G1 X114.220 Y114.330 E9.38262
G1 F3900.000 E4.38262
G92 E0
G1 X101.463 Y110.125 F12000.000
G1 F3900.000 E5.10000
G1 X109.044 Y110.125 F1453.500 E5.22688
G1 X109.600 Y109.952 E5.23664
G1 X109.834 Y109.757 E5.24174
G1 X110.042 Y109.426 E5.24828
G1 X110.125 Y109.044 E5.25482
G1 X110.125 Y88.956 E5.59103
G1 X109.952 Y88.400 E5.60079
G1 X109.525 Y88.004 E5.61054
G1 X109.044 Y87.875 E5.61887
G1 X88.956 Y87.875 E5.95508
G1 X88.400 Y88.048 E5.96483
G1 X88.004 Y88.475 E5.97459
G1 X87.875 Y88.956 E5.98292
G1 X87.875 Y109.044 E6.31912
G1 X88.048 Y109.600 E6.32888
G1 X88.475 Y109.996 E6.33863
G1 X88.956 Y110.125 E6.34696
G1 X101.463 Y110.125 E6.55629
G1 F3900.000 E1.55629
G92 E0
G1 Z0.600 F12000.000
G1 X104.830 Y87.858
G1 F3900.000 E5.10000
G1 X109.301 Y87.920 F1800.000 E5.21082
G1 X109.785 Y88.200 E5.22467
G1 X110.132 Y88.909 E5.24426
G1 X110.143 Y108.874 E5.73912
G1 X109.912 Y109.652 E5.75924
G1 X109.634 Y109.924 E5.76888
G1 X109.098 Y110.125 E5.78306
G1 X88.912 Y110.125 E6.28343
G1 X88.348 Y109.912 E6.29836
G1 X88.076 Y109.634 E6.30801
G1 X87.868 Y109.091 E6.32243
G1 X87.857 Y89.126 E6.81729
G1 X88.088 Y88.348 E6.83741
G1 X88.366 Y88.076 E6.84706
G1 X88.909 Y87.868 E6.86148
G1 X104.830 Y87.858 E7.25611
G1 F3900.000 E2.25611
G92 E0
G1 Z0.900 F12000.000
G1 X104.830 Y87.858
G1 F3900.000 E5.10000
G1 X109.301 Y87.920 F1800.000 E5.21082
G1 X109.785 Y88.200 E5.22467
G1 X110.132 Y88.909 E5.24426
G1 X110.143 Y108.874 E5.73912
G1 X109.912 Y109.652 E5.75924
G1 X109.634 Y109.924 E5.76888
G1 X109.098 Y110.125 E5.78306
G1 X88.912 Y110.125 E6.28343
G1 X88.348 Y109.912 E6.29836
G1 X88.076 Y109.634 E6.30801
G1 X87.868 Y109.091 E6.32243
G1 X87.857 Y89.126 E6.81729
G1 X88.088 Y88.348 E6.83741
G1 X88.366 Y88.076 E6.84706
G1 X88.909 Y87.868 E6.86148
G1 X104.830 Y87.858 E7.25611
M106 S255
G1 F3900.000 E2.25611
G92 E0
G1 Z1.200 F12000.000
G1 F3900.000 E5.10000
G1 X109.301 Y87.920 F1800.000 E5.21082
G1 X109.785 Y88.200 E5.22467
G1 X110.132 Y88.909 E5.24426
G1 X110.143 Y108.874 E5.73912
G1 X109.912 Y109.652 E5.75924
G1 X109.634 Y109.924 E5.76888
G1 X109.098 Y110.125 E5.78306
G1 X88.912 Y110.125 E6.28343
G1 X88.348 Y109.912 E6.29836
G1 X88.076 Y109.634 E6.30801
G1 X87.868 Y109.091 E6.32243
G1 X87.857 Y89.126 E6.81729
G1 X88.088 Y88.348 E6.83741
G1 X88.366 Y88.076 E6.84706
G1 X88.909 Y87.868 E6.86148
G1 X104.830 Y87.858 E7.25611
G1 F3900.000 E2.25611
G92 E0
G1 Z1.500 F12000.000
G1 X104.830 Y87.858
G1 F3900.000 E5.10000
G1 X109.301 Y87.920 F1800.000 E5.21082
G1 X109.785 Y88.200 E5.22467
G1 X110.132 Y88.909 E5.24426
G1 X110.143 Y108.874 E5.73912
G1 X109.912 Y109.652 E5.75924
G1 X109.634 Y109.924 E5.76888
G1 X109.098 Y110.125 E5.78306
G1 X88.912 Y110.126 E6.28343
G1 X88.348 Y109.912 E6.29837
G1 X88.076 Y109.634 E6.30802
G1 X87.868 Y109.091 E6.32244
G1 X87.857 Y89.126 E6.81730
G1 X88.088 Y88.348 E6.83742
G1 X88.366 Y88.076 E6.84706
G1 X88.909 Y87.868 E6.86149
G1 X104.830 Y87.858 E7.25612
G1 F3900.000 E2.25612
G92 E0
G1 Z1.800 F12000.000
G1 X104.830 Y87.858
G1 F3900.000 E5.10000
G1 X109.301 Y87.920 F1800.000 E5.21082
G1 X109.785 Y88.200 E5.22467
G1 X110.132 Y88.909 E5.24426
G1 X110.143 Y108.874 E5.73912
G1 X109.912 Y109.652 E5.75924
G1 X109.634 Y109.924 E5.76888
G1 X109.098 Y110.125 E5.78306
G1 X88.911 Y110.128 E6.28344
G1 X88.348 Y109.912 E6.29838
G1 X88.076 Y109.634 E6.30803
G1 X87.868 Y109.091 E6.32245
G1 X87.857 Y89.126 E6.81731
G1 X88.088 Y88.348 E6.83743
G1 X88.366 Y88.076 E6.84708
G1 X88.909 Y87.868 E6.86150
G1 X104.830 Y87.858 E7.25613
G1 F3900.000 E2.25613
G92 E0
G1 Z2.100 F12000.000
G1 X104.761 Y87.908
G1 F3900.000 E5.10000
G1 X109.181 Y87.885 F1800.000 E5.20955
G1 X109.709 Y88.131 E5.22401
G1 X110.056 Y88.599 E5.23844
G1 X110.143 Y108.873 E5.74100
G1 X109.949 Y109.607 E5.75980
G1 X109.626 Y109.929 E5.77112
G1 X109.078 Y110.125 E5.78552
G1 X88.949 Y110.125 E6.28447
G1 X88.393 Y109.949 E6.29892
G1 X88.071 Y109.626 E6.31024
G1 X87.875 Y109.078 E6.32464
G1 X87.857 Y89.127 E6.81919
G1 X88.070 Y88.361 E6.83889
G1 X88.426 Y88.036 E6.85083
G1 X88.909 Y87.868 E6.86352
G1 X104.761 Y87.908 E7.25643
G1 F3900.000 E2.25643
G92 E0
G1 Z2.400 F12000.000
G1 F3900.000 E5.10000
G1 X109.185 Y87.885 F1800.000 E5.20966
G1 X109.713 Y88.134 E5.22412
G1 X110.058 Y88.603 E5.23856
G1 X110.143 Y108.873 E5.74102
G1 X109.930 Y109.639 E5.76071
G1 X109.570 Y109.966 E5.77277
G1 X109.098 Y110.125 E5.78511
G1 X88.948 Y110.125 E6.28458
G1 X88.392 Y109.948 E6.29903
G1 X88.070 Y109.624 E6.31036
G1 X87.875 Y109.077 E6.32476
G1 X87.857 Y89.127 E6.81928
G1 X88.070 Y88.361 E6.83897
G1 X88.430 Y88.034 E6.85102
G1 X88.909 Y87.868 E6.86361
G1 X104.761 Y87.908 E7.25652
G1 F3900.000 E2.25652
G92 E0
G1 Z2.700 F12000.000
G1 X104.761 Y87.908
G1 F3900.000 E5.10000
G1 X109.189 Y87.886 F1800.000 E5.20978
G1 X109.716 Y88.136 E5.22424
G1 X110.060 Y88.607 E5.23868
G1 X110.143 Y108.873 E5.74104
G1 X109.930 Y109.639 E5.76073
G1 X109.567 Y109.969 E5.77289
G1 X109.098 Y110.125 E5.78513
G1 X88.947 Y110.125 E6.28464
G1 X88.391 Y109.948 E6.29909
G1 X88.069 Y109.623 E6.31042
G1 X87.875 Y109.076 E6.32482
G1 X87.857 Y89.127 E6.81930
G1 X88.070 Y88.361 E6.83899
G1 X88.433 Y88.031 E6.85116
G1 X88.909 Y87.868 E6.86364
G1 X104.761 Y87.908 E7.25655
G1 F3900.000 E2.25655
G92 E0
G1 Z3.000 F12000.000
G1 X104.578 Y87.858
G1 F3900.000 E5.10000
G1 X109.194 Y87.886 F1800.000 E5.21443
G1 X109.805 Y88.209 E5.23157
G1 X110.132 Y88.909 E5.25072
G1 X110.143 Y108.874 E5.74558
G1 X109.930 Y109.639 E5.76527
G1 X109.563 Y109.971 E5.77754
G1 X109.098 Y110.125 E5.78967
G1 X88.945 Y110.125 E6.28921
G1 X88.361 Y109.930 E6.30447
G1 X88.029 Y109.563 E6.31675
G1 X87.868 Y109.091 E6.32912
G1 X87.857 Y89.126 E6.82398
G1 X88.070 Y88.361 E6.84366
G1 X88.437 Y88.029 E6.85594
G1 X88.909 Y87.868 E6.86831
G1 X104.578 Y87.858 E7.25668
G1 F3900.000 E2.25668
G92 E0
G1 Z3.300 F12000.000
G1 F3900.000 E5.10000
G1 X109.198 Y87.887 F1800.000 E5.21454
G1 X109.805 Y88.209 E5.23157
G1 X110.132 Y88.909 E5.25073
G1 X110.143 Y108.874 E5.74559
G1 X109.930 Y109.639 E5.76527
G1 X109.559 Y109.974 E5.77766
G1 X109.098 Y110.125 E5.78968
G1 X88.944 Y110.125 E6.28925
G1 X88.361 Y109.930 E6.30448
G1 X88.026 Y109.559 E6.31687
G1 X87.868 Y109.091 E6.32913
G1 X87.857 Y89.126 E6.82399
G1 X88.070 Y88.361 E6.84368
G1 X88.441 Y88.026 E6.85606
G1 X88.909 Y87.868 E6.86833
G1 X104.578 Y87.858 E7.25670
G1 F3900.000 E2.25670
G92 E0
G1 Z3.600 F12000.000
G1 F3900.000 E5.10000
G1 X109.203 Y87.887 F1800.000 E5.21465
G1 X109.805 Y88.209 E5.23158
G1 X110.132 Y88.909 E5.25073
G1 X110.143 Y108.874 E5.74559
G1 X109.930 Y109.639 E5.76528
G1 X109.556 Y109.976 E5.77777
G1 X109.098 Y110.125 E5.78969
G1 X88.943 Y110.125 E6.28929
G1 X88.361 Y109.930 E6.30449
G1 X88.024 Y109.556 E6.31699
G1 X87.868 Y109.091 E6.32914
G1 X87.857 Y89.126 E6.82400
G1 X88.070 Y88.361 E6.84369
G1 X88.444 Y88.024 E6.85618
G1 X88.909 Y87.868 E6.86834
G1 X104.578 Y87.858 E7.25671
G1 F3900.000 E2.25671
G92 E0
G1 Z3.900 F12000.000
G1 F3900.000 E5.10000
G1 X109.207 Y87.888 F1800.000 E5.21476
G1 X109.731 Y88.147 E5.22924
G1 X110.067 Y88.623 E5.24369
G1 X110.143 Y108.873 E5.74563
G1 X109.930 Y109.639 E5.76533
G1 X109.552 Y109.978 E5.77793
G1 X109.098 Y110.125 E5.78974
G1 X88.942 Y110.125 E6.28937
G1 X88.387 Y109.945 E6.30382
G1 X88.067 Y109.618 E6.31517
G1 X87.875 Y109.070 E6.32956
G1 X87.857 Y89.127 E6.82390
G1 X88.070 Y88.361 E6.84359
G1 X88.448 Y88.022 E6.85620
G1 X88.909 Y87.868 E6.86825
G1 X104.578 Y87.858 E7.25661
G1 F3900.000 E2.25661
G92 E0
G1 Z4.200 F12000.000
G1 F3900.000 E5.10000
G1 X109.212 Y87.888 F1800.000 E5.21487
G1 X109.734 Y88.150 E5.22935
G1 X110.069 Y88.628 E5.24381
G1 X110.143 Y108.873 E5.74564
G1 X109.930 Y109.639 E5.76534
G1 X109.548 Y109.981 E5.77805
G1 X109.098 Y110.125 E5.78975
G1 X88.940 Y110.125 E6.28941
G1 X88.386 Y109.944 E6.30386
G1 X88.066 Y109.617 E6.31521
G1 X87.875 Y109.068 E6.32961
G1 X87.857 Y89.127 E6.82391
G1 X88.070 Y88.361 E6.84360
G1 X88.452 Y88.019 E6.85632
G1 X88.909 Y87.868 E6.86825
G1 X104.578 Y87.858 E7.25662
G1 F3900.000 E2.25662
G92 E0
G1 Z4.500 F12000.000
G1 X104.578 Y87.858
G1 F3900.000 E5.10000
G1 X109.216 Y87.889 F1800.000 E5.21498
G1 X109.738 Y88.153 E5.22946
G1 X110.070 Y88.632 E5.24392
G1 X110.143 Y108.873 E5.74565
G1 X109.944 Y109.615 E5.76469
G1 X109.616 Y109.935 E5.77604
G1 X109.067 Y110.125 E5.79044
G1 X88.939 Y110.125 E6.28935
G1 X88.385 Y109.944 E6.30381
G1 X88.065 Y109.616 E6.31516
G1 X87.875 Y109.067 E6.32955
G1 X87.857 Y89.127 E6.82382
G1 X88.070 Y88.361 E6.84351
G1 X88.456 Y88.017 E6.85634
G1 X88.909 Y87.868 E6.86816
G1 X104.578 Y87.858 E7.25653
G1 F3900.000 E2.25653
G92 E0
G1 Z4.800 F12000.000
G1 X104.578 Y87.858
G1 F3900.000 E5.10000
G1 X109.221 Y87.890 F1800.000 E5.21510
G1 X109.805 Y88.209 E5.23160
G1 X110.132 Y88.909 E5.25075
G1 X110.143 Y108.874 E5.74561
G1 X109.930 Y109.639 E5.76530
G1 X109.540 Y109.985 E5.77823
G1 X109.098 Y110.125 E5.78971
G1 X88.937 Y110.127 E6.28944
G1 X88.361 Y109.930 E6.30453
G1 X88.015 Y109.540 E6.31747
G1 X87.868 Y109.091 E6.32918
G1 X87.857 Y89.126 E6.82404
G1 X88.070 Y88.361 E6.84373
G1 X88.460 Y88.015 E6.85666
G1 X88.909 Y87.868 E6.86838
G1 X104.578 Y87.858 E7.25675
G1 F3900.000 E2.25675
G92 E0
G1 Z5.100 F12000.000
G1 X93.458 Y87.869
G1 F3900.000 E5.10000
G1 X109.064 Y87.875 F1800.000 E5.48682
G1 X109.507 Y87.994 E5.49819
G1 X109.942 Y88.382 E5.51264
G1 X110.125 Y88.936 E5.52710
G1 X110.143 Y108.873 E6.02130
G1 X110.010 Y109.508 E6.03738
G1 X109.540 Y109.994 E6.05413
G1 X109.099 Y110.132 E6.06559
G1 X88.936 Y110.128 E6.56537
G1 X88.493 Y110.006 E6.57675
G1 X88.096 Y109.675 E6.58957
G1 X87.865 Y109.091 E6.60515
G1 X87.891 Y88.775 E7.10873
G1 X88.215 Y88.200 E7.12508
G1 X88.909 Y87.865 E7.14419
G1 X93.458 Y87.869 E7.25694
G1 F3900.000 E2.25694
G92 E0
G1 Z5.400 F12000.000
G1 F3900.000 E5.10000
G1 X109.065 Y87.875 F1800.000 E5.48685
G1 X109.813 Y88.200 E5.50706
G1 X110.134 Y88.909 E5.52636
G1 X110.125 Y109.065 E6.02597
G1 X109.800 Y109.813 E6.04617
G1 X109.099 Y110.132 E6.06526
G1 X88.934 Y110.129 E6.56508
G1 X88.187 Y109.800 E6.58532
G1 X87.866 Y109.091 E6.60463
G1 X87.892 Y88.770 E7.10831
G1 X88.215 Y88.200 E7.12456
G1 X88.909 Y87.866 E7.14365
G1 X93.458 Y87.869 E7.25641
G1 F3900.000 E2.25641
G92 E0
G1 Z5.700 F12000.000
G1 X104.578 Y87.886
G1 F3900.000 E5.10000
G1 X109.234 Y87.897 F1800.000 E5.21542
G1 X109.807 Y88.207 E5.23157
G1 X110.098 Y88.744 E5.24670
G1 X110.110 Y108.874 E5.74566
G1 X109.940 Y109.647 E5.76528
G1 X109.675 Y109.909 E5.77451
G1 X109.099 Y110.131 E5.78981
G1 X88.933 Y110.130 E6.28968
G1 X88.353 Y109.940 E6.30480
G1 X88.091 Y109.675 E6.31403
