; generated by Slic3r 1.2.7-dev on 2015-03-17 at 18:04:18

; external perimeters extrusion width = 0.25mm
; perimeters extrusion width = 0.43mm
; infill extrusion width = 0.43mm
; solid infill extrusion width = 0.28mm
; top infill extrusion width = 0.28mm

M107
M190 S55 ; set bed temperature
G28 ; home all axes
G90 ; use absolute coordinates
G21 ; set units to millimeters
G92 E0
M82 ; use absolute distances for extrusion
M109 S190 ; wait for temperature to be reached
G1 E10 F400 ; prime the nozzle
G21 ; set units to millimeters
G90 ; use absolute coordinates
M82 ; use absolute distances for extrusion
G92 E0
G1 E-3.00000 F3900.00000
G92 E0
G1 Z0.300 F12000.000
G1 X83.186 Y83.186 F12000.000
G1 E3.10000 F3900.00000
G1 X84.384 Y82.169 E3.11948 F2550.000
G1 X84.562 Y82.044 E3.12219
G1 X85.829 Y81.313 E3.14032
G1 X86.026 Y81.221 E3.14302
G1 X87.399 Y80.721 E3.16114
G1 X87.611 Y80.664 E3.16386
G1 X89.049 Y80.411 E3.18197
G1 X90.000 Y80.359 E3.19378
G1 X110.000 Y80.359 E3.44179
G1 X110.727 Y80.391 E3.45081
G1 X110.948 Y80.410 E3.45357 F2550.000
G1 X112.388 Y80.664 E3.47170
G1 X112.599 Y80.721 E3.47440
G1 X113.973 Y81.221 E3.49254
G1 X114.171 Y81.313 E3.49525
G1 X115.440 Y82.046 E3.51342
G1 X115.616 Y82.169 E3.51608
G1 X116.735 Y83.108 E3.53420
G1 X116.891 Y83.263 E3.53692
G1 X117.831 Y84.384 E3.55506
G1 X117.956 Y84.562 E3.55776
G1 X118.687 Y85.828 E3.57589
G1 X118.779 Y86.026 E3.57859
G1 X119.279 Y87.401 E3.59674
G1 X119.336 Y87.611 E3.59944
G1 X119.590 Y89.052 E3.61757
G1 X119.641 Y90.000 E3.62935
G1 X119.641 Y110.000 E3.87736
G1 X119.590 Y110.948 E3.88914
G1 X119.336 Y112.389 E3.90727
G1 X119.279 Y112.599 E3.90998
G1 X118.779 Y113.974 E3.92812
G1 X118.687 Y114.171 E3.93082
G1 X117.957 Y115.436 E3.94893
G1 X117.831 Y115.616 E3.95165
G1 X116.891 Y116.737 E3.96979
G1 X116.737 Y116.891 E3.97249
G1 X115.616 Y117.831 E3.99063
G1 X115.438 Y117.956 E3.99333
G1 X114.172 Y118.687 E4.01146
G1 X113.974 Y118.779 E4.01417
G1 X112.599 Y119.279 E4.03231
G1 X112.389 Y119.336 E4.03501
G1 X110.948 Y119.590 E4.05315
G1 X110.000 Y119.641 E4.06492
G1 X90.000 Y119.641 E4.31294
G1 X89.052 Y119.590 E4.32471
G1 X87.612 Y119.336 E4.34285
G1 X87.401 Y119.279 E4.34555
G1 X86.026 Y118.779 E4.36369
G1 X85.829 Y118.687 E4.36639
G1 X84.563 Y117.956 E4.38451
G1 X84.384 Y117.831 E4.38723
G1 X83.263 Y116.891 E4.40537
G1 X83.109 Y116.736 E4.40807
G1 X82.169 Y115.616 E4.42620
G1 X82.044 Y115.438 E4.42891
G1 X81.313 Y114.172 E4.44703
G1 X81.221 Y113.974 E4.44974
G1 X80.721 Y112.599 E4.46788
G1 X80.664 Y112.389 E4.47059
G1 X80.411 Y110.951 E4.48869
G1 X80.391 Y110.731 E4.49142
G1 X80.359 Y110.000 E4.50050
G1 X80.359 Y90.000 E4.74851
G1 X80.410 Y89.052 E4.76029
G1 X80.664 Y87.611 E4.77842
G1 X80.721 Y87.401 E4.78112
G1 X81.220 Y86.028 E4.79924
G1 X81.313 Y85.829 E4.80197
G1 X82.044 Y84.563 E4.82010
G1 X82.169 Y84.384 E4.82280
G1 X83.133 Y83.239 E4.84136
G1 X83.321 Y83.427 F12000.000
G1 X83.451 Y83.297 E4.84364 F2550.000
G1 X84.536 Y82.387 E4.86120
G1 X84.715 Y82.262 E4.86391
G1 X85.941 Y81.554 E4.88146
G1 X86.138 Y81.462 E4.88417
G1 X87.468 Y80.978 E4.90171
G1 X87.680 Y80.921 E4.90444
G1 X89.072 Y80.675 E4.92196
G1 X90.000 Y80.625 E4.93349
G1 X110.000 Y80.625 E5.18150
G1 X110.704 Y80.656 E5.19023
G1 X110.925 Y80.675 E5.19299 F2550.000
G1 X112.320 Y80.921 E5.21055
G1 X112.530 Y80.977 E5.21325
G1 X113.861 Y81.461 E5.23081
G1 X114.059 Y81.554 E5.23352
G1 X115.288 Y82.264 E5.25112
G1 X115.464 Y82.387 E5.25378
G1 X116.547 Y83.296 E5.27132
G1 X116.703 Y83.451 E5.27405
G1 X117.613 Y84.536 E5.29161
G1 X117.738 Y84.715 E5.29431
G1 X118.446 Y85.941 E5.31187
G1 X118.538 Y86.138 E5.31457
G1 X119.023 Y87.470 E5.33214
G1 X119.079 Y87.680 E5.33484
G1 X119.325 Y89.075 E5.35240
G1 X119.375 Y90.000 E5.36389
G1 X119.375 Y110.000 E5.61190
G1 X119.325 Y110.925 E5.62339
G1 X119.079 Y112.320 E5.64096
G1 X119.023 Y112.530 E5.64366
G1 X118.538 Y113.862 E5.66122
G1 X118.446 Y114.059 E5.66393
G1 X117.739 Y115.284 E5.68146
G1 X117.613 Y115.464 E5.68419
G1 X116.703 Y116.549 E5.70175
G1 X116.549 Y116.703 E5.70445
G1 X115.464 Y117.613 E5.72202
G1 X115.285 Y117.738 E5.72472
G1 X114.059 Y118.446 E5.74227
G1 X113.861 Y118.538 E5.74498
G1 X112.530 Y119.023 E5.76255
G1 X112.320 Y119.079 E5.76525
G1 X110.925 Y119.325 E5.78281
G1 X110.000 Y119.375 E5.79430
G1 X90.000 Y119.375 E6.04231
G1 X89.075 Y119.325 E6.05380
G1 X87.680 Y119.079 E6.07136
G1 X87.470 Y119.023 E6.07406
G1 X86.138 Y118.538 E6.09163
G1 X85.941 Y118.446 E6.09433
G1 X84.715 Y117.739 E6.11188
G1 X84.536 Y117.613 E6.11459
G1 X83.451 Y116.703 E6.13216
G1 X83.297 Y116.549 E6.13486
G1 X82.387 Y115.464 E6.15242
G1 X82.262 Y115.285 E6.15512
G1 X81.554 Y114.059 E6.17268
G1 X81.462 Y113.862 E6.17538
G1 X80.977 Y112.530 E6.19295
G1 X80.921 Y112.320 E6.19565
G1 X80.675 Y110.928 E6.21318
G1 X80.656 Y110.708 E6.21592
G1 X80.625 Y110.000 E6.22471
G1 X80.625 Y90.000 E6.47272
G1 X80.675 Y89.075 E6.48421
G1 X80.921 Y87.680 E6.50177
G1 X80.977 Y87.470 E6.50447
G1 X81.461 Y86.140 E6.52202
G1 X81.554 Y85.941 E6.52474
G1 X82.262 Y84.715 E6.54229
G1 X82.387 Y84.536 E6.54500
G1 X83.271 Y83.483 E6.56205
G1 X83.474 Y83.653 F12000.000
G1 X83.639 Y83.485 E6.56498 F2550.000
G1 X84.689 Y82.604 E6.58197
G1 X84.867 Y82.479 E6.58467
G1 X86.053 Y81.795 E6.60165
G1 X86.251 Y81.703 E6.60435
G1 X87.536 Y81.234 E6.62132
G1 X87.749 Y81.177 E6.62405
G1 X89.095 Y80.940 E6.64101
G1 X90.000 Y80.891 E6.65224
G1 X110.000 Y80.891 E6.90025
G1 X110.681 Y80.920 E6.90870
G1 X110.902 Y80.940 E6.91146 F2550.000
G1 X112.251 Y81.177 E6.92844
G1 X112.462 Y81.234 E6.93114
G1 X113.749 Y81.702 E6.94813
G1 X113.947 Y81.795 E6.95084
G1 X115.135 Y82.481 E6.96785
G1 X115.311 Y82.604 E6.97053
G1 X116.360 Y83.484 E6.98749
G1 X116.515 Y83.639 E6.99022
G1 X117.396 Y84.689 E7.00721
G1 X117.521 Y84.867 E7.00991
G1 X118.205 Y86.053 E7.02689
G1 X118.297 Y86.251 E7.02959
G1 X118.766 Y87.538 E7.04659
G1 X118.823 Y87.749 E7.04929
G1 X119.060 Y89.098 E7.06628
G1 X119.109 Y90.000 E7.07748
G1 X119.109 Y110.000 E7.32549
G1 X119.060 Y110.902 E7.33669
G1 X118.823 Y112.251 E7.35368
G1 X118.766 Y112.462 E7.35638
G1 X118.297 Y113.749 E7.37337
G1 X118.205 Y113.947 E7.37608
G1 X117.521 Y115.132 E7.39304
G1 X117.396 Y115.311 E7.39576
G1 X116.515 Y116.361 E7.41275
G1 X116.361 Y116.515 E7.41545
G1 X115.311 Y117.396 E7.43244
G1 X115.133 Y117.521 E7.43514
G1 X113.947 Y118.205 E7.45212
G1 X113.749 Y118.297 E7.45483
G1 X112.462 Y118.766 E7.47182
G1 X112.251 Y118.823 E7.47453
G1 X110.902 Y119.060 E7.49151
G1 X110.000 Y119.109 E7.50272
G1 X90.000 Y119.109 E7.75073
G1 X89.098 Y119.060 E7.76193
G1 X87.749 Y118.823 E7.77891
G1 X87.539 Y118.766 E7.78162
G1 X86.251 Y118.297 E7.79861
G1 X86.053 Y118.205 E7.80131
G1 X84.868 Y117.521 E7.81829
G1 X84.689 Y117.396 E7.82100
G1 X83.639 Y116.515 E7.83799
G1 X83.485 Y116.361 E7.84069
G1 X82.605 Y115.312 E7.85768
G1 X82.479 Y115.133 E7.86038
G1 X81.795 Y113.947 E7.87736
G1 X81.703 Y113.749 E7.88007
G1 X81.234 Y112.461 E7.89706
G1 X81.177 Y112.251 E7.89976
G1 X80.940 Y110.905 E7.91672
G1 X80.921 Y110.685 E7.91945
G1 X80.891 Y110.000 E7.92795
G1 X80.891 Y90.000 E8.17597
G1 X80.940 Y89.098 E8.18717
G1 X81.177 Y87.749 E8.20416
G1 X81.234 Y87.538 E8.20686
G1 X81.702 Y86.252 E8.22383
G1 X81.795 Y86.053 E8.22655
G1 X82.479 Y84.867 E8.24353
G1 X82.604 Y84.689 E8.24624
G1 X83.425 Y83.710 E8.26208
G1 X83.628 Y83.880 F12000.000
G1 X83.827 Y83.673 E8.26564 F2550.000
G1 X84.841 Y82.822 E8.28206
G1 X85.019 Y82.697 E8.28476
G1 X86.166 Y82.035 E8.30117
G1 X86.363 Y81.943 E8.30387
G1 X87.605 Y81.491 E8.32026
G1 X87.818 Y81.434 E8.32299
G1 X89.119 Y81.204 E8.33937
G1 X90.000 Y81.156 E8.35032
G1 X110.000 Y81.156 E8.59833
G1 X110.658 Y81.185 E8.60649
G1 X110.879 Y81.204 E8.60925 F2550.000
G1 X112.182 Y81.434 E8.62566
G1 X112.393 Y81.490 E8.62836
G1 X113.636 Y81.943 E8.64477
G1 X113.834 Y82.035 E8.64748
G1 X114.980 Y82.697 E8.66388
G1 X115.159 Y82.822 E8.66659
G1 X116.172 Y83.672 E8.68299
G1 X116.327 Y83.827 E8.68571
G1 X117.178 Y84.841 E8.70213
G1 X117.303 Y85.020 E8.70483
G1 X117.965 Y86.165 E8.72124
G1 X118.057 Y86.363 E8.72394
G1 X118.510 Y87.607 E8.74036
G1 X118.566 Y87.818 E8.74306
G1 X118.796 Y89.121 E8.75947
G1 X118.844 Y90.000 E8.77039
G1 X118.844 Y110.000 E9.01840
G1 X118.796 Y110.879 E9.02932
G1 X118.566 Y112.182 E9.04573
G1 X118.510 Y112.393 E9.04843
G1 X118.057 Y113.637 E9.06485
G1 X117.965 Y113.834 E9.06755
G1 X117.304 Y114.979 E9.08394
G1 X117.178 Y115.159 E9.08666
G1 X116.327 Y116.173 E9.10308
G1 X116.173 Y116.327 E9.10578
G1 X115.159 Y117.178 E9.12220
G1 X114.981 Y117.303 E9.12490
G1 X113.835 Y117.964 E9.14130
G1 X113.637 Y118.057 E9.14401
G1 X112.393 Y118.510 E9.16043
G1 X112.182 Y118.566 E9.16313
G1 X110.879 Y118.796 E9.17954
G1 X110.000 Y118.844 E9.19046
G1 X90.000 Y118.844 E9.43847
G1 X89.121 Y118.796 E9.44939
G1 X87.818 Y118.566 E9.46580
G1 X87.607 Y118.510 E9.46850
G1 X86.363 Y118.057 E9.48492
G1 X86.166 Y117.965 E9.48762
G1 X85.020 Y117.303 E9.50402
G1 X84.841 Y117.178 E9.50673
G1 X83.827 Y116.327 E9.52315
G1 X83.673 Y116.173 E9.52585
G1 X82.822 Y115.159 E9.54226
G1 X82.697 Y114.981 E9.54497
G1 X82.036 Y113.835 E9.56137
G1 X81.943 Y113.637 E9.56408
G1 X81.490 Y112.393 E9.58050
G1 X81.434 Y112.182 E9.58320
G1 X81.204 Y110.881 E9.59958
G1 X81.185 Y110.662 E9.60232
G1 X81.156 Y110.000 E9.61053
G1 X81.156 Y90.000 E9.85854
G1 X81.204 Y89.121 E9.86946
G1 X81.434 Y87.818 E9.88587
G1 X81.490 Y87.607 E9.88857
G1 X81.943 Y86.365 E9.90497
G1 X82.035 Y86.166 E9.90769
G1 X82.697 Y85.020 E9.92410
G1 X82.822 Y84.841 E9.92680
G1 X83.580 Y83.938 E9.94142
G1 X83.783 Y84.108 F12000.000
G1 X84.015 Y83.861 E9.94563 F2550.000
G1 X84.993 Y83.040 E9.96147
G1 X85.172 Y82.915 E9.96417
G1 X86.278 Y82.276 E9.98001
G1 X86.475 Y82.184 E9.98271
G1 X87.674 Y81.747 E9.99853
G1 X87.886 Y81.691 E10.00126
G1 X89.142 Y81.469 E10.01707
G1 X90.000 Y81.422 E10.02773
G1 X110.000 Y81.422 E10.27574
G1 X110.635 Y81.449 E10.28361
G1 X110.856 Y81.469 E10.28637 F2550.000
G1 X112.113 Y81.690 E10.30220
G1 X112.324 Y81.747 E10.30491
G1 X113.524 Y82.184 E10.32074
G1 X113.722 Y82.276 E10.32345
G1 X114.828 Y82.914 E10.33928
G1 X115.007 Y83.040 E10.34199
G1 X115.984 Y83.860 E10.35781
G1 X116.139 Y84.015 E10.36053
G1 X116.960 Y84.993 E10.37638
G1 X117.085 Y85.172 E10.37908
G1 X117.724 Y86.278 E10.39491
G1 X117.816 Y86.475 E10.39762
G1 X118.253 Y87.676 E10.41346
G1 X118.309 Y87.886 E10.41616
G1 X118.531 Y89.144 E10.43200
G1 X118.578 Y90.000 E10.44263
G1 X118.578 Y110.000 E10.69064
G1 X118.531 Y110.856 E10.70127
G1 X118.309 Y112.114 E10.71711
G1 X118.253 Y112.324 E10.71981
G1 X117.816 Y113.525 E10.73565
G1 X117.724 Y113.722 E10.73835
G1 X117.086 Y114.827 E10.75417
G1 X116.960 Y115.007 E10.75689
G1 X116.139 Y115.985 E10.77273
G1 X115.985 Y116.139 E10.77544
G1 X115.007 Y116.960 E10.79128
G1 X114.828 Y117.085 E10.79398
G1 X113.723 Y117.724 E10.80981
G1 X113.525 Y117.816 E10.81252
G1 X112.324 Y118.253 E10.82836
G1 X112.114 Y118.309 E10.83106
G1 X110.856 Y118.531 E10.84690
G1 X110.000 Y118.578 E10.85753
G1 X90.000 Y118.578 E11.10554
G1 X89.144 Y118.531 E11.11617
G1 X87.886 Y118.309 E11.13201
G1 X87.676 Y118.253 E11.13471
G1 X86.475 Y117.816 E11.15055
G1 X86.278 Y117.724 E11.15326
G1 X85.172 Y117.086 E11.16908
G1 X84.993 Y116.960 E11.17179
G1 X84.015 Y116.139 E11.18764
G1 X83.861 Y115.985 E11.19034
G1 X83.040 Y115.007 E11.20617
G1 X82.915 Y114.828 E11.20888
G1 X82.276 Y113.723 E11.22471
G1 X82.184 Y113.525 E11.22742
G1 X81.747 Y112.324 E11.24326
G1 X81.691 Y112.114 E11.24597
G1 X81.469 Y110.858 E11.26177
G1 X81.450 Y110.639 E11.26451
G1 X81.422 Y110.000 E11.27243
G1 X81.422 Y90.000 E11.52044
G1 X81.469 Y89.144 E11.53107
G1 X81.691 Y87.886 E11.54691
G1 X81.747 Y87.676 E11.54961
G1 X82.183 Y86.477 E11.56544
G1 X82.276 Y86.278 E11.56816
G1 X82.914 Y85.172 E11.58399
G1 X83.040 Y84.993 E11.58670
G1 X83.734 Y84.165 E11.60010
G1 X83.937 Y84.335 F12000.000
G1 X84.203 Y84.049 E11.60495 F2550.000
G1 X85.146 Y83.257 E11.62022
G1 X85.324 Y83.132 E11.62292
G1 X86.390 Y82.517 E11.63818
G1 X86.588 Y82.425 E11.64088
G1 X87.743 Y82.004 E11.65613
G1 X87.955 Y81.947 E11.65885
G1 X89.165 Y81.734 E11.67409
G1 X90.000 Y81.688 E11.68446
G1 X110.000 Y81.688 E11.93247
G1 X110.612 Y81.714 E11.94006
G1 X110.833 Y81.733 E11.94281 F2550.000
G1 X112.045 Y81.947 E11.95807
G1 X112.255 Y82.004 E11.96078
G1 X113.412 Y82.424 E11.97604
G1 X113.610 Y82.517 E11.97875
G1 X114.679 Y83.134 E11.99405
G1 X114.854 Y83.257 E11.99672
G1 X115.796 Y84.047 E12.01196
G1 X115.951 Y84.203 E12.01468
G1 X116.743 Y85.146 E12.02995
G1 X116.868 Y85.324 E12.03265
G1 X117.483 Y86.390 E12.04791
G1 X117.575 Y86.587 E12.05062
G1 X117.996 Y87.745 E12.06589
G1 X118.053 Y87.955 E12.06859
G1 X118.267 Y89.167 E12.08385
G1 X118.312 Y90.000 E12.09419
G1 X118.312 Y110.000 E12.34221
G1 X118.267 Y110.833 E12.35255
G1 X118.053 Y112.045 E12.36781
G1 X117.996 Y112.255 E12.37051
G1 X117.575 Y113.412 E12.38578
G1 X117.483 Y113.610 E12.38848
G1 X116.869 Y114.675 E12.40373
G1 X116.743 Y114.854 E12.40645
G1 X115.951 Y115.797 E12.42172
G1 X115.797 Y115.951 E12.42442
G1 X114.854 Y116.743 E12.43968
G1 X114.676 Y116.868 E12.44239
G1 X113.610 Y117.483 E12.45764
G1 X113.412 Y117.575 E12.46035
G1 X112.255 Y117.996 E12.47562
G1 X112.045 Y118.053 E12.47832
G1 X110.833 Y118.267 E12.49359
G1 X110.000 Y118.312 E12.50393
G1 X90.000 Y118.312 E12.75194
G1 X89.167 Y118.267 E12.76228
G1 X87.955 Y118.053 E12.77754
G1 X87.745 Y117.996 E12.78025
G1 X86.588 Y117.575 E12.79552
G1 X86.390 Y117.483 E12.79822
G1 X85.325 Y116.868 E12.81347
G1 X85.146 Y116.743 E12.81618
G1 X84.203 Y115.951 E12.83145
G1 X84.048 Y115.797 E12.83415
G1 X83.257 Y114.855 E12.84941
G1 X83.132 Y114.676 E12.85212
G1 X82.517 Y113.610 E12.86738
G1 X82.425 Y113.412 E12.87008
G1 X82.004 Y112.255 E12.88536
G1 X81.947 Y112.045 E12.88806
G1 X81.734 Y110.835 E12.90329
G1 X81.714 Y110.615 E12.90602
G1 X81.688 Y110.000 E12.91366
G1 X81.688 Y90.000 E13.16167
G1 X81.733 Y89.167 E13.17201
G1 X81.947 Y87.955 E13.18728
G1 X82.004 Y87.745 E13.18998
G1 X82.424 Y86.589 E13.20523
G1 X82.517 Y86.390 E13.20795
G1 X83.132 Y85.324 E13.22321
G1 X83.257 Y85.146 E13.22592
G1 X83.889 Y84.393 E13.23810
G1 X84.092 Y84.563 F12000.000
G1 X84.390 Y84.236 E13.24359 F2550.000
G1 X85.298 Y83.475 E13.25829
G1 X85.477 Y83.350 E13.26099
G1 X86.502 Y82.758 E13.27568
G1 X86.700 Y82.665 E13.27838
G1 X87.812 Y82.261 E13.29305
G1 X88.024 Y82.204 E13.29578
G1 X89.188 Y81.998 E13.31044
G1 X90.000 Y81.953 E13.32052
G1 X110.000 Y81.953 E13.56853
G1 X110.589 Y81.979 E13.57584
G1 X110.809 Y81.998 E13.57859 F2550.000
G1 X111.976 Y82.204 E13.59327
G1 X112.187 Y82.260 E13.59598
G1 X113.300 Y82.665 E13.61067
G1 X113.498 Y82.758 E13.61338
G1 X114.526 Y83.351 E13.62810
G1 X114.702 Y83.475 E13.63077
G1 X115.609 Y84.235 E13.64544
G1 X115.764 Y84.390 E13.64816
G1 X116.525 Y85.298 E13.66286
G1 X116.650 Y85.477 E13.66556
G1 X117.242 Y86.502 E13.68024
G1 X117.335 Y86.700 E13.68295
G1 X117.740 Y87.813 E13.69764
G1 X117.796 Y88.024 E13.70035
G1 X118.002 Y89.191 E13.71504
G1 X118.047 Y90.000 E13.72509
G1 X118.047 Y110.000 E13.97310
G1 X118.002 Y110.809 E13.98315
G1 X117.796 Y111.976 E13.99784
G1 X117.740 Y112.187 E14.00054
G1 X117.335 Y113.300 E14.01524
G1 X117.242 Y113.498 E14.01794
G1 X116.651 Y114.522 E14.03261
G1 X116.525 Y114.702 E14.03533
G1 X115.764 Y115.610 E14.05003
G1 X115.610 Y115.764 E14.05273
G1 X114.702 Y116.525 E14.06742
G1 X114.523 Y116.650 E14.07012
G1 X113.498 Y117.242 E14.08481
G1 X113.300 Y117.335 E14.08751
G1 X112.187 Y117.740 E14.10221
G1 X111.976 Y117.796 E14.10491
G1 X110.809 Y118.002 E14.11960
G1 X110.000 Y118.047 E14.12965
G1 X90.000 Y118.047 E14.37767
G1 X89.191 Y118.002 E14.38772
G1 X88.024 Y117.796 E14.40241
G1 X87.813 Y117.740 E14.40511
G1 X86.700 Y117.335 E14.41981
G1 X86.502 Y117.242 E14.42251
G1 X85.477 Y116.651 E14.43719
G1 X85.298 Y116.525 E14.43990
G1 X84.390 Y115.764 E14.45459
G1 X84.236 Y115.610 E14.45729
G1 X83.475 Y114.702 E14.47198
G1 X83.350 Y114.523 E14.47469
G1 X82.758 Y113.498 E14.48937
G1 X82.665 Y113.300 E14.49208
G1 X82.260 Y112.187 E14.50677
G1 X82.204 Y111.976 E14.50948
G1 X81.998 Y110.812 E14.52414
G1 X81.979 Y110.592 E14.52687
G1 X81.953 Y110.000 E14.53422
