; generated by Slic3r 0.9.8 on 2015-03-10 at 01:06:39

; layer_height = 0.30
; perimeters = 6
; top_solid_layers = 3
; bottom_solid_layers = 3
; fill_density = 0.25
; perimeter_speed = 30
; infill_speed = 50
; travel_speed = 200
; scale = 1
; nozzle_diameter = 0.5
; filament_diameter = 3
; extrusion_multiplier = 1.15
; perimeters extrusion width = 0.51mm
; infill extrusion width = 0.54mm
; first layer extrusion width = 0.30mm

M107
M190 S50 ; wait for bed temperature to be reached
M104 S210 ; set temperature
G28 ; home all axes
G90 ; use absolute coordinates
G21 ; set units to millimeters
G92 E0
M82 ; use absolute distances for extrusion
M109 S190 ; wait for temperature to be reached
G1 E10 F400 ; prime the nozzle
G90 ; use absolute coordinates
G21 ; set units to millimeters
G92 E0
M82 ; use absolute distances for extrusion
G1 F3900.000 E-5.00000
G92 E0
G1 Z0.300 F12000.000
G1 X112.660 Y112.470
G1 F3900.000 E5.10000
G1 X112.070 Y113.020 F1530.000 E5.11350
G1 X111.640 Y113.340 E5.12247
G1 X110.950 Y113.760 E5.13599
G1 X110.460 Y113.990 E5.14505
G1 X109.960 Y114.180 E5.15400
G1 X109.180 Y114.390 E5.16752
G1 X108.650 Y114.480 E5.17652
G1 X107.840 Y114.530 E5.19010
G1 X88.150 Y114.530 E5.51966
G1 X87.340 Y114.480 E5.53324
G1 X86.810 Y114.390 E5.54224
G1 X86.290 Y114.260 E5.55121
G1 X85.780 Y114.090 E5.56021
G1 X85.280 Y113.880 E5.56928
G1 X84.810 Y113.630 E5.57819
G1 X84.350 Y113.340 E5.58729
G1 X83.920 Y113.020 E5.59627
G1 X83.520 Y112.660 E5.60527
G1 X82.970 Y112.070 E5.61877
G1 X82.650 Y111.640 E5.62774
G1 X82.230 Y110.950 E5.64126
G1 X82.000 Y110.460 E5.65032
G1 X81.810 Y109.960 E5.65928
G1 X81.600 Y109.180 E5.67280
G1 X81.510 Y108.650 E5.68179
G1 X81.460 Y107.840 E5.69538
G1 X81.470 Y87.880 E6.02945
G1 X81.510 Y87.340 E6.03851
G1 X81.600 Y86.810 E6.04751
G1 X81.730 Y86.290 E6.05648
G1 X81.900 Y85.780 E6.06548
G1 X82.110 Y85.280 E6.07455
G1 X82.360 Y84.810 E6.08346
G1 X82.650 Y84.350 E6.09257
G1 X82.970 Y83.920 E6.10154
G1 X83.330 Y83.520 E6.11054
G1 X83.920 Y82.970 E6.12404
G1 X84.580 Y82.500 E6.13760
G1 X85.280 Y82.110 E6.15102
G1 X86.030 Y81.810 E6.16454
G1 X86.810 Y81.600 E6.17806
G1 X87.340 Y81.510 E6.18705
G1 X88.150 Y81.460 E6.20064
G1 X107.840 Y81.460 E6.53019
G1 X108.650 Y81.510 E6.54377
G1 X109.180 Y81.600 E6.55277
G1 X109.700 Y81.730 E6.56174
G1 X110.210 Y81.900 E6.57074
G1 X110.710 Y82.110 E6.57982
G1 X111.180 Y82.360 E6.58873
G1 X111.640 Y82.650 E6.59783
G1 X112.070 Y82.970 E6.60680
G1 X112.470 Y83.330 E6.61581
G1 X113.020 Y83.920 E6.62931
G1 X113.340 Y84.350 E6.63828
G1 X113.760 Y85.040 E6.65180
G1 X113.990 Y85.530 E6.66086
G1 X114.180 Y86.030 E6.66981
G1 X114.390 Y86.810 E6.68333
G1 X114.480 Y87.340 E6.69233
G1 X114.530 Y88.150 E6.70591
G1 X114.530 Y107.840 E7.03546
G1 X114.480 Y108.650 E7.04904
G1 X114.390 Y109.180 E7.05804
G1 X114.260 Y109.700 E7.06701
G1 X114.090 Y110.210 E7.07601
G1 X113.880 Y110.710 E7.08509
G1 X113.630 Y111.180 E7.09400
G1 X113.340 Y111.640 E7.10310
G1 X113.020 Y112.070 E7.11207
G1 X112.694 Y112.432 E7.12022
G1 X112.660 Y112.470 E7.12108
G1 X112.330 Y112.330 F12000.000
G1 X111.740 Y112.850 F1530.000 E7.13424
G1 X111.310 Y113.150 E7.14302
G1 X110.860 Y113.420 E7.15180
G1 X110.390 Y113.650 E7.16056
G1 X109.900 Y113.840 E7.16935
G1 X109.400 Y113.990 E7.17809
G1 X108.880 Y114.100 E7.18699
G1 X108.100 Y114.180 E7.20011
G1 X87.890 Y114.180 E7.53837
G1 X87.110 Y114.100 E7.55149
G1 X86.590 Y113.990 E7.56039
G1 X86.090 Y113.840 E7.56912
G1 X85.600 Y113.650 E7.57792
G1 X85.130 Y113.420 E7.58668
G1 X84.680 Y113.150 E7.59546
G1 X84.250 Y112.850 E7.60424
G1 X83.660 Y112.330 E7.61740
G1 X83.140 Y111.740 E7.63056
G1 X82.840 Y111.310 E7.63934
G1 X82.570 Y110.860 E7.64812
G1 X82.340 Y110.390 E7.65688
G1 X82.150 Y109.900 E7.66567
G1 X82.000 Y109.400 E7.67441
G1 X81.890 Y108.880 E7.68331
G1 X81.810 Y108.100 E7.69643
G1 X81.810 Y87.890 E8.03469
G1 X81.890 Y87.110 E8.04781
G1 X81.940 Y86.850 E8.05224
G1 X82.070 Y86.340 E8.06105
G1 X82.240 Y85.840 E8.06989
G1 X82.450 Y85.360 E8.07866
G1 X82.700 Y84.900 E8.08742
G1 X83.140 Y84.250 E8.10056
G1 X83.480 Y83.850 E8.10934
G1 X83.850 Y83.480 E8.11810
G1 X84.250 Y83.140 E8.12689
G1 X84.900 Y82.700 E8.14003
G1 X85.360 Y82.450 E8.14879
G1 X85.840 Y82.240 E8.15756
G1 X86.590 Y82.000 E8.17074
G1 X87.110 Y81.890 E8.17963
G1 X87.890 Y81.810 E8.19276
G1 X108.100 Y81.810 E8.53101
G1 X108.880 Y81.890 E8.54414
G1 X109.400 Y82.000 E8.55303
G1 X109.900 Y82.150 E8.56177
G1 X110.390 Y82.340 E8.57057
G1 X110.860 Y82.570 E8.57932
G1 X111.310 Y82.840 E8.58811
G1 X111.740 Y83.140 E8.59688
G1 X112.330 Y83.660 E8.61005
G1 X112.850 Y84.250 E8.62321
G1 X113.150 Y84.680 E8.63198
G1 X113.420 Y85.130 E8.64077
G1 X113.650 Y85.600 E8.64953
G1 X113.840 Y86.090 E8.65832
G1 X113.990 Y86.590 E8.66706
G1 X114.100 Y87.110 E8.67595
G1 X114.180 Y87.890 E8.68908
G1 X114.180 Y108.100 E9.02733
G1 X114.100 Y108.880 E9.04046
G1 X113.990 Y109.400 E9.04935
G1 X113.840 Y109.900 E9.05809
G1 X113.650 Y110.390 E9.06689
G1 X113.420 Y110.860 E9.07564
G1 X113.150 Y111.310 E9.08443
G1 X112.850 Y111.740 E9.09320
G1 X112.365 Y112.293 E9.10551
G1 X112.330 Y112.330 E9.10637
G1 F3900.000 E4.10637
G92 E0
G1 X89.865 Y106.135 F12000.000
G1 F3900.000 E5.10000
G1 X89.865 Y89.865 F1530.000 E5.37233
G1 X106.135 Y89.865 E5.64465
G1 X106.135 Y106.135 E5.91698
G1 X89.916 Y106.135 E6.18844
G1 X89.865 Y106.135 E6.18930
G1 X89.522 Y106.478 F12000.000
G1 X89.522 Y89.522 F1530.000 E6.47311
G1 X106.478 Y89.522 E6.75691
G1 X106.478 Y106.478 E7.04072
G1 X89.573 Y106.478 E7.32366
G1 X89.522 Y106.478 E7.32452
G1 X89.179 Y106.821 F12000.000
G1 X89.179 Y89.179 F1530.000 E7.61981
G1 X106.821 Y89.179 E7.91509
G1 X106.821 Y106.821 E8.21037
G1 X89.230 Y106.821 E8.50480
G1 X89.179 Y106.821 E8.50566
G1 X88.836 Y107.164 F12000.000
G1 X88.836 Y88.836 F1530.000 E8.81242
G1 X107.164 Y88.836 E9.11918
G1 X107.164 Y107.164 E9.42595
G1 X88.887 Y107.164 E9.73185
G1 X88.836 Y107.164 E9.73271
G1 X88.493 Y107.507 F12000.000
G1 X88.493 Y88.493 F1530.000 E10.05095
G1 X107.507 Y88.493 E10.36919
G1 X107.507 Y107.507 E10.68743
G1 X88.544 Y107.507 E11.00481
G1 X88.493 Y107.507 E11.00567
G1 X88.150 Y107.850 F12000.000
G1 X88.150 Y88.150 F1453.500 E11.33540
G1 X107.850 Y88.150 E11.66512
G1 X107.850 Y107.850 E11.99484
G1 X88.201 Y107.850 E12.32370
G1 X88.150 Y107.850 E12.32456
G1 X88.321 Y107.553 F12000.000
G1 F3900.000 E7.32456
G92 E0
G1 X90.317 Y105.902 F12000.000
G1 F3900.000 E5.10000
G1 X90.098 Y105.683 F2550.000 E5.10519
G1 X90.098 Y105.196 E5.11338
G1 X90.804 Y105.902 E5.13015
G1 X91.291 Y105.902 E5.13833
G1 X90.098 Y104.709 E5.16668
G1 X90.098 Y104.222 E5.17487
G1 X91.778 Y105.902 E5.21479
G1 X92.265 Y105.902 E5.22298
G1 X90.098 Y103.735 E5.27448
G1 X90.098 Y103.248 E5.28266
G1 X92.752 Y105.902 E5.34574
G1 X93.239 Y105.902 E5.35393
G1 X90.098 Y102.761 E5.42858
G1 X90.098 Y102.274 E5.43677
G1 X93.726 Y105.902 E5.52300
G1 X94.213 Y105.902 E5.53119
G1 X90.098 Y101.787 E5.62899
G1 X90.098 Y101.300 E5.63718
G1 X94.700 Y105.902 E5.74657
G1 X95.187 Y105.902 E5.75475
G1 X90.098 Y100.813 E5.87572
G1 X90.098 Y100.326 E5.88391
G1 X95.674 Y105.902 E6.01645
G1 X96.161 Y105.902 E6.02463
G1 X90.098 Y99.839 E6.16875
G1 X90.098 Y99.352 E6.17693
G1 X96.648 Y105.902 E6.33263
G1 X97.135 Y105.902 E6.34081
G1 X90.098 Y98.865 E6.50809
G1 X90.098 Y98.378 E6.51627
G1 X97.622 Y105.902 E6.69512
G1 X98.109 Y105.902 E6.70331
G1 X90.098 Y97.891 E6.89374
G1 X90.098 Y97.404 E6.90192
G1 X98.596 Y105.902 E7.10393
G1 X99.083 Y105.902 E7.11211
G1 X90.098 Y96.917 E7.32569
G1 X90.098 Y96.430 E7.33388
G1 X99.570 Y105.902 E7.55903
G1 X100.057 Y105.902 E7.56722
G1 X90.098 Y95.943 E7.80395
G1 X90.098 Y95.456 E7.81214
G1 X100.544 Y105.902 E8.06045
G1 X101.031 Y105.902 E8.06864
G1 X90.098 Y94.969 E8.32853
G1 X90.098 Y94.481 E8.33672
G1 X101.518 Y105.902 E8.60818
G1 X102.005 Y105.902 E8.61637
G1 X90.098 Y93.995 E8.89941
G1 X90.098 Y93.508 E8.90760
G1 X102.492 Y105.902 E9.20222
G1 X102.980 Y105.902 E9.21040
G1 X90.098 Y93.020 E9.51660
G1 X90.098 Y92.533 E9.52479
G1 X103.467 Y105.902 E9.84256
G1 X103.954 Y105.902 E9.85075
G1 X90.098 Y92.046 E10.18010
G1 X90.098 Y91.559 E10.18829
G1 X104.441 Y105.902 E10.52921
G1 X104.928 Y105.902 E10.53740
G1 X90.098 Y91.072 E10.88991
G1 X90.098 Y90.585 E10.89809
G1 X105.415 Y105.902 E11.26217
G1 X105.902 Y105.902 E11.27036
G1 X90.098 Y90.098 E11.64601
G1 X90.585 Y90.098 E11.65420
G1 X105.902 Y105.415 E12.01828
G1 X105.902 Y104.928 E12.02647
G1 X91.072 Y90.098 E12.37897
G1 X91.559 Y90.098 E12.38716
G1 X105.902 Y104.441 E12.72808
G1 X105.902 Y103.954 E12.73627
G1 X92.046 Y90.098 E13.06562
G1 X92.533 Y90.098 E13.07380
G1 X105.902 Y103.467 E13.39158
G1 X105.902 Y102.980 E13.39976
G1 X93.020 Y90.098 E13.70596
G1 X93.508 Y90.098 E13.71415
G1 X105.902 Y102.492 E14.00877
G1 X105.902 Y102.005 E14.01695
G1 X93.995 Y90.098 E14.29999
G1 X94.482 Y90.098 E14.30818
G1 X105.902 Y101.518 E14.57964
G1 X105.902 Y101.031 E14.58783
G1 X94.969 Y90.098 E14.84772
G1 X95.456 Y90.098 E14.85590
G1 X105.902 Y100.544 E15.10421
G1 X105.902 Y100.057 E15.11240
G1 X95.943 Y90.098 E15.34914
G1 X96.430 Y90.098 E15.35732
G1 X105.902 Y99.570 E15.58248
G1 X105.902 Y99.083 E15.59067
G1 X96.917 Y90.098 E15.80424
G1 X97.404 Y90.098 E15.81243
G1 X105.902 Y98.596 E16.01443
G1 X105.902 Y98.109 E16.02262
G1 X97.891 Y90.098 E16.21304
G1 X98.378 Y90.098 E16.22123
G1 X105.902 Y97.622 E16.40008
G1 X105.902 Y97.135 E16.40827
G1 X98.865 Y90.098 E16.57554
G1 X99.352 Y90.098 E16.58372
G1 X105.902 Y96.648 E16.73942
G1 X105.902 Y96.161 E16.74760
G1 X99.839 Y90.098 E16.89172
G1 X100.326 Y90.098 E16.89991
G1 X105.902 Y95.674 E17.03244
G1 X105.902 Y95.187 E17.04063
G1 X100.813 Y90.098 E17.16159
G1 X101.300 Y90.098 E17.16978
G1 X105.902 Y94.700 E17.27917
G1 X105.902 Y94.213 E17.28735
G1 X101.787 Y90.098 E17.38516
G1 X102.274 Y90.098 E17.39335
G1 X105.902 Y93.726 E17.47958
G1 X105.902 Y93.239 E17.48777
G1 X102.761 Y90.098 E17.56242
G1 X103.248 Y90.098 E17.57061
G1 X105.902 Y92.752 E17.63368
G1 X105.902 Y92.265 E17.64187
G1 X103.735 Y90.098 E17.69337
G1 X104.222 Y90.098 E17.70156
G1 X105.902 Y91.778 E17.74148
G1 X105.902 Y91.291 E17.74967
G1 X104.709 Y90.098 E17.77801
G1 X105.196 Y90.098 E17.78620
G1 X105.902 Y90.804 E17.80297
G1 X105.902 Y90.317 E17.81115
G1 X105.683 Y90.098 E17.81635
G1 F3900.000 E12.81635
G92 E0
G1 Z0.600 F12000.000
G1 X90.794 Y90.794
G1 F3900.000 E5.10000
G1 X105.206 Y90.794 F1800.000 E5.45722
G1 X105.206 Y105.206 E5.81444
G1 X90.794 Y105.206 E6.17165
G1 X90.794 Y90.870 E6.52698
G1 X90.794 Y90.794 E6.52887
G1 X90.286 Y90.286 F12000.000
G1 X105.714 Y90.286 F1800.000 E6.91127
G1 X105.714 Y105.714 E7.29366
G1 X90.286 Y105.714 E7.67606
G1 X90.286 Y90.363 E8.05656
G1 X90.286 Y90.286 E8.05845
G1 X89.779 Y89.779 F12000.000
G1 X106.221 Y89.779 F1800.000 E8.46602
G1 X106.221 Y106.221 E8.87359
G1 X89.779 Y106.221 E9.28117
G1 X89.779 Y89.855 E9.68685
G1 X89.779 Y89.779 E9.68874
G1 X89.271 Y89.271 F12000.000
G1 X106.729 Y89.271 F1800.000 E10.12148
G1 X106.729 Y106.729 E10.55423
G1 X89.271 Y106.729 E10.98698
G1 X89.271 Y89.347 E11.41784
G1 X89.271 Y89.271 E11.41973
G1 X88.763 Y88.763 F12000.000
G1 X107.237 Y88.763 F1800.000 E11.87765
G1 X107.237 Y107.237 E12.33557
G1 X88.763 Y107.237 E12.79350
G1 X88.763 Y88.839 E13.24953
G1 X88.763 Y88.763 E13.25142
G1 X88.255 Y88.255 F12000.000
G1 X107.745 Y88.255 F1710.000 E13.73452
G1 X107.745 Y107.745 E14.21762
G1 X88.255 Y107.745 E14.70072
G1 X88.255 Y88.331 E15.18194
G1 X88.255 Y88.255 E15.18382
G1 X88.695 Y88.509 F12000.000
G1 F3900.000 E10.18382
G92 E0
G1 X91.471 Y91.133 F12000.000
G1 F3900.000 E5.10000
G1 X91.133 Y91.471 F3000.000 E5.11264
G1 X91.133 Y92.237 E5.13286
G1 X92.237 Y91.133 E5.17410
G1 X93.002 Y91.133 E5.19432
G1 X91.133 Y93.002 E5.26416
G1 X91.133 Y93.768 E5.28438
G1 X93.768 Y91.133 E5.38282
G1 X94.533 Y91.133 E5.40304
G1 X91.133 Y94.533 E5.53008
G1 X91.133 Y95.299 E5.55030
G1 X95.299 Y91.133 E5.70594
G1 X96.064 Y91.133 E5.72616
G1 X91.133 Y96.064 E5.91040
G1 X91.133 Y96.830 E5.93062
G1 X96.830 Y91.133 E6.14345
G1 X97.595 Y91.133 E6.16367
G1 X91.133 Y97.595 E6.40511
G1 X91.133 Y98.361 E6.42533
G1 X98.361 Y91.133 E6.69536
G1 X99.126 Y91.133 E6.71558
G1 X91.133 Y99.126 E7.01421
G1 X91.133 Y99.891 E7.03444
G1 X99.891 Y91.133 E7.36166
G1 X100.657 Y91.133 E7.38189
G1 X91.133 Y100.657 E7.73772
G1 X91.133 Y101.422 E7.75794
G1 X101.422 Y91.133 E8.14237
G1 X102.188 Y91.133 E8.16259
G1 X91.133 Y102.188 E8.57561
G1 X91.133 Y102.953 E8.59584
G1 X102.953 Y91.133 E9.03746
G1 X103.719 Y91.133 E9.05769
G1 X91.133 Y103.719 E9.52791
G1 X91.133 Y104.484 E9.54813
G1 X104.484 Y91.133 E10.04696
G1 X104.867 Y91.516 E10.06126
G1 X91.516 Y104.867 E10.56008
G1 X92.281 Y104.867 E10.58031
G1 X104.867 Y92.281 E11.05053
G1 X104.867 Y93.047 E11.07076
G1 X93.047 Y104.867 E11.51238
G1 X93.812 Y104.867 E11.53260
G1 X104.867 Y93.812 E11.94563
G1 X104.867 Y94.577 E11.96586
G1 X94.578 Y104.867 E12.35029
G1 X95.343 Y104.867 E12.37051
G1 X104.867 Y95.343 E12.72634
G1 X104.867 Y96.109 E12.74656
G1 X96.108 Y104.867 E13.07379
G1 X96.874 Y104.867 E13.09402
G1 X104.867 Y96.874 E13.39265
G1 X104.867 Y97.639 E13.41287
G1 X97.639 Y104.867 E13.68291
G1 X98.405 Y104.867 E13.70313
G1 X104.867 Y98.405 E13.94456
G1 X104.867 Y99.170 E13.96478
G1 X99.170 Y104.867 E14.17762
G1 X99.936 Y104.867 E14.19784
G1 X104.867 Y99.936 E14.38208
G1 X104.867 Y100.701 E14.40231
G1 X100.701 Y104.867 E14.55794
G1 X101.467 Y104.867 E14.57817
G1 X104.867 Y101.467 E14.70520
G1 X104.867 Y102.232 E14.72542
G1 X102.232 Y104.867 E14.82387
G1 X102.998 Y104.867 E14.84409
G1 X104.867 Y102.998 E14.91393
G1 X104.867 Y103.763 E14.93415
G1 X103.763 Y104.867 E14.97539
G1 X104.529 Y104.867 E14.99562
G1 X104.867 Y104.529 E15.00826
G1 F3900.000 E10.00826
G92 E0
G1 Z0.900 F12000.000
G1 X90.794 Y105.206
G1 F3900.000 E5.10000
G1 X90.794 Y90.794 F1800.000 E5.45722
G1 X105.206 Y90.794 E5.81444
G1 X105.206 Y105.206 E6.17165
G1 X90.870 Y105.206 E6.52698
G1 X90.794 Y105.206 E6.52887
G1 X90.286 Y105.714 F12000.000
G1 X90.286 Y90.286 F1800.000 E6.91127
G1 X105.714 Y90.286 E7.29366
G1 X105.714 Y105.714 E7.67606
G1 X90.363 Y105.714 E8.05656
G1 X90.286 Y105.714 E8.05845
G1 X89.779 Y106.221 F12000.000
G1 X89.779 Y89.779 F1800.000 E8.46602
G1 X106.221 Y89.779 E8.87359
G1 X106.221 Y106.221 E9.28117
G1 X89.855 Y106.221 E9.68685
G1 X89.779 Y106.221 E9.68874
G1 X89.271 Y106.729 F12000.000
G1 X89.271 Y89.271 F1800.000 E10.12148
G1 X106.729 Y89.271 E10.55423
G1 X106.729 Y106.729 E10.98698
G1 X89.347 Y106.729 E11.41784
G1 X89.271 Y106.729 E11.41973
G1 X88.763 Y107.237 F12000.000
G1 X88.763 Y88.763 F1800.000 E11.87765
G1 X107.237 Y88.763 E12.33557
G1 X107.237 Y107.237 E12.79350
G1 X88.839 Y107.237 E13.24953
G1 X88.763 Y107.237 E13.25142
G1 X88.255 Y107.745 F12000.000
G1 X88.255 Y88.255 F1710.000 E13.73452
G1 X107.745 Y88.255 E14.21762
G1 X107.745 Y107.745 E14.70072
G1 X88.331 Y107.745 E15.18194
G1 X88.255 Y107.745 E15.18382
G1 X88.509 Y107.305 F12000.000
G1 F3900.000 E10.18382
G92 E0
G1 X91.471 Y104.867 F12000.000
G1 F3900.000 E5.10000
G1 X91.133 Y104.529 F3000.000 E5.11264
G1 X91.133 Y103.763 E5.13286
G1 X92.237 Y104.867 E5.17410
G1 X93.002 Y104.867 E5.19433
G1 X91.133 Y102.998 E5.26417
G1 X91.133 Y102.232 E5.28439
G1 X93.768 Y104.867 E5.38283
G1 X94.533 Y104.867 E5.40305
G1 X91.133 Y101.467 E5.53009
G1 X91.133 Y100.701 E5.55031
G1 X95.299 Y104.867 E5.70595
G1 X96.064 Y104.867 E5.72617
G1 X91.133 Y99.936 E5.91041
G1 X91.133 Y99.170 E5.93063
G1 X96.830 Y104.867 E6.14347
G1 X97.595 Y104.867 E6.16369
G1 X91.133 Y98.405 E6.40512
G1 X91.133 Y97.639 E6.42535
G1 X98.361 Y104.867 E6.69538
G1 X99.126 Y104.867 E6.71560
