; generated by Slic3r 1.2.7-dev on 2015-03-24 at 19:12:52

; external perimeters extrusion width = 0.25mm
; perimeters extrusion width = 0.43mm
; infill extrusion width = 0.43mm
; solid infill extrusion width = 0.28mm
; top infill extrusion width = 0.28mm

M107
M190 S55 ; set bed temperature
M104 S190 ; set temperature
G28 ; home all axes
G90 ; use absolute coordinates
G21 ; set units to millimeters
G92 E0 ; set extruder coordinate to zero
M82 ; use absolute distances for extrusion
G1 E10 F400 ; prime the nozzle

M109 S190 ; wait for temperature to be reached
G21 ; set units to millimeters
G90 ; use absolute coordinates
M82 ; use absolute distances for extrusion
G92 E0
G1 E-3.00000 F3900.00000
G92 E0
G1 Z0.300 F12000.000
G1 X75.286 Y75.303 F12000.000
G1 E3.10000 F3900.00000
G1 X78.434 Y72.716 E3.15052 F2550.000
G1 X82.025 Y70.793 E3.20104
G1 X85.923 Y69.607 E3.25156
G1 X90.000 Y69.203 E3.30237
G1 X110.000 Y69.203 E3.55038
G1 X114.054 Y69.602 E3.60090
G1 X117.953 Y70.784 E3.65142 F2550.000
G1 X121.547 Y72.703 E3.70194
G1 X124.697 Y75.286 E3.75246
G1 X127.284 Y78.434 E3.80298
G1 X129.207 Y82.025 E3.85350
G1 X130.393 Y85.923 E3.90402
G1 X130.797 Y90.000 E3.95482
G1 X130.797 Y110.000 E4.20284
G1 X130.398 Y114.054 E4.25336
G1 X129.216 Y117.953 E4.30388
G1 X127.297 Y121.547 E4.35440
G1 X124.714 Y124.697 E4.40492
G1 X121.566 Y127.284 E4.45544
G1 X117.975 Y129.207 E4.50596
G1 X114.077 Y130.393 E4.55648
G1 X110.000 Y130.797 E4.60728
G1 X90.000 Y130.797 E4.85529
G1 X85.946 Y130.398 E4.90581
G1 X82.047 Y129.216 E4.95633
G1 X78.453 Y127.297 E5.00685
G1 X75.303 Y124.714 E5.05737
G1 X72.716 Y121.566 E5.10789
G1 X70.793 Y117.975 E5.15841
G1 X69.607 Y114.077 E5.20893
G1 X69.203 Y110.000 E5.25974
G1 X69.203 Y90.000 E5.50775
G1 X69.602 Y85.946 E5.55827
G1 X70.784 Y82.047 E5.60879
G1 X72.703 Y78.453 E5.65931
G1 X75.239 Y75.361 E5.70890
G1 X75.450 Y75.535 F12000.000
G1 X75.548 Y75.417 E5.71081 F2550.000
G1 X78.690 Y72.865 E5.76100
G1 X82.271 Y70.979 E5.81120
G1 X86.153 Y69.832 E5.86139
G1 X90.000 Y69.469 E5.90931
G1 X110.000 Y69.469 E6.15732
G1 X114.028 Y69.868 E6.20751
G1 X117.900 Y71.049 E6.25771 F2550.000
G1 X121.464 Y72.968 E6.30790
G1 X124.583 Y75.548 E6.35810
G1 X127.135 Y78.690 E6.40829
G1 X129.021 Y82.271 E6.45849
G1 X130.168 Y86.153 E6.50869
G1 X130.531 Y90.000 E6.55660
G1 X130.531 Y110.000 E6.80461
G1 X130.132 Y114.028 E6.85480
G1 X128.951 Y117.900 E6.90500
G1 X127.032 Y121.464 E6.95520
G1 X124.452 Y124.583 E7.00539
G1 X121.310 Y127.135 E7.05559
G1 X117.729 Y129.021 E7.10578
G1 X113.847 Y130.168 E7.15598
G1 X110.000 Y130.531 E7.20389
G1 X90.000 Y130.531 E7.45190
G1 X85.972 Y130.132 E7.50210
G1 X82.100 Y128.951 E7.55229
G1 X78.536 Y127.032 E7.60249
G1 X75.417 Y124.452 E7.65268
G1 X72.865 Y121.310 E7.70288
G1 X70.979 Y117.729 E7.75307
G1 X69.832 Y113.847 E7.80327
G1 X69.469 Y110.000 E7.85118
G1 X69.469 Y90.000 E8.09919
G1 X69.868 Y85.972 E8.14939
G1 X71.049 Y82.100 E8.19958
G1 X72.968 Y78.536 E8.24978
G1 X75.402 Y75.593 E8.29714
G1 X75.612 Y75.768 F12000.000
G1 X75.809 Y75.532 E8.30096 F2550.000
G1 X78.945 Y73.015 E8.35082
G1 X82.517 Y71.167 E8.40069
G1 X86.383 Y70.060 E8.45056
G1 X90.000 Y69.734 E8.49559
G1 X110.000 Y69.734 E8.74360
G1 X114.002 Y70.133 E8.79347
G1 X117.846 Y71.315 E8.84334 F2550.000
G1 X121.381 Y73.232 E8.89321
G1 X124.468 Y75.809 E8.94308
G1 X126.985 Y78.945 E8.99295
G1 X128.833 Y82.517 E9.04282
G1 X129.940 Y86.383 E9.09269
G1 X130.266 Y90.000 E9.13772
G1 X130.266 Y110.000 E9.38573
G1 X129.867 Y114.002 E9.43560
G1 X128.685 Y117.846 E9.48547
G1 X126.768 Y121.381 E9.53534
G1 X124.191 Y124.468 E9.58521
G1 X121.055 Y126.985 E9.63507
G1 X117.483 Y128.833 E9.68494
G1 X113.617 Y129.940 E9.73481
G1 X110.000 Y130.266 E9.77984
G1 X90.000 Y130.266 E10.02785
G1 X85.998 Y129.867 E10.07772
G1 X82.154 Y128.685 E10.12759
G1 X78.619 Y126.768 E10.17746
G1 X75.532 Y124.191 E10.22733
G1 X73.015 Y121.055 E10.27720
G1 X71.167 Y117.483 E10.32707
G1 X70.060 Y113.617 E10.37694
G1 X69.734 Y110.000 E10.42197
G1 X69.734 Y90.000 E10.66998
G1 X70.133 Y85.998 E10.71985
G1 X71.315 Y82.154 E10.76972
G1 X73.232 Y78.619 E10.81959
G1 X75.564 Y75.826 E10.86471
G1 E7.86471 F3900.00000
G92 E0
G1 X90.696 Y102.662 F12000.000
G1 E3.10000 F3900.00000
G1 X90.696 Y90.696 E3.24838 F1530.000
G1 X109.304 Y90.696 E3.47912
G1 X109.304 Y109.304 E3.70987
G1 X90.696 Y109.304 E3.94061 F1530.000
G1 X90.696 Y102.737 E4.02205
G1 X90.431 Y102.737 F12000.000
G1 X90.431 Y90.431 E4.17465 F1530.000
G1 X109.569 Y90.431 E4.41198
G1 X109.569 Y109.569 E4.64932
G1 X90.431 Y109.569 E4.88665 F1530.000
G1 X90.431 Y102.812 E4.97045
G1 X90.165 Y102.812 F12000.000
G1 X90.165 Y90.165 E5.12728 F1453.500
G1 X109.835 Y90.165 E5.37120
G1 X109.835 Y109.835 E5.61512
G1 X90.165 Y109.835 E5.85904 F1453.500
G1 X90.165 Y102.887 E5.94520
G1 X90.598 Y102.562 F12000.000
G1 X90.836 Y109.011 F12000.000
G1 X90.989 Y109.164 E5.94790 F2550.000
G1 X91.367 Y109.164 E5.95263
G1 X90.836 Y108.633 E5.96203
G1 X90.836 Y108.254 E5.96676
G1 X91.746 Y109.164 E5.98284
G1 X92.125 Y109.164 E5.98758
G1 X90.836 Y107.875 E6.01036
G1 X90.836 Y107.497 E6.01509
G1 X92.503 Y109.164 E6.04456
G1 X92.882 Y109.164 E6.04930
G1 X90.836 Y107.118 E6.08546
G1 X90.836 Y106.739 E6.09020
G1 X93.261 Y109.164 E6.13306
G1 X93.639 Y109.164 E6.13779
G1 X90.836 Y106.361 E6.18734
G1 X90.836 Y105.982 E6.19208
G1 X94.018 Y109.164 E6.24833
G1 X94.396 Y109.164 E6.25306
G1 X90.836 Y105.604 E6.31600
G1 X90.836 Y105.225 E6.32073
G1 X94.775 Y109.164 E6.39037
G1 X95.154 Y109.164 E6.39510
G1 X90.836 Y104.846 E6.47143
G1 X90.836 Y104.468 E6.47617
G1 X95.532 Y109.164 E6.55919
G1 X95.911 Y109.164 E6.56392
G1 X90.836 Y104.089 E6.65364
G1 X90.836 Y103.710 E6.65837
G1 X96.290 Y109.164 E6.75478
G1 X96.668 Y109.164 E6.75952
G1 X90.836 Y103.332 E6.86262
G1 X90.836 Y102.953 E6.86735
G1 X97.047 Y109.164 E6.97715
G1 X97.426 Y109.164 E6.98189
G1 X90.836 Y102.574 E7.09838
G1 X90.836 Y102.196 E7.10311
G1 X97.804 Y109.164 E7.22630
G1 X98.183 Y109.164 E7.23103
G1 X90.836 Y101.817 E7.36091
G1 X90.836 Y101.438 E7.36564
G1 X98.562 Y109.164 E7.50222
G1 X98.940 Y109.164 E7.50695
G1 X90.836 Y101.060 E7.65022
G1 X90.836 Y100.681 E7.65495
G1 X99.319 Y109.164 E7.80491
G1 X99.698 Y109.164 E7.80964
G1 X90.836 Y100.302 E7.96630
G1 X90.836 Y99.924 E7.97103
G1 X100.076 Y109.164 E8.13438
G1 X100.455 Y109.164 E8.13911
G1 X90.836 Y99.545 E8.30915
G1 X90.836 Y99.166 E8.31389
G1 X100.834 Y109.164 E8.49062
G1 X101.212 Y109.164 E8.49536
G1 X90.836 Y98.788 E8.67879
G1 X90.836 Y98.409 E8.68352
G1 X101.591 Y109.164 E8.87364
G1 X101.970 Y109.164 E8.87838
G1 X90.836 Y98.030 E9.07519
G1 X90.836 Y97.652 E9.07993
G1 X102.348 Y109.164 E9.28344
G1 X102.727 Y109.164 E9.28817
G1 X90.836 Y97.273 E9.49837
G1 X90.836 Y96.894 E9.50311
G1 X103.106 Y109.164 E9.72001
G1 X103.484 Y109.164 E9.72474
G1 X90.836 Y96.516 E9.94833
G1 X90.836 Y96.137 E9.95306
G1 X103.863 Y109.164 E10.18335
G1 X104.242 Y109.164 E10.18808
G1 X90.836 Y95.758 E10.42506
G1 X90.836 Y95.380 E10.42980
G1 X104.620 Y109.164 E10.67347
G1 X104.999 Y109.164 E10.67820
G1 X90.836 Y95.001 E10.92857
G1 X90.836 Y94.623 E10.93330
G1 X105.377 Y109.164 E11.19036
G1 X105.756 Y109.164 E11.19510
G1 X90.836 Y94.244 E11.45885
G1 X90.836 Y93.865 E11.46358
G1 X106.135 Y109.164 E11.73403
G1 X106.513 Y109.164 E11.73877
G1 X90.836 Y93.487 E12.01591
G1 X90.836 Y93.108 E12.02064
G1 X106.892 Y109.164 E12.30448
G1 X107.271 Y109.164 E12.30921
G1 X90.836 Y92.729 E12.59974
G1 X90.836 Y92.351 E12.60447
G1 X107.649 Y109.164 E12.90170
G1 X108.028 Y109.164 E12.90643
G1 X90.836 Y91.972 E13.21035
G1 X90.836 Y91.593 E13.21508
G1 X108.407 Y109.164 E13.52569
G1 X108.785 Y109.164 E13.53042
G1 X90.836 Y91.215 E13.84773
G1 X90.856 Y90.856 E13.85222
G1 X109.144 Y109.144 E14.17551
G1 X109.164 Y108.785 E14.18000
G1 X91.215 Y90.836 E14.49731
G1 X91.593 Y90.836 E14.50204
G1 X109.164 Y108.407 E14.81265
G1 X109.164 Y108.028 E14.81738
G1 X91.972 Y90.836 E15.12130
G1 X92.351 Y90.836 E15.12604
G1 X109.164 Y107.649 E15.42326
G1 X109.164 Y107.271 E15.42799
G1 X92.729 Y90.836 E15.71852
G1 X93.108 Y90.836 E15.72326
G1 X109.164 Y106.892 E16.00709
G1 X109.164 Y106.514 E16.01183
G1 X93.486 Y90.836 E16.28897
G1 X93.865 Y90.836 E16.29370
G1 X109.164 Y106.135 E16.56415
G1 X109.164 Y105.756 E16.56889
G1 X94.244 Y90.836 E16.83264
G1 X94.622 Y90.836 E16.83737
G1 X109.164 Y105.378 E17.09444
G1 X109.164 Y104.999 E17.09917
G1 X95.001 Y90.836 E17.34954
G1 X95.380 Y90.836 E17.35427
G1 X109.164 Y104.620 E17.59795
G1 X109.164 Y104.242 E17.60268
G1 X95.758 Y90.836 E17.83966
G1 X96.137 Y90.836 E17.84439
G1 X109.164 Y103.863 E18.07468
G1 X109.164 Y103.484 E18.07941
G1 X96.516 Y90.836 E18.30301
G1 X96.894 Y90.836 E18.30774
G1 X109.164 Y103.106 E18.52464
G1 X109.164 Y102.727 E18.52937
G1 X97.273 Y90.836 E18.73958
G1 X97.652 Y90.836 E18.74431
G1 X109.164 Y102.348 E18.94782
G1 X109.164 Y101.970 E18.95256
G1 X98.030 Y90.836 E19.14937
G1 X98.409 Y90.836 E19.15411
G1 X109.164 Y101.591 E19.34423
G1 X109.164 Y101.212 E19.34896
G1 X98.788 Y90.836 E19.53240
G1 X99.166 Y90.836 E19.53713
G1 X109.164 Y100.834 E19.71387
G1 X109.164 Y100.455 E19.71860
G1 X99.545 Y90.836 E19.88864
G1 X99.924 Y90.836 E19.89337
G1 X109.164 Y100.076 E20.05672
G1 X109.164 Y99.698 E20.06146
G1 X100.302 Y90.836 E20.21811
G1 X100.681 Y90.836 E20.22285
G1 X109.164 Y99.319 E20.37281
G1 X109.164 Y98.940 E20.37754
G1 X101.060 Y90.836 E20.52081
G1 X101.438 Y90.836 E20.52554
G1 X109.164 Y98.562 E20.66212
G1 X109.164 Y98.183 E20.66685
G1 X101.817 Y90.836 E20.79673
G1 X102.196 Y90.836 E20.80146
G1 X109.164 Y97.804 E20.92465
G1 X109.164 Y97.426 E20.92938
G1 X102.574 Y90.836 E21.04588
G1 X102.953 Y90.836 E21.05061
G1 X109.164 Y97.047 E21.16041
G1 X109.164 Y96.668 E21.16514
G1 X103.332 Y90.836 E21.26825
G1 X103.710 Y90.836 E21.27298
G1 X109.164 Y96.290 E21.36939
G1 X109.164 Y95.911 E21.37413
G1 X104.089 Y90.836 E21.46384
G1 X104.467 Y90.836 E21.46858
G1 X109.164 Y95.532 E21.55160
G1 X109.164 Y95.154 E21.55633
G1 X104.846 Y90.836 E21.63267
G1 X105.225 Y90.836 E21.63740
G1 X109.164 Y94.775 E21.70704
G1 X109.164 Y94.397 E21.71177
G1 X105.603 Y90.836 E21.77471
G1 X105.982 Y90.836 E21.77944
G1 X109.164 Y94.018 E21.83569
G1 X109.164 Y93.639 E21.84043
G1 X106.361 Y90.836 E21.88998
G1 X106.739 Y90.836 E21.89472
G1 X109.164 Y93.261 E21.93758
G1 X109.164 Y92.882 E21.94231
G1 X107.118 Y90.836 E21.97848
G1 X107.497 Y90.836 E21.98321
G1 X109.164 Y92.503 E22.01269
G1 X109.164 Y92.125 E22.01742
G1 X107.875 Y90.836 E22.04020
G1 X108.254 Y90.836 E22.04493
G1 X109.164 Y91.746 E22.06102
G1 X109.164 Y91.367 E22.06575
G1 X108.633 Y90.836 E22.07515
G1 X109.011 Y90.836 E22.07988
G1 X109.164 Y90.989 E22.08258
M140 S50 ; wait for bed temperature to be reached
G1 E19.08258 F3900.00000
G92 E0
G1 Z0.550 F12000.000
G1 X90.780 Y102.823 F12000.000
G1 E3.10000 F3900.00000
G1 X90.780 Y90.780 E3.27398 F1800.000
G1 X109.220 Y90.780 E3.54039
G1 X109.220 Y109.220 E3.80679
G1 X90.780 Y109.220 E4.07319 F1800.000
G1 X90.780 Y102.898 E4.16452
G1 X90.409 Y102.898 F12000.000
G1 X90.409 Y90.409 E4.34496 F1800.000
G1 X109.591 Y90.409 E4.62209
G1 X109.591 Y109.591 E4.89922
G1 X90.409 Y109.591 E5.17635 F1800.000
G1 X90.409 Y102.973 E5.27197
G1 X90.125 Y102.973 F12000.000
G1 X90.125 Y90.125 E5.37011 F1710.000
G1 X109.875 Y90.125 E5.52098
G1 X109.875 Y109.875 E5.67185
G1 X90.125 Y109.875 E5.82272 F1710.000
G1 X90.125 Y103.048 E5.87487
G1 X90.558 Y102.723 F12000.000
G1 X91.021 Y91.155 F12000.000
G1 X91.155 Y91.021 E5.87651 F3000.000
G1 X91.470 Y91.021 E5.87925
G1 X91.021 Y91.470 E5.88476
G1 X91.021 Y91.786 E5.88750
G1 X91.786 Y91.021 E5.89689
G1 X92.101 Y91.021 E5.89963
G1 X91.021 Y92.101 E5.91289
G1 X91.021 Y92.417 E5.91562
G1 X92.417 Y91.021 E5.93275
G1 X92.732 Y91.021 E5.93549
G1 X91.021 Y92.732 E5.95649
G1 X91.021 Y93.047 E5.95923
G1 X93.047 Y91.021 E5.98411
G1 X93.363 Y91.021 E5.98685
G1 X91.021 Y93.363 E6.01559
G1 X91.021 Y93.678 E6.01833
G1 X93.678 Y91.021 E6.05095
G1 X93.994 Y91.021 E6.05369
G1 X91.021 Y93.994 E6.09018
G1 X91.021 Y94.309 E6.09292
G1 X94.309 Y91.021 E6.13328
G1 X94.625 Y91.021 E6.13602
G1 X91.021 Y94.625 E6.18025
G1 X91.021 Y94.940 E6.18299
G1 X94.940 Y91.021 E6.23110
G1 X95.256 Y91.021 E6.23384
G1 X91.021 Y95.256 E6.28582
G1 X91.021 Y95.571 E6.28855
G1 X95.571 Y91.021 E6.34440
G1 X95.887 Y91.021 E6.34714
G1 X91.021 Y95.887 E6.40687
G1 X91.021 Y96.202 E6.40960
G1 X96.202 Y91.021 E6.47320
G1 X96.518 Y91.021 E6.47594
G1 X91.021 Y96.518 E6.54340
G1 X91.021 Y96.833 E6.54614
G1 X96.833 Y91.021 E6.61748
G1 X97.149 Y91.021 E6.62022
G1 X91.021 Y97.149 E6.69543
G1 X91.021 Y97.464 E6.69817
G1 X97.464 Y91.021 E6.77725
G1 X97.780 Y91.021 E6.77999
G1 X91.021 Y97.780 E6.86295
G1 X91.021 Y98.095 E6.86569
G1 X98.095 Y91.021 E6.95251
G1 X98.411 Y91.021 E6.95525
G1 X91.021 Y98.411 E7.04595
G1 X91.021 Y98.726 E7.04869
G1 X98.726 Y91.021 E7.14326
G1 X99.042 Y91.021 E7.14600
G1 X91.021 Y99.042 E7.24444
G1 X91.021 Y99.357 E7.24718
G1 X99.357 Y91.021 E7.34950
G1 X99.673 Y91.021 E7.35224
G1 X91.021 Y99.673 E7.45842
G1 X91.021 Y99.988 E7.46116
G1 X99.988 Y91.021 E7.57122
G1 X100.303 Y91.021 E7.57396
G1 X91.021 Y100.303 E7.68789
G1 X91.021 Y100.619 E7.69063
G1 X100.619 Y91.021 E7.80843
G1 X100.934 Y91.021 E7.81117
G1 X91.021 Y100.934 E7.93285
G1 X91.021 Y101.250 E7.93559
G1 X101.250 Y91.021 E8.06114
G1 X101.565 Y91.021 E8.06387
G1 X91.021 Y101.565 E8.19329
G1 X91.021 Y101.881 E8.19603
G1 X101.881 Y91.021 E8.32932
G1 X102.196 Y91.021 E8.33206
G1 X91.021 Y102.196 E8.46923
G1 X91.021 Y102.512 E8.47196
G1 X102.512 Y91.021 E8.61300
G1 X102.827 Y91.021 E8.61574
G1 X91.021 Y102.827 E8.76065
G1 X91.021 Y103.143 E8.76339
G1 X103.143 Y91.021 E8.91217
G1 X103.458 Y91.021 E8.91491
G1 X91.021 Y103.458 E9.06756
G1 X91.021 Y103.774 E9.07030
G1 X103.774 Y91.021 E9.22682
G1 X104.089 Y91.021 E9.22956
G1 X91.021 Y104.089 E9.38996
G1 X91.021 Y104.405 E9.39269
G1 X104.405 Y91.021 E9.55696
G1 X104.720 Y91.021 E9.55970
G1 X91.021 Y104.720 E9.72784
G1 X91.021 Y105.036 E9.73058
G1 X105.036 Y91.021 E9.90259
G1 X105.351 Y91.021 E9.90533
G1 X91.021 Y105.351 E10.08122
G1 X91.021 Y105.667 E10.08396
G1 X105.667 Y91.021 E10.26371
G1 X105.982 Y91.021 E10.26645
G1 X91.021 Y105.982 E10.45008
G1 X91.021 Y106.298 E10.45282
G1 X106.298 Y91.021 E10.64032
G1 X106.613 Y91.021 E10.64306
G1 X91.021 Y106.613 E10.83443
G1 X91.021 Y106.929 E10.83717
G1 X106.929 Y91.021 E11.03241
G1 X107.244 Y91.021 E11.03515
G1 X91.021 Y107.244 E11.23427
G1 X91.021 Y107.560 E11.23701
G1 X107.560 Y91.021 E11.44000
G1 X107.875 Y91.021 E11.44274
G1 X91.021 Y107.875 E11.64960
G1 X91.021 Y108.190 E11.65234
G1 X108.190 Y91.021 E11.86307
G1 X108.506 Y91.021 E11.86581
G1 X91.021 Y108.506 E12.08041
G1 X91.021 Y108.821 E12.08315
G1 X108.821 Y91.021 E12.30163
G1 X108.979 Y91.178 E12.30357
G1 X91.178 Y108.979 E12.52204
G1 X91.494 Y108.979 E12.52478
G1 X108.979 Y91.494 E12.73939
G1 X108.979 Y91.809 E12.74213
G1 X91.809 Y108.979 E12.95286
G1 X92.125 Y108.979 E12.95560
G1 X108.979 Y92.125 E13.16246
G1 X108.979 Y92.440 E13.16520
G1 X92.440 Y108.979 E13.36819
G1 X92.756 Y108.979 E13.37093
G1 X108.979 Y92.756 E13.57005
G1 X108.979 Y93.071 E13.57279
G1 X93.071 Y108.979 E13.76803
G1 X93.387 Y108.979 E13.77077
G1 X108.979 Y93.387 E13.96215
G1 X108.979 Y93.702 E13.96488
G1 X93.702 Y108.979 E14.15239
G1 X94.018 Y108.979 E14.15513
G1 X108.979 Y94.018 E14.33876
G1 X108.979 Y94.333 E14.34149
G1 X94.333 Y108.979 E14.52125
G1 X94.649 Y108.979 E14.52399
G1 X108.979 Y94.649 E14.69988
G1 X108.979 Y94.964 E14.70261
G1 X94.964 Y108.979 E14.87463
G1 X95.280 Y108.979 E14.87737
G1 X108.979 Y95.280 E15.04551
G1 X108.979 Y95.595 E15.04825
G1 X95.595 Y108.979 E15.21252
G1 X95.911 Y108.979 E15.21526
G1 X108.979 Y95.911 E15.37565
G1 X108.979 Y96.226 E15.37839
G1 X96.226 Y108.979 E15.53492
G1 X96.542 Y108.979 E15.53766
G1 X108.979 Y96.542 E15.69031
G1 X108.979 Y96.857 E15.69305
G1 X96.857 Y108.979 E15.84183
G1 X97.173 Y108.979 E15.84457
G1 X108.979 Y97.173 E15.98948
G1 X108.979 Y97.488 E15.99222
G1 X97.488 Y108.979 E16.13325
G1 X97.804 Y108.979 E16.13599
G1 X108.979 Y97.804 E16.27316
G1 X108.979 Y98.119 E16.27589
G1 X98.119 Y108.979 E16.40919
G1 X98.434 Y108.979 E16.41193
