; generated by Slic3r 1.1.7 on 2015-03-31 at 18:42:36

; perimeters extrusion width = 0.43mm
; infill extrusion width = 0.43mm
; solid infill extrusion width = 0.28mm
; top infill extrusion width = 0.28mm

G21 ; set units to millimeters
M107
M190 S55 ; wait for bed temperature to be reached
G1 X40 Y40 Z10 ; move away from home
G28 ; home all axes
G90 ; use absolute coordinates
G21 ; set units to millimeters
G92 E0 ; set extruder coordinate to zero
M82 ; use absolute distances for extrusion
M109 S190 ; wait for temperature to be reached
G1 E10 F400 ; prime the nozzle

G90 ; use absolute coordinates
G92 E0
M82 ; use absolute distances for extrusion
G1 F3900.000 E-3.00000
G92 E0
G1 Z0.300 F12000.000
G1 X74.988 Y75.173 F12000.000
G1 E3.10000 F3900.000
G1 X78.142 Y72.548 E3.17021 F2550.000
G1 X81.744 Y70.583 E3.24042
G1 X85.659 Y69.352 E3.31063
G1 X90.000 Y68.901 E3.38530
G1 X110.000 Y68.901 E3.72749
G1 X114.084 Y69.300 E3.79770
G1 X118.014 Y70.482 E3.86791 F2550.000
G1 X121.640 Y72.402 E3.93812
G1 X124.827 Y74.988 E4.00833
G1 X127.452 Y78.142 E4.07854
G1 X129.417 Y81.744 E4.14875
G1 X130.648 Y85.659 E4.21896
G1 X131.099 Y90.000 E4.29363
G1 X131.099 Y110.000 E4.63582
G1 X130.700 Y114.084 E4.70603
G1 X129.518 Y118.014 E4.77624
G1 X127.598 Y121.640 E4.84645
G1 X125.012 Y124.827 E4.91666
G1 X121.858 Y127.452 E4.98687
G1 X118.256 Y129.417 E5.05708
G1 X114.341 Y130.648 E5.12729
G1 X110.000 Y131.099 E5.20197
G1 X90.000 Y131.099 E5.54415
G1 X85.916 Y130.700 E5.61436
G1 X81.986 Y129.518 E5.68457
G1 X78.360 Y127.598 E5.75478
G1 X75.173 Y125.012 E5.82499
G1 X72.548 Y121.858 E5.89521
G1 X70.583 Y118.256 E5.96542
G1 X69.352 Y114.341 E6.03563
G1 X68.901 Y110.000 E6.11030
G1 X68.901 Y90.000 E6.45249
G1 X69.300 Y85.916 E6.52270
G1 X70.482 Y81.986 E6.59291
G1 X72.402 Y78.360 E6.66312
G1 X74.941 Y75.232 E6.73204
G1 X75.233 Y75.472 F12000.000
G1 X75.349 Y75.330 E6.73518 F2550.000
G1 X78.495 Y72.752 E6.80477
G1 X82.085 Y70.838 E6.87437
G1 X85.978 Y69.661 E6.94397
G1 X90.000 Y69.267 E7.01310
G1 X110.000 Y69.267 E7.35529
G1 X114.048 Y69.666 E7.42489
G1 X117.940 Y70.848 E7.49448 F2550.000
G1 X121.527 Y72.767 E7.56408
G1 X124.670 Y75.349 E7.63368
G1 X127.248 Y78.495 E7.70327
G1 X129.162 Y82.085 E7.77287
G1 X130.339 Y85.978 E7.84247
G1 X130.733 Y90.000 E7.91160
G1 X130.733 Y110.000 E8.25379
G1 X130.334 Y114.048 E8.32339
G1 X129.152 Y117.940 E8.39298
G1 X127.233 Y121.527 E8.46258
G1 X124.651 Y124.670 E8.53218
G1 X121.505 Y127.248 E8.60177
G1 X117.915 Y129.162 E8.67137
G1 X114.022 Y130.339 E8.74096
G1 X110.000 Y130.733 E8.81010
G1 X90.000 Y130.733 E9.15229
G1 X85.952 Y130.334 E9.22189
G1 X82.060 Y129.152 E9.29148
G1 X78.473 Y127.233 E9.36108
G1 X75.330 Y124.651 E9.43068
G1 X72.752 Y121.505 E9.50027
G1 X70.838 Y117.915 E9.56987
G1 X69.661 Y114.022 E9.63946
G1 X69.267 Y110.000 E9.70860
G1 X69.267 Y90.000 E10.05079
G1 X69.666 Y85.952 E10.12039
G1 X70.848 Y82.060 E10.18998
G1 X72.767 Y78.473 E10.25958
G1 X75.185 Y75.530 E10.32476
G1 X75.475 Y75.771 F12000.000
G1 X75.710 Y75.488 E10.33104 F2550.000
G1 X78.848 Y72.958 E10.40002
G1 X82.424 Y71.095 E10.46900
G1 X86.296 Y69.973 E10.53797
G1 X90.000 Y69.634 E10.60161
G1 X110.000 Y69.634 E10.94380
G1 X114.012 Y70.033 E11.01278
G1 X117.866 Y71.214 E11.08175 F2550.000
G1 X121.413 Y73.131 E11.15073
G1 X124.512 Y75.710 E11.21971
G1 X127.042 Y78.848 E11.28868
G1 X128.905 Y82.424 E11.35766
G1 X130.027 Y86.296 E11.42664
G1 X130.366 Y90.000 E11.49027
G1 X130.366 Y110.000 E11.83246
G1 X129.967 Y114.012 E11.90144
G1 X128.786 Y117.866 E11.97042
G1 X126.869 Y121.413 E12.03939
G1 X124.290 Y124.512 E12.10837
G1 X121.152 Y127.042 E12.17735
G1 X117.576 Y128.905 E12.24632
G1 X113.704 Y130.027 E12.31530
G1 X110.000 Y130.366 E12.37894
G1 X90.000 Y130.366 E12.72113
G1 X85.988 Y129.967 E12.79010
G1 X82.134 Y128.786 E12.85908
G1 X78.587 Y126.869 E12.92806
G1 X75.488 Y124.290 E12.99703
G1 X72.958 Y121.152 E13.06601
G1 X71.095 Y117.576 E13.13499
G1 X69.973 Y113.704 E13.20396
G1 X69.634 Y110.000 E13.26760
G1 X69.634 Y90.000 E13.60979
G1 X70.033 Y85.988 E13.67877
G1 X71.214 Y82.134 E13.74774
G1 X73.131 Y78.587 E13.81672
G1 X75.427 Y75.828 E13.87813
G1 F3900.000 E10.87813
G92 E0
G1 X90.898 Y96.094 F12000.000
G1 E3.10000 F3900.000
G1 X90.898 Y90.898 E3.18890 F1530.000
G1 X109.102 Y90.898 E3.50036
G1 X109.102 Y109.102 E3.81183
G1 X90.898 Y109.102 E4.12329 F1530.000
G1 X90.898 Y96.169 E4.34456
G1 X90.531 Y96.169 F12000.000
G1 X90.531 Y90.531 E4.44102 F1530.000
G1 X109.469 Y90.531 E4.76502 F1530.000
G1 X109.469 Y109.469 E5.08902
G1 X90.531 Y109.469 E5.41302
G1 X90.531 Y96.244 E5.63928
G1 X90.165 Y96.244 F12000.000
G1 X90.165 Y90.165 E5.74329 F1453.500
G1 X109.835 Y90.165 E6.07983
G1 X109.835 Y109.835 E6.41638
G1 X90.165 Y109.835 E6.75292 F1453.500
G1 X90.165 Y96.319 E6.98416
G1 F3900.000 E3.98416
G92 E0
G1 X110.085 Y109.402 F12000.000
G1 X112.000 Y96.000 F12000.000
G1 X109.000 Y97.000 F12000.000
G1 X108.816 Y91.144 F12000.000
G1 E3.10000 F3900.000
G1 X108.856 Y91.184 E3.10097 F2550.000
G1 X108.856 Y91.703 E3.10986
G1 X108.297 Y91.144 E3.12341
G1 X107.777 Y91.144 E3.13230
G1 X108.856 Y92.223 E3.15842
G1 X108.856 Y92.743 E3.16731
G1 X107.257 Y91.144 E3.20601
G1 X106.737 Y91.144 E3.21491
G1 X108.856 Y93.263 E3.26618
G1 X108.856 Y93.783 E3.27507
G1 X106.217 Y91.144 E3.33893
G1 X105.698 Y91.144 E3.34782
G1 X108.856 Y94.302 E3.42425
G1 X108.856 Y94.822 E3.43314
G1 X105.178 Y91.144 E3.52215
G1 X104.658 Y91.144 E3.53104
G1 X108.856 Y95.342 E3.63263
G1 X108.856 Y95.862 E3.64152
G1 X104.138 Y91.144 E3.75568
G1 X103.618 Y91.144 E3.76457
G1 X108.856 Y96.381 E3.89131
G1 X108.856 Y96.901 E3.90020
G1 X103.099 Y91.144 E4.03952
G1 X102.579 Y91.144 E4.04841
G1 X108.856 Y97.421 E4.20030
G1 X108.856 Y97.941 E4.20919
G1 X102.059 Y91.144 E4.37366
G1 X101.539 Y91.144 E4.38255
G1 X108.856 Y98.461 E4.55960
G1 X108.856 Y98.980 E4.56849
G1 X101.020 Y91.144 E4.75811
G1 X100.500 Y91.144 E4.76701
G1 X108.856 Y99.500 E4.96920
G1 X108.856 Y100.020 E4.97810
G1 X99.980 Y91.144 E5.19287
G1 X99.460 Y91.144 E5.20177
G1 X108.856 Y100.540 E5.42912
G1 X108.856 Y101.060 E5.43801
G1 X98.940 Y91.144 E5.67794
G1 X98.421 Y91.144 E5.68683
G1 X108.856 Y101.579 E5.93934
G1 X108.856 Y102.099 E5.94823
G1 X97.901 Y91.144 E6.21332
G1 X97.381 Y91.144 E6.22221
G1 X108.856 Y102.619 E6.49987
G1 X108.856 Y103.139 E6.50876
G1 X96.861 Y91.144 E6.79900
G1 X96.341 Y91.144 E6.80789
G1 X108.856 Y103.658 E7.11071
G1 X108.856 Y104.178 E7.11960
G1 X95.822 Y91.144 E7.43499
G1 X95.302 Y91.144 E7.44388
G1 X108.856 Y104.698 E7.77185
G1 X108.856 Y105.218 E7.78074
G1 X94.782 Y91.144 E8.12129
G1 X94.262 Y91.144 E8.13018
G1 X108.856 Y105.738 E8.48330
G1 X108.856 Y106.257 E8.49220
G1 X93.743 Y91.144 E8.85789
G1 X93.223 Y91.144 E8.86679
G1 X108.856 Y106.777 E9.24506
G1 X108.856 Y107.297 E9.25396
G1 X92.703 Y91.144 E9.64481
G1 X92.183 Y91.144 E9.65370
G1 X108.856 Y107.817 E10.05713
G1 X108.856 Y108.337 E10.06602
G1 X91.663 Y91.144 E10.48203
G1 X91.164 Y91.164 E10.49059
G1 X108.836 Y108.836 E10.91820
G1 X108.337 Y108.856 E10.92676
G1 X91.144 Y91.663 E11.34276
G1 X91.144 Y92.183 E11.35166
G1 X107.817 Y108.856 E11.75509
G1 X107.297 Y108.856 E11.76398
G1 X91.144 Y92.703 E12.15483
G1 X91.144 Y93.223 E12.16372
G1 X106.777 Y108.856 E12.54200
G1 X106.257 Y108.856 E12.55089
G1 X91.144 Y93.743 E12.91659
G1 X91.144 Y94.262 E12.92548
G1 X105.738 Y108.856 E13.27861
G1 X105.218 Y108.856 E13.28750
G1 X91.144 Y94.782 E13.62804
G1 X91.144 Y95.302 E13.63694
G1 X104.698 Y108.856 E13.96490
G1 X104.178 Y108.856 E13.97380
G1 X91.144 Y95.822 E14.28919
G1 X91.144 Y96.341 E14.29808
G1 X103.658 Y108.856 E14.60089
G1 X103.139 Y108.856 E14.60979
G1 X91.144 Y96.861 E14.90002
G1 X91.144 Y97.381 E14.90892
G1 X102.619 Y108.856 E15.18658
G1 X102.099 Y108.856 E15.19547
G1 X91.144 Y97.901 E15.46055
G1 X91.144 Y98.421 E15.46945
G1 X101.579 Y108.856 E15.72195
G1 X101.060 Y108.856 E15.73085
G1 X91.144 Y98.940 E15.97077
G1 X91.144 Y99.460 E15.97967
G1 X100.540 Y108.856 E16.20702
G1 X100.020 Y108.856 E16.21591
G1 X91.144 Y99.980 E16.43069
G1 X91.144 Y100.500 E16.43958
G1 X99.500 Y108.856 E16.64178
G1 X98.980 Y108.856 E16.65067
G1 X91.144 Y101.020 E16.84029
G1 X91.144 Y101.539 E16.84919
G1 X98.461 Y108.856 E17.02623
G1 X97.941 Y108.856 E17.03513
G1 X91.144 Y102.059 E17.19959
G1 X91.144 Y102.579 E17.20849
G1 X97.421 Y108.856 E17.36038
G1 X96.901 Y108.856 E17.36927
G1 X91.144 Y103.099 E17.50858
G1 X91.144 Y103.618 E17.51748
G1 X96.381 Y108.856 E17.64421
G1 X95.862 Y108.856 E17.65311
G1 X91.144 Y104.138 E17.76727
G1 X91.144 Y104.658 E17.77616
G1 X95.342 Y108.856 E17.87774
G1 X94.822 Y108.856 E17.88664
G1 X91.144 Y105.178 E17.97564
G1 X91.144 Y105.698 E17.98454
G1 X94.302 Y108.856 E18.06097
G1 X93.783 Y108.856 E18.06986
G1 X91.144 Y106.217 E18.13371
G1 X91.144 Y106.737 E18.14260
G1 X93.263 Y108.856 E18.19388
G1 X92.743 Y108.856 E18.20277
G1 X91.144 Y107.257 E18.24147
G1 X91.144 Y107.777 E18.25037
G1 X92.223 Y108.856 E18.27649
G1 X91.703 Y108.856 E18.28538
G1 X91.144 Y108.297 E18.29892
G1 X91.144 Y108.816 E18.30782
G1 X91.184 Y108.856 E18.30879
M140 S50 ; set bed temperature
G1 F3900.000 E15.30879
G92 E0
G1 Z0.550 F12000.000
G1 X96.485 Y91.095 F12000.000
G1 E3.10000 F3900.000
G1 X108.905 Y91.095 E3.31314 F1800.000
G1 X108.905 Y108.905 E3.61878
G1 X91.095 Y108.905 E3.92442 F1800.000
G1 X91.095 Y91.095 E4.23006
G1 X96.410 Y91.095 E4.32128
G1 X96.410 Y90.654 F12000.000
G1 X109.346 Y90.654 E4.54327 F1800.000
G1 X109.346 Y109.346 E4.86405
G1 X90.654 Y109.346 E5.18483
G1 X90.654 Y90.654 E5.50561
G1 X96.335 Y90.654 E5.60311 F1800.000
G1 X96.335 Y90.213 F12000.000
G1 X109.787 Y90.213 E5.83396 F1710.000
G1 X109.787 Y109.787 E6.16988
G1 X90.213 Y109.787 E6.50580 F1710.000
G1 X90.213 Y90.213 E6.84172
G1 X96.260 Y90.213 E6.94550
G1 X109.305 Y109.658 F12000.000
G1 X108.606 Y108.566 F12000.000
G1 X108.566 Y108.606 E6.94621 F3000.000
G1 X108.108 Y108.606 E6.95197
G1 X108.606 Y108.108 E6.96082
G1 X108.606 Y107.650 E6.96658
G1 X107.650 Y108.606 E6.98358
G1 X107.192 Y108.606 E6.98934
G1 X108.606 Y107.192 E7.01449
G1 X108.606 Y106.734 E7.02025
G1 X106.734 Y108.606 E7.05354
G1 X106.276 Y108.606 E7.05930
G1 X108.606 Y106.276 E7.10073
G1 X108.606 Y105.818 E7.10649
G1 X105.818 Y108.606 E7.15607
G1 X105.360 Y108.606 E7.16183
G1 X108.606 Y105.360 E7.21955
G1 X108.606 Y104.902 E7.22531
G1 X104.902 Y108.606 E7.29118
G1 X104.444 Y108.606 E7.29694
G1 X108.606 Y104.444 E7.37095
G1 X108.606 Y103.987 E7.37671
G1 X103.987 Y108.606 E7.45887
G1 X103.529 Y108.606 E7.46462
G1 X108.606 Y103.529 E7.55493
G1 X108.606 Y103.071 E7.56069
G1 X103.071 Y108.606 E7.65913
G1 X102.613 Y108.606 E7.66489
G1 X108.606 Y102.613 E7.77148
G1 X108.606 Y102.155 E7.77724
G1 X102.155 Y108.606 E7.89198
G1 X101.697 Y108.606 E7.89773
G1 X108.606 Y101.697 E8.02061
G1 X108.606 Y101.239 E8.02637
G1 X101.239 Y108.606 E8.15740
G1 X100.781 Y108.606 E8.16316
G1 X108.606 Y100.781 E8.30233
G1 X108.606 Y100.323 E8.30809
G1 X100.323 Y108.606 E8.45540
G1 X99.866 Y108.606 E8.46116
G1 X108.606 Y99.866 E8.61662
G1 X108.606 Y99.408 E8.62238
G1 X99.408 Y108.606 E8.78598
G1 X98.950 Y108.606 E8.79174
G1 X108.606 Y98.950 E8.96348
G1 X108.606 Y98.492 E8.96924
G1 X98.492 Y108.606 E9.14914
G1 X98.034 Y108.606 E9.15489
G1 X108.606 Y98.034 E9.34293
G1 X108.606 Y97.576 E9.34869
G1 X97.576 Y108.606 E9.54487
G1 X97.118 Y108.606 E9.55063
G1 X108.606 Y97.118 E9.75496
G1 X108.606 Y96.660 E9.76071
G1 X96.660 Y108.606 E9.97318
G1 X96.202 Y108.606 E9.97894
G1 X108.606 Y96.202 E10.19956
G1 X108.606 Y95.744 E10.20532
G1 X95.744 Y108.606 E10.43408
G1 X95.287 Y108.606 E10.43984
G1 X108.606 Y95.287 E10.67674
G1 X108.606 Y94.829 E10.68250
G1 X94.829 Y108.606 E10.92755
G1 X94.371 Y108.606 E10.93331
G1 X108.606 Y94.371 E11.18650
G1 X108.606 Y93.913 E11.19226
G1 X93.913 Y108.606 E11.45359
G1 X93.455 Y108.606 E11.45935
G1 X108.606 Y93.455 E11.72884
G1 X108.606 Y92.997 E11.73459
G1 X92.997 Y108.606 E12.01222
G1 X92.539 Y108.606 E12.01798
G1 X108.606 Y92.539 E12.30375
G1 X108.606 Y92.081 E12.30951
G1 X92.081 Y108.606 E12.60343
G1 X91.623 Y108.606 E12.60919
G1 X108.606 Y91.623 E12.91125
G1 X108.377 Y91.394 E12.91532
G1 X91.394 Y108.377 E13.21738
G1 X91.394 Y107.919 E13.22314
G1 X107.919 Y91.394 E13.51705
G1 X107.461 Y91.394 E13.52281
G1 X91.394 Y107.461 E13.80858
G1 X91.394 Y107.003 E13.81434
G1 X107.003 Y91.394 E14.09197
G1 X106.545 Y91.394 E14.09773
G1 X91.394 Y106.545 E14.36721
G1 X91.394 Y106.087 E14.37297
G1 X106.087 Y91.394 E14.63431
G1 X105.629 Y91.394 E14.64006
G1 X91.394 Y105.629 E14.89326
G1 X91.394 Y105.171 E14.89902
G1 X105.171 Y91.394 E15.14406
G1 X104.713 Y91.394 E15.14982
G1 X91.394 Y104.713 E15.38673
G1 X91.394 Y104.256 E15.39249
G1 X104.256 Y91.394 E15.62125
G1 X103.798 Y91.394 E15.62700
G1 X91.394 Y103.798 E15.84762
G1 X91.394 Y103.340 E15.85338
G1 X103.340 Y91.394 E16.06585
G1 X102.882 Y91.394 E16.07161
G1 X91.394 Y102.882 E16.27593
G1 X91.394 Y102.424 E16.28169
G1 X102.424 Y91.394 E16.47787
G1 X101.966 Y91.394 E16.48363
G1 X91.394 Y101.966 E16.67167
G1 X91.394 Y101.508 E16.67743
G1 X101.508 Y91.394 E16.85732
G1 X101.050 Y91.394 E16.86308
G1 X91.394 Y101.050 E17.03482
G1 X91.394 Y100.592 E17.04058
G1 X100.592 Y91.394 E17.20419
G1 X100.134 Y91.394 E17.20995
G1 X91.394 Y100.134 E17.36540
G1 X91.394 Y99.677 E17.37116
G1 X99.677 Y91.394 E17.51848
G1 X99.219 Y91.394 E17.52423
G1 X91.394 Y99.219 E17.66340
G1 X91.394 Y98.761 E17.66916
G1 X98.761 Y91.394 E17.80019
G1 X98.303 Y91.394 E17.80595
G1 X91.394 Y98.303 E17.92883
G1 X91.394 Y97.845 E17.93459
G1 X97.845 Y91.394 E18.04932
G1 X97.387 Y91.394 E18.05508
G1 X91.394 Y97.387 E18.16167
G1 X91.394 Y96.929 E18.16743
G1 X96.929 Y91.394 E18.26588
G1 X96.471 Y91.394 E18.27163
G1 X91.394 Y96.471 E18.36194
G1 X91.394 Y96.013 E18.36770
G1 X96.013 Y91.394 E18.44985
G1 X95.556 Y91.394 E18.45561
G1 X91.394 Y95.556 E18.52962
G1 X91.394 Y95.098 E18.53538
G1 X95.098 Y91.394 E18.60125
G1 X94.640 Y91.394 E18.60701
G1 X91.394 Y94.640 E18.66473
G1 X91.394 Y94.182 E18.67049
G1 X94.182 Y91.394 E18.72007
G1 X93.724 Y91.394 E18.72583
G1 X91.394 Y93.724 E18.76726
G1 X91.394 Y93.266 E18.77302
G1 X93.266 Y91.394 E18.80631
G1 X92.808 Y91.394 E18.81207
G1 X91.394 Y92.808 E18.83722
G1 X91.394 Y92.350 E18.84298
G1 X92.350 Y91.394 E18.85998
G1 X91.892 Y91.394 E18.86574
G1 X91.394 Y91.892 E18.87459
G1 X91.394 Y91.434 E18.88035
G1 X91.434 Y91.394 E18.88106
G1 F3900.000 E15.88106
G92 E0
G1 Z0.800 F12000.000
G1 X102.218 Y108.905 F12000.000
G1 E3.10000 F3900.000
G1 X91.095 Y108.905 E3.29089 F1800.000
G1 X91.095 Y91.095 E3.59653
G1 X108.905 Y91.095 E3.90217
G1 X108.905 Y108.905 E4.20781
G1 X102.293 Y108.905 E4.32128 F1800.000
G1 X102.293 Y109.346 F12000.000
G1 X90.654 Y109.346 E4.52102 F1800.000
G1 X90.654 Y90.654 E4.84180
G1 X109.346 Y90.654 E5.16258 F1800.000
G1 X109.346 Y109.346 E5.48336
G1 X102.368 Y109.346 E5.60311
G1 X102.368 Y109.787 F12000.000
G1 X90.213 Y109.787 E5.81171 F1710.000
G1 X90.213 Y90.213 E6.14763
G1 X109.787 Y90.213 E6.48355
G1 X109.787 Y109.787 E6.81947
G1 X102.443 Y109.787 E6.94550 F1710.000
G1 X109.787 Y109.287 F12000.000
G1 X108.566 Y91.394 F12000.000
G1 X108.606 Y91.434 E6.94621 F3000.000
G1 X108.606 Y91.892 E6.95197
G1 X108.108 Y91.394 E6.96082
G1 X107.650 Y91.394 E6.96658
G1 X108.606 Y92.350 E6.98358
G1 X108.606 Y92.808 E6.98934
G1 X107.192 Y91.394 E7.01449
G1 X106.734 Y91.394 E7.02025
G1 X108.606 Y93.266 E7.05354
G1 X108.606 Y93.724 E7.05930
G1 X106.276 Y91.394 E7.10073
G1 X105.818 Y91.394 E7.10649
G1 X108.606 Y94.182 E7.15607
G1 X108.606 Y94.640 E7.16183
G1 X105.360 Y91.394 E7.21955
G1 X104.902 Y91.394 E7.22531
G1 X108.606 Y95.098 E7.29118
G1 X108.606 Y95.556 E7.29694
G1 X104.444 Y91.394 E7.37095
G1 X103.987 Y91.394 E7.37671
G1 X108.606 Y96.013 E7.45887
G1 X108.606 Y96.471 E7.46462
G1 X103.529 Y91.394 E7.55493
G1 X103.071 Y91.394 E7.56069
G1 X108.606 Y96.929 E7.65913
G1 X108.606 Y97.387 E7.66489
G1 X102.613 Y91.394 E7.77148
G1 X102.155 Y91.394 E7.77724
G1 X108.606 Y97.845 E7.89198
G1 X108.606 Y98.303 E7.89773
G1 X101.697 Y91.394 E8.02061
G1 X101.239 Y91.394 E8.02637
G1 X108.606 Y98.761 E8.15740
G1 X108.606 Y99.219 E8.16316
G1 X100.781 Y91.394 E8.30233
G1 X100.323 Y91.394 E8.30809
