; generated by Slic3r 1.2.7-dev on 2015-03-18 at 18:14:56

; external perimeters extrusion width = 0.25mm
; perimeters extrusion width = 0.43mm
; infill extrusion width = 0.43mm
; solid infill extrusion width = 0.28mm
; top infill extrusion width = 0.28mm

M107
M190 S60 ; set bed temperature
M104 S200 ; set temperature
G28 ; home all axes
G90 ; use absolute coordinates
G21 ; set units to millimeters
G92 E0 ; set extruder coordinate to zero
M82 ; use absolute distances for extrusion
G1 E10 F400 ; prime the nozzle

M109 S200 ; wait for temperature to be reached
G21 ; set units to millimeters
G90 ; use absolute coordinates
M82 ; use absolute distances for extrusion
G92 E0
G1 E-3.00000 F3900.00000
G92 E0
G1 Z0.300 F12000.000
G1 X73.286 Y62.941 F12000.000
G1 E3.10000 F3900.00000
G1 X76.434 Y60.355 E3.15052 F2550.000
G1 X80.025 Y58.431 E3.20104
G1 X83.738 Y57.283 E3.24923
G1 X91.238 Y55.713 E3.34425
G1 X95.500 Y55.271 E3.39739
G1 X104.500 Y55.271 E3.50899
G1 X108.679 Y55.695 E3.56108
G1 X116.179 Y57.234 E3.65602 F2550.000
G1 X120.070 Y58.439 E3.70654
G1 X123.652 Y60.381 E3.75706
G1 X126.787 Y62.983 E3.80758
G1 X129.354 Y66.146 E3.85810
G1 X131.255 Y69.749 E3.90862
G1 X132.418 Y73.654 E3.95914
G1 X132.797 Y77.607 E4.00838
G1 X132.797 Y113.953 E4.45909
G1 X132.398 Y118.007 E4.50961
G1 X131.216 Y121.906 E4.56013
G1 X129.297 Y125.500 E4.61065
G1 X126.714 Y128.650 E4.66117
G1 X123.566 Y131.237 E4.71169
G1 X119.975 Y133.160 E4.76221
G1 X116.474 Y134.263 E4.80772
G1 X108.974 Y135.915 E4.90296
G1 X104.500 Y136.402 E4.95877
G1 X95.500 Y136.402 E5.07038
G1 X90.817 Y135.868 E5.12882
G1 X83.317 Y134.135 E5.22428
G1 X79.457 Y132.833 E5.27480
G1 X75.924 Y130.804 E5.32532
G1 X72.855 Y128.124 E5.37584
G1 X70.367 Y124.898 E5.42636
G1 X68.556 Y121.249 E5.47688
G1 X67.490 Y117.317 E5.52740
G1 X67.203 Y113.872 E5.57027
G1 X67.203 Y77.639 E6.01958
G1 X67.602 Y73.584 E6.07010
G1 X68.784 Y69.685 E6.12062
G1 X70.703 Y66.092 E6.17114
G1 X73.239 Y62.999 E6.22073
G1 X73.450 Y63.174 F12000.000
G1 X73.548 Y63.056 E6.22264 F2550.000
G1 X76.690 Y60.504 E6.27283
G1 X80.271 Y58.618 E6.32303
G1 X83.792 Y57.543 E6.36868
G1 X91.292 Y55.973 E6.46370
G1 X95.500 Y55.537 E6.51615
G1 X104.500 Y55.537 E6.62776
G1 X108.625 Y55.956 E6.67918
G1 X116.125 Y57.494 E6.77412 F2550.000
G1 X119.991 Y58.694 E6.82432
G1 X123.546 Y60.630 E6.87451
G1 X126.653 Y63.225 E6.92471
G1 X129.190 Y66.379 E6.97490
G1 X131.058 Y69.970 E7.02510
G1 X132.186 Y73.858 E7.07529
G1 X132.531 Y77.607 E7.12198
G1 X132.531 Y113.953 E7.57270
G1 X132.132 Y117.981 E7.62289
G1 X130.951 Y121.853 E7.67309
G1 X129.032 Y125.417 E7.72328
G1 X126.452 Y128.536 E7.77348
G1 X123.310 Y131.088 E7.82367
G1 X119.729 Y132.974 E7.87387
G1 X116.417 Y134.003 E7.91687
G1 X108.917 Y135.656 E8.01210
G1 X104.500 Y136.137 E8.06720
G1 X95.500 Y136.137 E8.17881
G1 X90.877 Y135.609 E8.23651
G1 X83.377 Y133.876 E8.33197
G1 X79.542 Y132.580 E8.38216
G1 X76.036 Y130.557 E8.43236
G1 X72.995 Y127.886 E8.48255
G1 X70.537 Y124.669 E8.53275
G1 X68.758 Y121.033 E8.58294
G1 X67.727 Y117.119 E8.63314
G1 X67.469 Y113.872 E8.67353
G1 X67.469 Y77.639 E9.12285
G1 X67.868 Y73.610 E9.17304
G1 X69.049 Y69.739 E9.22324
G1 X70.968 Y66.174 E9.27343
G1 X73.402 Y63.232 E9.32079
G1 X73.612 Y63.407 F12000.000
G1 X73.809 Y63.171 E9.32461 F2550.000
G1 X76.945 Y60.653 E9.37448
G1 X80.517 Y58.805 E9.42435
G1 X83.847 Y57.803 E9.46747
G1 X91.347 Y56.233 E9.56249
G1 X95.500 Y55.803 E9.61427
G1 X104.500 Y55.803 E9.72587
G1 X108.572 Y56.216 E9.77663
G1 X116.072 Y57.754 E9.87157 F2550.000
G1 X119.912 Y58.949 E9.92144
G1 X123.440 Y60.879 E9.97130
G1 X126.518 Y63.467 E10.02117
G1 X129.024 Y66.612 E10.07104
G1 X130.860 Y70.190 E10.12091
G1 X131.953 Y74.061 E10.17078
G1 X132.266 Y77.607 E10.21492
G1 X132.266 Y113.953 E10.66564
G1 X131.867 Y117.955 E10.71551
G1 X130.685 Y121.799 E10.76538
G1 X128.768 Y125.334 E10.81525
G1 X126.191 Y128.421 E10.86511
G1 X123.055 Y130.938 E10.91498
G1 X119.483 Y132.786 E10.96485
G1 X116.360 Y133.744 E11.00536
G1 X108.860 Y135.396 E11.10059
G1 X104.500 Y135.871 E11.15498
G1 X95.500 Y135.871 E11.26658
G1 X90.937 Y135.350 E11.32354
G1 X83.437 Y133.617 E11.41900
G1 X79.628 Y132.327 E11.46886
G1 X76.148 Y130.311 E11.51873
G1 X73.136 Y127.647 E11.56860
G1 X70.708 Y124.440 E11.61847
G1 X68.962 Y120.818 E11.66834
G1 X67.965 Y116.922 E11.71821
G1 X67.734 Y113.872 E11.75614
G1 X67.734 Y77.639 E12.20545
G1 X68.133 Y73.637 E12.25532
G1 X69.315 Y69.793 E12.30519
G1 X71.232 Y66.258 E12.35506
G1 X73.564 Y63.465 E12.40018
G1 E9.40018 F3900.00000
G92 E0
G1 X103.774 Y103.837 F12000.000
G1 E3.10000 F3900.00000
G1 X104.848 Y103.393 E3.11441 F1530.000
G1 X105.965 Y103.246 E3.12838 F1530.000
G1 X107.150 Y103.391 E3.14319
G1 X108.226 Y103.837 E3.15764
G1 X109.148 Y104.545 E3.17205
G1 X109.856 Y105.467 E3.18646
G1 X110.301 Y106.541 E3.20088
G1 X110.452 Y107.693 E3.21529
G1 X110.301 Y108.845 E3.22970
G1 X109.856 Y109.919 E3.24411
G1 X109.148 Y110.841 E3.25853
G1 X108.226 Y111.549 E3.27294
G1 X107.152 Y111.994 E3.28735
G1 X106.000 Y112.145 E3.30177
G1 X104.848 Y111.994 E3.31618
G1 X103.774 Y111.549 E3.33059
G1 X102.849 Y110.840 E3.34504
G1 X102.131 Y109.886 E3.35985
G1 X101.699 Y108.845 E3.37382
G1 X101.548 Y107.693 E3.38823
G1 X101.699 Y106.541 E3.40264
G1 X102.144 Y105.467 E3.41706
G1 X102.852 Y104.545 E3.43147
G1 X103.714 Y103.883 E3.44495
G1 X103.876 Y104.094 F12000.000
G1 X104.917 Y103.651 E3.45898 F1530.000
G1 X105.966 Y103.513 E3.47209 F1530.000
G1 X107.081 Y103.651 E3.48603
G1 X108.092 Y104.069 E3.49960
G1 X108.959 Y104.734 E3.51314
G1 X109.624 Y105.601 E3.52669
G1 X110.042 Y106.610 E3.54024
G1 X110.184 Y107.693 E3.55378
G1 X110.042 Y108.776 E3.56733
G1 X109.624 Y109.785 E3.58087
G1 X108.959 Y110.652 E3.59442
G1 X108.092 Y111.317 E3.60796
G1 X107.083 Y111.735 E3.62151
G1 X106.000 Y111.878 E3.63505
G1 X104.917 Y111.735 E3.64860
G1 X103.908 Y111.317 E3.66215
G1 X103.040 Y110.651 E3.67571
G1 X102.363 Y109.754 E3.68965
G1 X101.958 Y108.776 E3.70277
G1 X101.816 Y107.693 E3.71631
G1 X101.958 Y106.610 E3.72986
G1 X102.376 Y105.601 E3.74341
G1 X103.041 Y104.734 E3.75695
G1 X103.817 Y104.139 E3.76907
G1 X103.978 Y104.350 F12000.000
G1 X104.042 Y104.301 E3.77006 F1530.000
G1 X104.986 Y103.910 E3.78274
G1 X105.967 Y103.781 E3.79501 F1530.000
G1 X107.013 Y103.910 E3.80808
G1 X107.958 Y104.301 E3.82076
G1 X108.769 Y104.924 E3.83344
G1 X109.392 Y105.735 E3.84612
G1 X109.783 Y106.680 E3.85880
G1 X109.916 Y107.693 E3.87148
G1 X109.783 Y108.707 E3.88415
G1 X109.392 Y109.651 E3.89683
G1 X108.769 Y110.463 E3.90951
G1 X107.958 Y111.085 E3.92219
G1 X107.014 Y111.476 E3.93487
G1 X106.000 Y111.610 E3.94754
G1 X104.986 Y111.476 E3.96022
G1 X104.042 Y111.085 E3.97290
G1 X103.230 Y110.462 E3.98559
G1 X102.596 Y109.621 E3.99866
G1 X102.217 Y108.707 E4.01092
G1 X102.084 Y107.693 E4.02360
G1 X102.217 Y106.680 E4.03628
G1 X102.608 Y105.735 E4.04896
G1 X103.231 Y104.924 E4.06164
G1 X103.919 Y104.396 E4.07239
G1 X103.968 Y104.271 F12000.000
G1 X102.758 Y102.386 F12000.000
G1 X97.804 Y105.246 E4.14333 F1530.000
G1 X97.804 Y97.638 E4.23768 F1530.000
G1 X104.392 Y101.442 E4.33202
G1 X102.823 Y102.348 E4.35449
G1 X102.690 Y102.118 F12000.000
G1 X98.069 Y104.786 E4.42066 F1530.000
G1 X98.069 Y98.098 E4.50359 F1530.000
G1 X103.861 Y101.442 E4.58652
G1 X102.755 Y102.081 E4.60236
G1 X102.622 Y101.850 F12000.000
G1 X98.335 Y104.326 E4.66375 F1530.000
G1 X98.335 Y98.558 E4.73528 F1530.000
G1 X103.330 Y101.442 E4.80680
G1 X102.687 Y101.813 E4.81600
G1 X102.622 Y102.350 F12000.000
G1 X96.557 Y106.217 F12000.000
G1 X96.852 Y106.929 E4.82556 F1530.000
G1 X96.952 Y107.693 E4.83511
G1 X96.852 Y108.457 E4.84467
G1 X96.557 Y109.169 E4.85423
G1 X96.088 Y109.781 E4.86379
G1 X95.476 Y110.250 E4.87334
G1 X94.764 Y110.545 E4.88290
G1 X94.000 Y110.645 E4.89246
G1 X93.236 Y110.545 E4.90201
G1 X92.524 Y110.250 E4.91157
G1 X91.912 Y109.781 E4.92113
G1 X91.443 Y109.169 E4.93068
G1 X91.148 Y108.457 E4.94024
G1 X91.048 Y107.693 E4.94980
G1 X91.148 Y106.929 E4.95936
G1 X91.443 Y106.217 E4.96891
G1 X91.912 Y105.606 E4.97847
G1 X92.524 Y105.136 E4.98803
G1 X93.236 Y104.842 E4.99758
G1 X93.978 Y104.744 E5.00686 F1530.000
G1 X94.761 Y104.840 E5.01665
G1 X95.476 Y105.136 E5.02625
G1 X96.088 Y105.606 E5.03580
G1 X96.511 Y106.158 E5.04443
G1 X96.300 Y106.319 F12000.000
G1 X96.593 Y106.998 E5.05360 F1530.000
G1 X96.684 Y107.693 E5.06229
G1 X96.593 Y108.388 E5.07098
G1 X96.325 Y109.035 E5.07967
G1 X95.898 Y109.591 E5.08836
G1 X95.342 Y110.018 E5.09705
G1 X94.695 Y110.286 E5.10574
G1 X94.000 Y110.378 E5.11443
G1 X93.305 Y110.286 E5.12312
G1 X92.658 Y110.018 E5.13181
G1 X92.102 Y109.591 E5.14050
G1 X91.675 Y109.035 E5.14919
G1 X91.407 Y108.388 E5.15788
G1 X91.316 Y107.693 E5.16657
G1 X91.407 Y106.998 E5.17526
G1 X91.675 Y106.351 E5.18395
G1 X92.102 Y105.795 E5.19264
G1 X92.658 Y105.368 E5.20133
G1 X93.305 Y105.100 E5.21002
G1 X93.979 Y105.012 E5.21844 F1530.000
G1 X94.693 Y105.100 E5.22736
G1 X95.342 Y105.368 E5.23608
G1 X95.898 Y105.795 E5.24477
G1 X96.255 Y106.260 E5.25203
G1 X96.044 Y106.421 F12000.000
G1 X96.093 Y106.485 E5.25302 F1530.000
G1 X96.334 Y107.068 E5.26085
G1 X96.416 Y107.693 E5.26867
G1 X96.334 Y108.319 E5.27649
G1 X96.093 Y108.901 E5.28431
G1 X95.709 Y109.402 E5.29213
G1 X95.208 Y109.786 E5.29996
G1 X94.625 Y110.027 E5.30778
G1 X94.000 Y110.110 E5.31560
G1 X93.375 Y110.027 E5.32342
G1 X92.792 Y109.786 E5.33125
G1 X92.291 Y109.402 E5.33907
G1 X91.907 Y108.901 E5.34689
G1 X91.666 Y108.319 E5.35471
G1 X91.584 Y107.693 E5.36254
G1 X91.666 Y107.068 E5.37036
G1 X91.907 Y106.485 E5.37818
G1 X92.291 Y105.985 E5.38600
G1 X92.792 Y105.600 E5.39383
G1 X93.375 Y105.359 E5.40165
G1 X93.980 Y105.279 E5.40922 F1530.000
G1 X94.625 Y105.359 E5.41728
G1 X95.208 Y105.600 E5.42511
G1 X95.709 Y105.985 E5.43293
G1 X95.998 Y106.362 E5.43883
G1 X96.123 Y106.411 F12000.000
G1 X95.527 Y98.338 F12000.000
G1 X92.473 Y98.338 E5.47670 F1530.000
G1 X90.946 Y95.693 E5.51457
G1 X92.473 Y93.048 E5.55244
G1 X95.527 Y93.048 E5.59031 F1530.000
G1 X97.054 Y95.693 E5.62818
G1 X95.564 Y98.273 E5.66512
G1 X95.374 Y98.072 F12000.000
G1 X92.626 Y98.072 E5.69919 F1530.000
G1 X91.253 Y95.693 E5.73326
G1 X92.626 Y93.314 E5.76733
G1 X95.374 Y93.314 E5.80139 F1530.000
G1 X96.747 Y95.693 E5.83546
G1 X95.411 Y98.007 E5.86860
G1 X95.220 Y97.807 F12000.000
G1 X92.780 Y97.807 E5.89886 F1530.000
G1 X91.559 Y95.693 E5.92913
G1 X92.780 Y93.580 E5.95939
G1 X95.220 Y93.580 E5.98965 F1530.000
G1 X96.441 Y95.693 E6.01992
G1 X95.258 Y97.742 E6.04925
G1 X95.133 Y98.299 F12000.000
G1 X101.446 Y95.693 F12000.000
G1 X103.723 Y91.749 E6.10572 F1530.000
G1 X108.277 Y91.749 E6.16219 F1530.000
G1 X110.554 Y95.693 E6.21867
G1 X108.277 Y99.637 E6.27514
G1 X103.723 Y99.637 E6.33161
G1 X101.484 Y95.758 E6.38715
G1 X101.753 Y95.693 F12000.000
G1 X103.876 Y92.015 E6.43982 F1530.000
G1 X108.124 Y92.015 E6.49249 F1530.000
G1 X110.247 Y95.693 E6.54515
G1 X108.124 Y99.371 E6.59782
G1 X103.876 Y99.371 E6.65049
G1 X101.790 Y95.758 E6.70223
G1 X102.059 Y95.693 F12000.000
G1 X104.030 Y92.281 E6.75109 F1530.000
G1 X107.970 Y92.281 E6.79996 F1530.000
G1 X109.941 Y95.693 E6.84882
G1 X107.970 Y99.106 E6.89769
G1 X104.030 Y99.106 E6.94655
G1 X102.097 Y95.758 E6.99449
G1 X101.676 Y95.372 F12000.000
G1 X102.097 Y87.389 F12000.000
G1 X97.804 Y87.389 E7.04773 F1530.000
G1 X97.804 Y85.889 E7.06633
G1 X90.304 Y85.889 E7.15933
G1 X90.304 Y79.997 E7.23240
G1 X97.804 Y79.997 E7.32541
G1 X97.804 Y78.497 E7.34401
G1 X102.196 Y78.497 E7.39848 F1530.000
G1 X102.196 Y79.997 E7.41708
G1 X109.696 Y79.997 E7.51008
G1 X109.696 Y85.889 E7.58315
G1 X102.196 Y85.889 E7.67615
G1 X102.196 Y87.389 E7.69476
G1 X102.172 Y87.389 E7.69506
G1 X101.931 Y87.124 F12000.000
G1 X98.069 Y87.124 E7.74294 F1530.000
G1 X98.069 Y85.624 E7.76154
G1 X90.569 Y85.624 E7.85454
G1 X90.569 Y80.263 E7.92103
G1 X98.069 Y80.263 E8.01403
G1 X98.069 Y78.763 E8.03263
G1 X101.931 Y78.763 E8.08051 F1530.000
G1 X101.931 Y80.263 E8.09911
G1 X109.431 Y80.263 E8.19212
G1 X109.431 Y85.624 E8.25860
G1 X101.931 Y85.624 E8.35160
G1 X101.931 Y87.049 E8.36928
G1 X101.665 Y86.858 F12000.000
G1 X98.335 Y86.858 E8.41057 F1453.500
G1 X98.335 Y85.358 E8.42917
G1 X90.835 Y85.358 E8.52217
G1 X90.835 Y80.528 E8.58207
G1 X98.335 Y80.528 E8.67507
G1 X98.335 Y79.028 E8.69367
G1 X101.665 Y79.028 E8.73497 F1453.500
G1 X101.665 Y80.528 E8.75357
G1 X109.165 Y80.528 E8.84657
G1 X109.165 Y85.358 E8.90647
G1 X101.665 Y85.358 E8.99947
G1 X101.665 Y86.783 E9.01714
G1 X101.665 Y87.358 F12000.000
G1 X97.500 Y87.693 F12000.000
G1 X90.767 Y91.861 F12000.000
G1 X89.000 Y112.872 F12000.000
G1 X88.696 Y105.890 F12000.000
G1 X88.696 Y78.335 E9.35885 F1530.000
G1 X96.196 Y78.335 E9.45185
G1 X96.196 Y76.764 E9.47133
G1 X103.804 Y76.764 E9.56566
G1 X103.804 Y78.303 E9.58474
G1 X111.304 Y78.303 E9.67775 F1530.000
G1 X111.304 Y113.257 E10.11119
G1 X103.804 Y113.257 E10.20420
G1 X103.804 Y114.909 E10.22469
G1 X96.196 Y114.909 E10.31903
G1 X96.196 Y113.176 E10.34052
G1 X88.696 Y113.176 E10.43352
G1 X88.696 Y105.965 E10.52294
G1 X88.431 Y105.965 F12000.000
G1 X88.431 Y78.069 E10.86886 F1530.000
G1 X95.931 Y78.069 E10.96187
G1 X95.931 Y76.499 E10.98134
G1 X104.069 Y76.499 E11.08227
G1 X104.069 Y78.037 E11.10134
G1 X111.569 Y78.037 E11.19435 F1530.000
G1 X111.569 Y113.522 E11.63439
G1 X104.069 Y113.522 E11.72739
G1 X104.069 Y115.175 E11.74788
G1 X95.931 Y115.175 E11.84880
G1 X95.931 Y113.441 E11.87030
G1 X88.431 Y113.441 E11.96330
G1 X88.431 Y106.040 E12.05508
G1 X88.165 Y106.040 F12000.000
G1 X88.165 Y77.804 E12.40523 F1453.500
G1 X95.665 Y77.804 E12.49824
G1 X95.665 Y76.233 E12.51771
G1 X104.335 Y76.233 E12.62522
G1 X104.335 Y77.772 E12.64430
G1 X111.835 Y77.772 E12.73730 F1453.500
G1 X111.835 Y113.788 E13.18393
G1 X104.335 Y113.788 E13.27693
G1 X104.335 Y115.440 E13.29742
G1 X95.665 Y115.440 E13.40493
G1 X95.665 Y113.707 E13.42643
G1 X88.165 Y113.707 E13.51943
G1 X88.165 Y106.115 E13.61357
G1 X88.598 Y105.790 F12000.000
G1 X91.070 Y108.701 F12000.000
G1 X88.836 Y106.467 E13.65294 F2550.000
G1 X88.836 Y106.089 E13.65764
G1 X90.968 Y108.222 E13.69522
G1 X90.911 Y107.787 E13.70068
G1 X88.836 Y105.712 E13.73725
G1 X88.836 Y105.335 E13.74195
G1 X90.946 Y107.445 E13.77914
G1 X90.990 Y107.111 E13.78333
G1 X88.836 Y104.957 E13.82129
G1 X88.836 Y104.580 E13.82599
G1 X91.065 Y106.809 E13.86528
G1 X91.176 Y106.542 E13.86888
G1 X88.836 Y104.202 E13.91011
G1 X88.836 Y103.825 E13.91482
G1 X91.287 Y106.275 E13.95800
G1 X91.430 Y106.042 E13.96142
G1 X88.836 Y103.447 E14.00713
G1 X88.836 Y103.070 E14.01183
G1 X91.594 Y105.828 E14.06043
G1 X91.758 Y105.614 E14.06379
G1 X88.836 Y102.692 E14.11528
G1 X88.836 Y102.315 E14.11998
G1 X91.950 Y105.429 E14.17485
G1 X92.164 Y105.265 E14.17821
G1 X88.836 Y101.938 E14.23685
G1 X88.836 Y101.560 E14.24155
G1 X92.377 Y105.101 E14.30395
G1 X92.618 Y104.965 E14.30740
G1 X88.836 Y101.183 E14.37404
G1 X88.836 Y100.805 E14.37875
G1 X92.885 Y104.854 E14.45009
G1 X93.152 Y104.744 E14.45369
G1 X88.836 Y100.428 E14.52975
G1 X88.836 Y100.050 E14.53445
G1 X93.463 Y104.678 E14.61598
G1 X93.797 Y104.634 E14.62018
G1 X88.836 Y99.673 E14.70759
G1 X88.836 Y99.295 E14.71229
G1 X94.158 Y104.618 E14.80608
G1 X94.589 Y104.671 E14.81148
G1 X88.836 Y98.918 E14.91286
G1 X88.836 Y98.541 E14.91756
G1 X95.095 Y104.799 E15.02784
G1 X95.902 Y105.229 F12000.000
G1 X88.836 Y98.163 E15.15235 F2550.000
G1 X88.836 Y97.786 E15.15705
G1 X104.167 Y113.117 E15.42721
G1 X104.545 Y113.117 E15.43191
G1 X88.836 Y97.408 E15.70871
G1 X88.836 Y96.276 F12000.000
G1 X97.664 Y105.104 E15.86427 F2550.000
G1 X97.664 Y104.727 E15.86897
G1 X88.836 Y95.899 E16.02453
G1 X88.836 Y95.521 E16.02923
G1 X97.664 Y104.349 E16.18479
G1 X97.664 Y103.972 E16.18950
G1 X88.836 Y95.144 E16.34505
G1 X88.836 Y94.766 E16.34976
G1 X92.083 Y98.013 E16.40697
G1 X92.548 Y98.478 F12000.000
G1 X97.664 Y103.594 E16.49713 F2550.000
G1 X97.664 Y103.217 E16.50183
G1 X92.925 Y98.478 E16.58534
G1 X93.302 Y98.478 E16.59004
G1 X97.664 Y102.839 E16.66689
G1 X97.664 Y102.462 E16.67160
G1 X93.680 Y98.478 E16.74180
G1 X94.057 Y98.478 E16.74651
G1 X97.664 Y102.084 E16.81006
G1 X97.664 Y101.707 E16.81476
G1 X94.435 Y98.478 E16.87167
