; generated by Slic3r 1.1.7 on 2015-04-14 at 18:11:55

; perimeters extrusion width = 0.51mm
; infill extrusion width = 0.51mm
; solid infill extrusion width = 0.33mm
; top infill extrusion width = 0.33mm

G21 ; set units to millimeters
M107
M190 S55 ; wait for bed temperature to be reached
G1 F1500 ; set speed of extruder movements
G1 X30 Y30 Z10 ; move away from home
G28 ; home all axes
G90 ; use absolute coordinates
G21 ; set units to millimeters
G92 E0 ; set extruder coordinate to zero
M82 ; use absolute distances for extrusion
M109 S190 ; wait for temperature to be reached
G1 E10 F400 ; prime the nozzle

G90 ; use absolute coordinates
G92 E0
M82 ; use absolute distances for extrusion
G1 F3900.000 E-3.00000
G92 E0
G1 Z0.500 F12000.000
G1 X78.136 Y70.292 F12000.000
G1 E3.10000 F3900.000
G1 X81.290 Y67.669 E3.27210 F2550.000
G1 X84.891 Y65.707 E3.44420
G1 X88.805 Y64.479 E3.61631
G1 X93.127 Y64.031 E3.79866
G1 X106.873 Y64.031 E4.37540
G1 X110.955 Y64.430 E4.54751
G1 X114.882 Y65.612 E4.71961 F2550.000
G1 X118.506 Y67.532 E4.89171
G1 X121.690 Y70.118 E5.06381
G1 X124.313 Y73.272 E5.23591
G1 X126.275 Y76.873 E5.40802
G1 X127.503 Y80.787 E5.58012
G1 X127.951 Y85.110 E5.76247
G1 X127.951 Y90.837 E6.00278
G1 X127.552 Y94.919 E6.17488
G1 X125.726 Y100.263 E6.41187
G1 X117.708 Y116.299 E7.16416
G1 X115.525 Y119.772 E7.33626
G1 X112.712 Y122.756 E7.50836
G1 X109.373 Y125.139 E7.68046
G1 X105.637 Y126.830 E7.85257
G1 X101.643 Y127.766 E8.02467
G1 X98.855 Y127.951 E8.14193
G1 X93.127 Y127.951 E8.38224
G1 X89.045 Y127.552 E8.55435
G1 X85.118 Y126.370 E8.72645
G1 X81.494 Y124.450 E8.89855
G1 X78.310 Y121.864 E9.07065
G1 X75.687 Y118.710 E9.24275
G1 X73.725 Y115.109 E9.41486
G1 X72.497 Y111.195 E9.58696
G1 X72.049 Y106.873 E9.76931
G1 X72.049 Y85.110 E10.68249
G1 X72.448 Y81.027 E10.85459
G1 X73.630 Y77.100 E11.02669
G1 X75.550 Y73.476 E11.19879
G1 X78.089 Y70.350 E11.36775
G1 X78.517 Y70.704 F12000.000
G1 X78.667 Y70.523 E11.37763 F2550.000
G1 X81.810 Y67.970 E11.54751
G1 X85.391 Y66.083 E11.71739
G1 X89.274 Y64.935 E11.88727
G1 X93.127 Y64.570 E12.04969
G1 X106.873 Y64.570 E12.62643
G1 X110.901 Y64.969 E12.79631
G1 X114.774 Y66.151 E12.96619 F2550.000
G1 X118.339 Y68.069 E13.13607
G1 X121.459 Y70.649 E13.30595
G1 X124.012 Y73.792 E13.47583
G1 X125.899 Y77.374 E13.64571
G1 X127.047 Y81.256 E13.81560
G1 X127.412 Y85.110 E13.97801
G1 X127.412 Y90.837 E14.21832
G1 X127.013 Y94.866 E14.38820
G1 X125.243 Y100.022 E14.61695
G1 X117.225 Y116.058 E15.36924
G1 X115.067 Y119.483 E15.53912
G1 X112.278 Y122.418 E15.70900
G1 X108.968 Y124.749 E15.87888
G1 X105.265 Y126.386 E16.04876
G1 X101.313 Y127.264 E16.21865
G1 X98.855 Y127.412 E16.32197
G1 X93.127 Y127.412 E16.56228
G1 X89.099 Y127.013 E16.73216
G1 X85.226 Y125.831 E16.90204
G1 X81.661 Y123.913 E17.07192
G1 X78.541 Y121.333 E17.24180
G1 X75.988 Y118.190 E17.41169
G1 X74.101 Y114.609 E17.58157
G1 X72.953 Y110.726 E17.75145
G1 X72.588 Y106.873 E17.91386
G1 X72.588 Y85.110 E18.82704
G1 X72.987 Y81.081 E18.99692
G1 X74.169 Y77.208 E19.16680
G1 X76.087 Y73.643 E19.33668
G1 X78.470 Y70.762 E19.49354
G1 F3900.000 E16.49354
G92 E0
G1 X94.481 Y101.206 F12000.000
G1 E3.10000 F3900.000
G1 X94.481 Y86.463 E3.71861 F1530.000
G1 X105.519 Y86.463 E4.18177
G1 X105.519 Y89.483 E4.30849
G1 X97.501 Y89.483 E4.64492 F1530.000
G1 X97.501 Y105.519 E5.31779
G1 X94.481 Y105.519 E5.44451
G1 X94.481 Y101.281 E5.62233
G1 X93.942 Y101.281 F12000.000
G1 X93.942 Y85.924 E6.26672 F1530.000
G1 X106.058 Y85.924 E6.77513 F1530.000
G1 X106.058 Y90.022 E6.94710
G1 X98.040 Y90.022 E7.28354
G1 X98.040 Y106.058 E7.95640
G1 X93.942 Y106.058 E8.12838
G1 X93.942 Y101.356 E8.32568
G1 X93.402 Y101.356 F12000.000
G1 X93.402 Y85.385 E8.99585 F1453.500
G1 X106.598 Y85.385 E9.54951
G1 X106.598 Y90.562 E9.76674
G1 X98.580 Y90.562 E10.10317 F1453.500
G1 X98.580 Y106.598 E10.77604
G1 X93.402 Y106.598 E10.99327
G1 X93.402 Y101.431 E11.21006
G1 F3900.000 E8.21006
G92 E0
G1 X106.711 Y90.075 F12000.000
G1 X105.108 Y86.834 F12000.000
G1 E3.10000 F3900.000
G1 X105.148 Y86.874 E3.10237 F2550.000
G1 X105.148 Y87.645 E3.13473
G1 X104.337 Y86.834 E3.18286
G1 X103.566 Y86.834 E3.21521
G1 X105.148 Y88.416 E3.30910
G1 X105.073 Y89.112 E3.33847
G1 X102.795 Y86.834 E3.47366
G1 X102.024 Y86.834 E3.50601
G1 X104.302 Y89.112 E3.64119
G1 X103.531 Y89.112 E3.67355
G1 X101.253 Y86.834 E3.80873
G1 X100.482 Y86.834 E3.84109
G1 X102.760 Y89.112 E3.97627
G1 X101.989 Y89.112 E4.00863
G1 X99.710 Y86.834 E4.14381
G1 X98.939 Y86.834 E4.17617
G1 X101.217 Y89.112 E4.31135
G1 X100.446 Y89.112 E4.34371
G1 X98.168 Y86.834 E4.47889
G1 X97.397 Y86.834 E4.51124
G1 X99.675 Y89.112 E4.64643
G1 X98.904 Y89.112 E4.67878
G1 X96.626 Y86.834 E4.81397
G1 X95.855 Y86.834 E4.84632
G1 X98.133 Y89.112 E4.98151
G1 X97.362 Y89.112 E5.01386
G1 X95.084 Y86.834 E5.14905
G1 X94.852 Y87.373 E5.17367
G1 X97.130 Y89.651 E5.30886
G1 X97.130 Y90.422 E5.34121
G1 X94.852 Y88.144 E5.47639
G1 X94.852 Y88.915 E5.50875
G1 X97.130 Y91.193 E5.64393
G1 X97.130 Y91.965 E5.67629
G1 X94.852 Y89.686 E5.81147
G1 X94.852 Y90.457 E5.84383
G1 X97.130 Y92.736 E5.97901
G1 X97.130 Y93.507 E6.01137
G1 X94.852 Y91.229 E6.14655
G1 X94.852 Y92.000 E6.17891
G1 X97.130 Y94.278 E6.31409
G1 X97.130 Y95.049 E6.34644
G1 X94.852 Y92.771 E6.48163
G1 X94.852 Y93.542 E6.51398
G1 X97.130 Y95.820 E6.64917
G1 X97.130 Y96.591 E6.68152
G1 X94.852 Y94.313 E6.81671
G1 X94.852 Y95.084 E6.84906
G1 X97.130 Y97.362 E6.98425
G1 X97.130 Y98.133 E7.01660
G1 X94.852 Y95.855 E7.15178
G1 X94.852 Y96.626 E7.18414
G1 X97.130 Y98.904 E7.31932
G1 X97.130 Y99.675 E7.35168
G1 X94.852 Y97.397 E7.48686
G1 X94.852 Y98.168 E7.51922
G1 X97.130 Y100.446 E7.65440
G1 X97.130 Y101.217 E7.68676
G1 X94.852 Y98.939 E7.82194
G1 X94.852 Y99.710 E7.85429
G1 X97.130 Y101.989 E7.98948
G1 X97.130 Y102.760 E8.02183
G1 X94.852 Y100.482 E8.15702
G1 X94.852 Y101.253 E8.18937
G1 X97.130 Y103.531 E8.32456
G1 X97.130 Y104.302 E8.35691
G1 X94.852 Y102.024 E8.49210
G1 X94.852 Y102.795 E8.52445
G1 X97.130 Y105.073 E8.65963
G1 X96.434 Y105.148 E8.68901
G1 X94.852 Y103.566 E8.78289
G1 X94.852 Y104.337 E8.81525
G1 X95.663 Y105.148 E8.86338
G1 X94.892 Y105.148 E8.89573
G1 X94.852 Y105.108 E8.89811
M140 S50 ; set bed temperature
G1 F3900.000 E5.89811
G92 E0
G1 Z0.800 F12000.000
G1 X97.584 Y97.968 F12000.000
G1 E3.10000 F3900.000
G1 X97.584 Y105.602 E3.28100 F1800.000
G1 X94.398 Y105.602 E3.35653
G1 X94.398 Y86.380 E3.81226
G1 X105.602 Y86.380 E4.07789
G1 X105.602 Y89.566 E4.15342
G1 X97.584 Y89.566 E4.34352 F1800.000
G1 X97.584 Y97.893 E4.54094
G1 X98.092 Y97.893 F12000.000
G1 X98.092 Y106.110 E4.73576 F1800.000
G1 X93.890 Y106.110 E4.83538
G1 X93.890 Y85.872 E5.31519
G1 X106.110 Y85.872 E5.60490 F1800.000
G1 X106.110 Y90.074 E5.70451
G1 X98.092 Y90.074 E5.89461
G1 X98.092 Y97.818 E6.07822
G1 X98.600 Y97.818 F12000.000
G1 X98.600 Y106.618 E6.28685 F1710.000
G1 X93.382 Y106.618 E6.41055
G1 X93.382 Y85.365 E6.91444
G1 X106.618 Y85.365 E7.22824
G1 X106.618 Y90.582 E7.35193
G1 X98.600 Y90.582 E7.54203 F1710.000
G1 X98.600 Y97.743 E7.71181
G1 F3900.000 E4.71181
G92 E0
G1 X106.868 Y90.149 F12000.000
G1 X105.254 Y88.822 F12000.000
G1 E3.10000 F3900.000
G1 X104.858 Y89.218 E3.10958 F3000.000
G1 X104.334 Y89.218 E3.11853
G1 X105.254 Y88.299 E3.14078
G1 X105.254 Y87.775 E3.14973
G1 X103.811 Y89.218 E3.18464
G1 X103.288 Y89.218 E3.19359
G1 X105.254 Y87.252 E3.24116
G1 X105.234 Y86.748 E3.24978
G1 X102.764 Y89.218 E3.30953
G1 X102.241 Y89.218 E3.31848
G1 X104.730 Y86.728 E3.37871
G1 X104.207 Y86.728 E3.38767
G1 X101.718 Y89.218 E3.44790
G1 X101.194 Y89.218 E3.45686
G1 X103.684 Y86.728 E3.51709
G1 X103.160 Y86.728 E3.52604
G1 X100.671 Y89.218 E3.58628
G1 X100.147 Y89.218 E3.59523
G1 X102.637 Y86.728 E3.65546
G1 X102.113 Y86.728 E3.66442
G1 X99.624 Y89.218 E3.72465
G1 X99.101 Y89.218 E3.73361
G1 X101.590 Y86.728 E3.79384
G1 X101.067 Y86.728 E3.80279
G1 X98.577 Y89.218 E3.86303
G1 X98.054 Y89.218 E3.87198
G1 X100.543 Y86.728 E3.93221
G1 X100.020 Y86.728 E3.94117
G1 X97.531 Y89.218 E4.00140
G1 X94.746 Y86.768 F12000.000
G1 X94.786 Y86.728 E4.00237 F3000.000
G1 X95.310 Y86.728 E4.01132
G1 X94.746 Y87.292 E4.02495
G1 X94.746 Y87.815 E4.03391
G1 X95.833 Y86.728 E4.06020
G1 X96.356 Y86.728 E4.06916
G1 X94.746 Y88.339 E4.10812
G1 X94.746 Y88.862 E4.11707
G1 X96.880 Y86.728 E4.16869
G1 X97.403 Y86.728 E4.17765
G1 X94.746 Y89.385 E4.24193
G1 X94.746 Y89.909 E4.25089
G1 X97.927 Y86.728 E4.32783
G1 X98.450 Y86.728 E4.33679
G1 X94.746 Y90.432 E4.42640
G1 X94.746 Y90.955 E4.43535
G1 X98.973 Y86.728 E4.53763
G1 X99.497 Y86.728 E4.54658
G1 X94.746 Y91.479 E4.66152
G1 X94.746 Y92.002 E4.67048
G1 X97.236 Y89.513 E4.73071
G1 X97.236 Y90.036 E4.73967
G1 X94.746 Y92.525 E4.79990
G1 X94.746 Y93.049 E4.80885
G1 X97.236 Y90.559 E4.86909
G1 X97.236 Y91.083 E4.87804
G1 X94.746 Y93.572 E4.93827
G1 X94.746 Y94.096 E4.94723
G1 X97.236 Y91.606 E5.00746
G1 X97.236 Y92.130 E5.01641
G1 X94.746 Y94.619 E5.07665
G1 X94.746 Y95.142 E5.08560
G1 X97.236 Y92.653 E5.14583
G1 X97.236 Y93.176 E5.15479
G1 X94.746 Y95.666 E5.21502
G1 X94.746 Y96.189 E5.22398
G1 X97.236 Y93.700 E5.28421
G1 X97.236 Y94.223 E5.29316
G1 X94.746 Y96.712 E5.35340
G1 X94.746 Y97.236 E5.36235
G1 X97.236 Y94.746 E5.42258
G1 X97.236 Y95.270 E5.43154
G1 X94.746 Y97.759 E5.49177
G1 X94.746 Y98.282 E5.50072
G1 X97.236 Y95.793 E5.56096
G1 X97.236 Y96.316 E5.56991
G1 X94.746 Y98.806 E5.63014
G1 X94.746 Y99.329 E5.63910
G1 X97.236 Y96.840 E5.69933
G1 X97.236 Y97.363 E5.70829
G1 X94.746 Y99.853 E5.76852
G1 X94.746 Y100.376 E5.77747
G1 X97.236 Y97.887 E5.83771
G1 X97.236 Y98.410 E5.84666
G1 X94.746 Y100.899 E5.90689
G1 X94.746 Y101.423 E5.91585
G1 X97.236 Y98.933 E5.97608
G1 X97.236 Y99.457 E5.98504
G1 X94.746 Y101.946 E6.04527
G1 X94.746 Y102.469 E6.05422
G1 X97.236 Y99.980 E6.11446
G1 X97.236 Y100.503 E6.12341
G1 X94.746 Y102.993 E6.18364
G1 X94.746 Y103.516 E6.19260
G1 X97.236 Y101.027 E6.25283
G1 X97.236 Y101.550 E6.26178
G1 X94.746 Y104.039 E6.32202
G1 X94.746 Y104.563 E6.33097
G1 X97.236 Y102.073 E6.39120
G1 X97.236 Y102.597 E6.40016
G1 X94.746 Y105.086 E6.46039
G1 X95.102 Y105.254 E6.46712
G1 X97.236 Y103.120 E6.51874
G1 X97.236 Y103.644 E6.52770
G1 X95.626 Y105.254 E6.56666
G1 X96.149 Y105.254 E6.57561
G1 X97.236 Y104.167 E6.60190
G1 X97.236 Y104.690 E6.61086
G1 X96.672 Y105.254 E6.62449
G1 X97.196 Y105.254 E6.63344
G1 X97.236 Y105.214 E6.63441
G1 F3900.000 E3.63441
G92 E0
G1 Z1.100 F12000.000
G1 X94.398 Y88.480 F12000.000
G1 E3.10000 F3900.000
G1 X94.398 Y86.380 E3.14979 F1800.000
G1 X105.602 Y86.380 E3.41542
G1 X105.602 Y89.566 E3.49095
G1 X97.584 Y89.566 E3.68105 F1800.000
G1 X97.584 Y105.602 E4.06125
G1 X94.398 Y105.602 E4.13678
G1 X94.398 Y88.555 E4.54094
G1 X93.890 Y88.555 F12000.000
G1 X93.890 Y85.872 E4.60456 F1800.000
G1 X106.110 Y85.872 E4.89427 F1800.000
G1 X106.110 Y90.074 E4.99388
G1 X98.092 Y90.074 E5.18398
G1 X98.092 Y106.110 E5.56418
G1 X93.890 Y106.110 E5.66379
G1 X93.890 Y88.630 E6.07822
G1 X93.382 Y88.630 F12000.000
G1 X93.382 Y85.365 E6.15565 F1710.000
G1 X106.618 Y85.365 E6.46944
G1 X106.618 Y90.582 E6.59313
G1 X98.600 Y90.582 E6.78323 F1710.000
G1 X98.600 Y106.618 E7.16343
G1 X93.382 Y106.618 E7.28713
G1 X93.382 Y88.705 E7.71181
G1 X106.731 Y90.095 F12000.000
G1 X105.214 Y86.728 F12000.000
G1 X105.254 Y86.768 E7.71278 F3000.000
G1 X105.254 Y87.295 E7.72179
G1 X104.687 Y86.728 E7.73549
G1 X104.161 Y86.728 E7.74450
G1 X105.254 Y87.821 E7.77094
G1 X105.254 Y88.348 E7.77995
G1 X103.634 Y86.728 E7.81913
G1 X103.108 Y86.728 E7.82813
G1 X105.254 Y88.874 E7.88005
G1 X105.071 Y89.218 E7.88671
G1 X102.582 Y86.728 E7.94694
G1 X102.055 Y86.728 E7.95595
G1 X104.545 Y89.218 E8.01618
G1 X104.018 Y89.218 E8.02519
G1 X101.529 Y86.728 E8.08542
G1 X101.002 Y86.728 E8.09443
G1 X103.492 Y89.218 E8.15466
G1 X102.965 Y89.218 E8.16367
G1 X100.476 Y86.728 E8.22390
G1 X99.950 Y86.728 E8.23291
G1 X102.439 Y89.218 E8.29314
G1 X101.912 Y89.218 E8.30215
G1 X99.423 Y86.728 E8.36238
G1 X98.897 Y86.728 E8.37139
G1 X101.386 Y89.218 E8.43162
G1 X100.860 Y89.218 E8.44062
G1 X98.370 Y86.728 E8.50086
G1 X97.844 Y86.728 E8.50986
G1 X100.333 Y89.218 E8.57010
G1 X99.807 Y89.218 E8.57910
G1 X97.318 Y86.728 E8.63934
G1 X96.791 Y86.728 E8.64834
G1 X99.280 Y89.218 E8.70858
G1 X98.754 Y89.218 E8.71758
G1 X96.265 Y86.728 E8.77781
G1 X95.738 Y86.728 E8.78682
G1 X98.228 Y89.218 E8.84705
G1 X97.701 Y89.218 E8.85606
G1 X95.212 Y86.728 E8.91629
G1 X94.746 Y86.789 E8.92433
G1 X97.236 Y89.279 E8.98456
G1 X97.236 Y89.805 E8.99357
G1 X94.746 Y87.316 E9.05380
G1 X94.746 Y87.842 E9.06280
G1 X97.236 Y90.331 E9.12304
G1 X97.236 Y90.858 E9.13204
G1 X94.746 Y88.369 E9.19228
G1 X94.746 Y88.895 E9.20128
G1 X97.236 Y91.384 E9.26152
G1 X97.236 Y91.911 E9.27052
G1 X94.746 Y89.421 E9.33076
G1 X94.746 Y89.948 E9.33976
G1 X97.236 Y92.437 E9.39999
G1 X97.236 Y92.964 E9.40900
G1 X94.746 Y90.474 E9.46923
G1 X94.746 Y91.001 E9.47824
G1 X97.236 Y93.490 E9.53847
G1 X97.236 Y94.016 E9.54748
G1 X94.746 Y91.527 E9.60771
G1 X94.746 Y92.053 E9.61672
G1 X97.236 Y94.543 E9.67695
G1 X97.236 Y95.069 E9.68596
G1 X94.746 Y92.580 E9.74619
G1 X94.746 Y93.106 E9.75520
G1 X97.236 Y95.596 E9.81543
G1 X97.236 Y96.122 E9.82444
G1 X94.746 Y93.633 E9.88467
G1 X94.746 Y94.159 E9.89368
G1 X97.236 Y96.648 E9.95391
G1 X97.236 Y97.175 E9.96292
G1 X94.746 Y94.685 E10.02315
G1 X94.746 Y95.212 E10.03215
G1 X97.236 Y97.701 E10.09239
G1 X97.236 Y98.228 E10.10139
G1 X94.746 Y95.738 E10.16163
G1 X94.746 Y96.265 E10.17063
G1 X97.236 Y98.754 E10.23087
G1 X97.236 Y99.280 E10.23987
G1 X94.746 Y96.791 E10.30011
G1 X94.746 Y97.318 E10.30911
G1 X97.236 Y99.807 E10.36934
G1 X97.236 Y100.333 E10.37835
G1 X94.746 Y97.844 E10.43858
G1 X94.746 Y98.370 E10.44759
G1 X97.236 Y100.860 E10.50782
G1 X97.236 Y101.386 E10.51683
G1 X94.746 Y98.897 E10.57706
G1 X94.746 Y99.423 E10.58607
G1 X97.236 Y101.912 E10.64630
G1 X97.236 Y102.439 E10.65531
G1 X94.746 Y99.950 E10.71554
G1 X94.746 Y100.476 E10.72455
G1 X97.236 Y102.965 E10.78478
G1 X97.236 Y103.492 E10.79379
G1 X94.746 Y101.002 E10.85402
G1 X94.746 Y101.529 E10.86303
G1 X97.236 Y104.018 E10.92326
G1 X97.236 Y104.545 E10.93227
G1 X94.746 Y102.055 E10.99250
G1 X94.746 Y102.582 E11.00150
G1 X97.236 Y105.071 E11.06174
G1 X96.892 Y105.254 E11.06840
G1 X94.746 Y103.108 E11.12031
G1 X94.746 Y103.634 E11.12932
G1 X96.366 Y105.254 E11.16850
G1 X95.839 Y105.254 E11.17751
G1 X94.746 Y104.161 E11.20395
G1 X94.746 Y104.687 E11.21295
G1 X95.313 Y105.254 E11.22666
G1 X94.786 Y105.254 E11.23567
G1 X94.746 Y105.214 E11.23663
M106 S246
G1 F3900.000 E8.23663
G92 E0
G1 Z1.400 F12000.000
G1 X96.584 Y86.110 F12000.000
G1 X103.096 Y86.380 F12000.000
G1 E3.10000 F3900.000
G1 X105.602 Y86.380 E3.15942 F1800.000
G1 X105.602 Y89.566 E3.23495
G1 X97.584 Y89.566 E3.42505 F1800.000
G1 X97.584 Y105.602 E3.80525
G1 X94.398 Y105.602 E3.88078
G1 X94.398 Y86.380 E4.33651
G1 X103.021 Y86.380 E4.54094
G1 X103.021 Y85.872 F12000.000
G1 X106.110 Y85.872 E4.61418 F1800.000
G1 X106.110 Y90.074 E4.71380
G1 X98.092 Y90.074 E4.90390
G1 X98.092 Y106.110 E5.28410
G1 X93.890 Y106.110 E5.38371
G1 X93.890 Y85.872 E5.86352
G1 X102.946 Y85.872 E6.07822 F1800.000
G1 X102.946 Y85.365 F12000.000
G1 X106.618 Y85.365 E6.16527 F1710.000
G1 X106.618 Y90.582 E6.28897
G1 X98.600 Y90.582 E6.47907 F1710.000
G1 X98.600 Y106.618 E6.85927
G1 X93.382 Y106.618 E6.98296
G1 X93.382 Y85.365 E7.48686
G1 X102.871 Y85.365 E7.71181
G1 X106.121 Y90.519 F12000.000
G1 X102.995 Y89.198 F12000.000
G1 X104.336 Y87.856 E7.75679 F3000.000
G1 X105.234 Y88.097 E7.77882
G1 X103.776 Y86.748 E7.82590
G1 X103.977 Y87.497 E7.84428
G1 X102.276 Y89.198 E7.90130
G1 X101.493 Y89.198 E7.91987
G1 X100.412 Y88.908 E7.94642
G1 X100.122 Y89.198 E7.95613
G1 X99.698 Y86.748 E8.01507
G1 X99.597 Y86.850 E8.01846
G1 X100.052 Y88.549 E8.06017
G1 X99.403 Y89.198 E8.08193
G1 X97.216 Y90.155 F12000.000
G1 X96.487 Y89.960 E8.09981 F3000.000
G1 X94.766 Y91.680 E8.15751
G1 X94.766 Y92.367 E8.17380
G1 X95.077 Y93.525 E8.20221
G1 X94.766 Y93.835 E8.21261
G1 X97.216 Y94.259 E8.27154
G1 X97.135 Y94.339 E8.27425
G1 X95.436 Y93.884 E8.31596
G1 X94.766 Y94.553 E8.33840
G1 X94.766 Y97.911 E8.41801
