; generated by Slic3r 1.2.7-dev on 2015-03-17 at 21:46:40

; external perimeters extrusion width = 0.25mm
; perimeters extrusion width = 0.43mm
; infill extrusion width = 0.43mm
; solid infill extrusion width = 0.28mm
; top infill extrusion width = 0.28mm

M107
M190 S55 ; set bed temperature
G28 ; home all axes
G90 ; use absolute coordinates
G21 ; set units to millimeters
G92 E0 ; set extruder coordinate to zero
M82 ; use absolute distances for extrusion
M109 S190 ; wait for temperature to be reached
G1 E10 F400 ; prime the nozzle

G21 ; set units to millimeters
G90 ; use absolute coordinates
M82 ; use absolute distances for extrusion
G92 E0
G1 E-3.00000 F3900.00000
G92 E0
G1 Z0.300 F12000.000
G1 X77.085 Y78.579 F12000.000
G1 E3.10000 F3900.00000
G1 X79.243 Y76.482 E3.13733 F2550.000
G1 X79.676 Y76.106 E3.14443
G1 X82.060 Y74.269 E3.18175
G1 X82.532 Y73.946 E3.18884
G1 X85.110 Y72.391 E3.22617
G1 X85.615 Y72.125 E3.23325
G1 X88.354 Y70.874 E3.27060
G1 X88.886 Y70.667 E3.27767
G1 X91.750 Y69.736 E3.31502
G1 X92.303 Y69.591 E3.32211
G1 X95.254 Y68.993 E3.35944
G1 X95.810 Y68.913 E3.36641
G1 X98.819 Y68.654 E3.40386
G1 X99.394 Y68.638 E3.41100
G1 X102.400 Y68.724 E3.44829
G1 X102.969 Y68.773 E3.45537 F2550.000
G1 X105.949 Y69.201 E3.49271
G1 X106.512 Y69.315 E3.49983
G1 X109.421 Y70.080 E3.53713
G1 X109.956 Y70.254 E3.54410
G1 X112.770 Y71.349 E3.58155
G1 X113.292 Y71.588 E3.58867
G1 X115.953 Y72.992 E3.62598
G1 X116.442 Y73.287 E3.63306
G1 X118.928 Y74.986 E3.67040
G1 X119.373 Y75.330 E3.67737
G1 X121.656 Y77.307 E3.71482
G1 X122.065 Y77.705 E3.72190
G1 X124.102 Y79.924 E3.75925
G1 X124.464 Y80.366 E3.76634
G1 X126.233 Y82.802 E3.80367
G1 X126.542 Y83.282 E3.81075
G1 X128.022 Y85.904 E3.84809
G1 X128.274 Y86.416 E3.85517
G1 X129.447 Y89.191 E3.89252
G1 X129.639 Y89.728 E3.89959
G1 X130.487 Y92.617 E3.93693
G1 X130.616 Y93.173 E3.94401
G1 X131.130 Y96.141 E3.98136
G1 X131.195 Y96.708 E3.98844
G1 X131.356 Y98.961 E4.01645
G1 X131.356 Y101.039 E4.04221
G1 X131.195 Y103.292 E4.07022
G1 X131.130 Y103.859 E4.07730
G1 X130.616 Y106.827 E4.11465
G1 X130.487 Y107.383 E4.12173
G1 X129.639 Y110.272 E4.15907
G1 X129.446 Y110.812 E4.16617
G1 X128.274 Y113.584 E4.20349
G1 X128.022 Y114.096 E4.21057
G1 X126.542 Y116.718 E4.24791
G1 X126.233 Y117.199 E4.25500
G1 X124.463 Y119.634 E4.29233
G1 X124.107 Y120.070 E4.29931
G1 X122.065 Y122.295 E4.33676
G1 X121.656 Y122.693 E4.34384
G1 X119.380 Y124.665 E4.38119
G1 X118.928 Y125.014 E4.38826
G1 X116.442 Y126.713 E4.42560
G1 X115.953 Y127.008 E4.43268
G1 X113.290 Y128.414 E4.47003
G1 X112.770 Y128.651 E4.47711
G1 X109.964 Y129.743 E4.51445
G1 X109.418 Y129.921 E4.52157
G1 X106.509 Y130.685 E4.55887
G1 X105.949 Y130.799 E4.56595
G1 X102.969 Y131.227 E4.60329
G1 X102.400 Y131.276 E4.61037
G1 X99.390 Y131.362 E4.64772
G1 X98.818 Y131.346 E4.65481
G1 X95.819 Y131.088 E4.69214
G1 X95.250 Y131.006 E4.69926
G1 X92.302 Y130.409 E4.73657
G1 X91.750 Y130.264 E4.74364
G1 X88.886 Y129.333 E4.78098
G1 X88.354 Y129.126 E4.78806
G1 X85.615 Y127.875 E4.82541
G1 X85.110 Y127.609 E4.83249
G1 X82.531 Y126.053 E4.86983
G1 X82.058 Y125.730 E4.87693
G1 X79.675 Y123.892 E4.91425
G1 X79.244 Y123.519 E4.92133
G1 X77.084 Y121.420 E4.95868
G1 X76.697 Y120.999 E4.96577
G1 X74.792 Y118.668 E5.00310
G1 X74.456 Y118.206 E5.01018
G1 X72.828 Y115.673 E5.04752
G1 X72.551 Y115.183 E5.05450
G1 X71.218 Y112.473 E5.09195
G1 X70.996 Y111.947 E5.09902
G1 X69.984 Y109.111 E5.13637
G1 X69.823 Y108.562 E5.14346
G1 X69.141 Y105.630 E5.18079
G1 X69.044 Y105.068 E5.18787
G1 X68.701 Y102.076 E5.22521
G1 X68.668 Y101.503 E5.23233
G1 X68.668 Y98.494 E5.26963
G1 X68.701 Y97.924 E5.27672
G1 X69.044 Y94.933 E5.31406
G1 X69.140 Y94.377 E5.32105
G1 X69.823 Y91.437 E5.35848
G1 X69.985 Y90.886 E5.36559
G1 X70.996 Y88.053 E5.40290
G1 X71.220 Y87.524 E5.41002
G1 X72.547 Y84.824 E5.44733
G1 X72.828 Y84.327 E5.45441
G1 X74.456 Y81.794 E5.49175
G1 X74.793 Y81.330 E5.49886
G1 X76.698 Y79.001 E5.53617
G1 X77.034 Y78.635 E5.54234
G1 X77.230 Y78.814 F12000.000
G1 X79.417 Y76.682 E5.58021 F2550.000
G1 X79.850 Y76.307 E5.58732
G1 X82.210 Y74.488 E5.62426
G1 X82.682 Y74.165 E5.63135
G1 X85.234 Y72.626 E5.66831
G1 X85.739 Y72.360 E5.67539
G1 X88.450 Y71.122 E5.71236
G1 X88.982 Y70.914 E5.71943
G1 X91.817 Y69.993 E5.75640
G1 X92.370 Y69.848 E5.76349
G1 X95.291 Y69.256 E5.80045
G1 X95.859 Y69.174 E5.80756
G1 X98.826 Y68.920 E5.84449
G1 X99.402 Y68.903 E5.85163
G1 X102.377 Y68.989 E5.88854
G1 X102.946 Y69.037 E5.89562 F2550.000
G1 X105.897 Y69.462 E5.93259
G1 X106.460 Y69.576 E5.93971
G1 X109.339 Y70.333 E5.97663
G1 X109.883 Y70.509 E5.98372
G1 X112.660 Y71.591 E6.02068
G1 X113.182 Y71.829 E6.02779
G1 X115.816 Y73.219 E6.06473
G1 X116.305 Y73.514 E6.07181
G1 X118.766 Y75.197 E6.10877
G1 X119.211 Y75.540 E6.11574
G1 X121.471 Y77.497 E6.15282
G1 X121.880 Y77.895 E6.15990
G1 X123.896 Y80.092 E6.19687
G1 X124.258 Y80.535 E6.20396
G1 X126.010 Y82.945 E6.24091
G1 X126.318 Y83.426 E6.24799
G1 X127.784 Y86.021 E6.28496
G1 X128.036 Y86.534 E6.29204
G1 X129.197 Y89.280 E6.32901
G1 X129.388 Y89.818 E6.33609
G1 X130.228 Y92.677 E6.37305
G1 X130.357 Y93.233 E6.38013
G1 X130.866 Y96.171 E6.41710
G1 X130.931 Y96.739 E6.42418
G1 X131.090 Y98.969 E6.45191
G1 X131.090 Y101.031 E6.47749
G1 X130.931 Y103.261 E6.50521
G1 X130.866 Y103.829 E6.51229
G1 X130.357 Y106.767 E6.54926
G1 X130.228 Y107.323 E6.55634
G1 X129.388 Y110.182 E6.59330
G1 X129.196 Y110.722 E6.60041
G1 X128.036 Y113.466 E6.63736
G1 X127.784 Y113.979 E6.64444
G1 X126.318 Y116.574 E6.68140
G1 X126.009 Y117.055 E6.68849
G1 X124.257 Y119.466 E6.72544
G1 X123.902 Y119.902 E6.73242
G1 X121.880 Y122.105 E6.76949
G1 X121.471 Y122.503 E6.77658
G1 X119.218 Y124.455 E6.81354
G1 X118.766 Y124.803 E6.82062
G1 X116.305 Y126.486 E6.85758
G1 X115.816 Y126.781 E6.86466
G1 X113.179 Y128.172 E6.90163
G1 X112.660 Y128.409 E6.90871
G1 X109.882 Y129.491 E6.94568
G1 X109.336 Y129.668 E6.95280
G1 X106.456 Y130.425 E6.98973
G1 X105.897 Y130.538 E6.99680
G1 X102.946 Y130.963 E7.03377
G1 X102.377 Y131.011 E7.04085
G1 X99.397 Y131.097 E7.07782
G1 X98.825 Y131.080 E7.08491
G1 X95.856 Y130.825 E7.12187
G1 X95.288 Y130.743 E7.12899
G1 X92.369 Y130.152 E7.16591
G1 X91.817 Y130.007 E7.17299
G1 X88.982 Y129.086 E7.20996
G1 X88.450 Y128.878 E7.21704
G1 X85.739 Y127.640 E7.25400
G1 X85.234 Y127.374 E7.26108
G1 X82.681 Y125.834 E7.29805
G1 X82.208 Y125.511 E7.30515
G1 X79.849 Y123.692 E7.34210
G1 X79.418 Y123.318 E7.34918
G1 X77.279 Y121.240 E7.38615
G1 X76.893 Y120.819 E7.39323
G1 X75.007 Y118.512 E7.43019
G1 X74.671 Y118.050 E7.43727
G1 X73.059 Y115.542 E7.47424
G1 X72.783 Y115.052 E7.48121
G1 X71.463 Y112.370 E7.51829
G1 X71.241 Y111.844 E7.52537
G1 X70.239 Y109.036 E7.56233
G1 X70.078 Y108.487 E7.56943
G1 X69.403 Y105.585 E7.60638
G1 X69.306 Y105.022 E7.61346
G1 X68.966 Y102.061 E7.65042
G1 X68.933 Y101.488 E7.65754
G1 X68.933 Y98.509 E7.69447
G1 X68.966 Y97.939 E7.70156
G1 X69.306 Y94.978 E7.73852
G1 X69.402 Y94.424 E7.74549
G1 X70.078 Y91.512 E7.78256
G1 X70.240 Y90.961 E7.78968
G1 X71.241 Y88.156 E7.82661
G1 X71.464 Y87.628 E7.83373
G1 X72.779 Y84.955 E7.87066
G1 X73.059 Y84.458 E7.87774
G1 X74.671 Y81.950 E7.91470
G1 X75.008 Y81.486 E7.92181
G1 X76.894 Y79.181 E7.95875
G1 X77.179 Y78.869 E7.96399
G1 X77.375 Y79.049 F12000.000
G1 X79.591 Y76.883 E8.00242 F2550.000
G1 X80.024 Y76.508 E8.00952
G1 X82.359 Y74.707 E8.04609
G1 X82.831 Y74.385 E8.05318
G1 X85.358 Y72.861 E8.08976
G1 X85.863 Y72.595 E8.09684
G1 X88.547 Y71.369 E8.13343
G1 X89.079 Y71.162 E8.14051
G1 X91.885 Y70.250 E8.17710
G1 X92.438 Y70.105 E8.18419
G1 X95.329 Y69.519 E8.22077
G1 X95.897 Y69.437 E8.22788
G1 X98.834 Y69.185 E8.26444
G1 X99.409 Y69.169 E8.27158
G1 X102.354 Y69.253 E8.30811
G1 X102.923 Y69.302 E8.31519 F2550.000
G1 X105.844 Y69.722 E8.35178
G1 X106.407 Y69.836 E8.35890
G1 X109.257 Y70.585 E8.39545
G1 X109.792 Y70.759 E8.40242
G1 X112.550 Y71.832 E8.43912
G1 X113.072 Y72.071 E8.44624
G1 X115.679 Y73.447 E8.48280
G1 X116.168 Y73.742 E8.48987
G1 X118.603 Y75.407 E8.52646
G1 X119.049 Y75.750 E8.53343
G1 X121.286 Y77.688 E8.57013
G1 X121.695 Y78.086 E8.57721
G1 X123.690 Y80.260 E8.61381
G1 X124.052 Y80.703 E8.62090
G1 X125.786 Y83.089 E8.65747
G1 X126.095 Y83.569 E8.66455
G1 X127.546 Y86.138 E8.70114
G1 X127.798 Y86.651 E8.70822
G1 X128.946 Y89.369 E8.74482
G1 X129.138 Y89.907 E8.75190
G1 X129.969 Y92.738 E8.78848
G1 X130.099 Y93.294 E8.79556
G1 X130.602 Y96.202 E8.83216
G1 X130.667 Y96.769 E8.83924
G1 X130.825 Y98.976 E8.86668
G1 X130.825 Y101.024 E8.89207
G1 X130.667 Y103.231 E8.91952
G1 X130.602 Y103.798 E8.92659
G1 X130.099 Y106.706 E8.96319
G1 X129.969 Y107.262 E8.97027
G1 X129.138 Y110.093 E9.00686
G1 X128.946 Y110.633 E9.01396
G1 X127.798 Y113.349 E9.05053
G1 X127.546 Y113.862 E9.05761
G1 X126.095 Y116.431 E9.09420
G1 X125.786 Y116.912 E9.10129
G1 X124.052 Y119.298 E9.13787
G1 X123.696 Y119.733 E9.14484
G1 X121.695 Y121.914 E9.18154
G1 X121.286 Y122.312 E9.18862
G1 X119.055 Y124.245 E9.22521
G1 X118.603 Y124.593 E9.23229
G1 X116.168 Y126.258 E9.26888
G1 X115.679 Y126.553 E9.27596
G1 X113.069 Y127.930 E9.31255
G1 X112.550 Y128.168 E9.31963
G1 X109.800 Y129.238 E9.35622
G1 X109.254 Y129.415 E9.36334
G1 X106.403 Y130.165 E9.39989
G1 X105.844 Y130.278 E9.40697
G1 X102.923 Y130.698 E9.44356
G1 X102.355 Y130.747 E9.45064
G1 X99.405 Y130.831 E9.48724
G1 X98.833 Y130.815 E9.49433
G1 X95.894 Y130.562 E9.53090
G1 X95.326 Y130.480 E9.53803
G1 X92.437 Y129.895 E9.57458
G1 X91.885 Y129.750 E9.58166
G1 X89.079 Y128.838 E9.61825
G1 X88.547 Y128.631 E9.62532
G1 X85.863 Y127.405 E9.66191
G1 X85.358 Y127.139 E9.66899
G1 X82.831 Y125.615 E9.70559
G1 X82.358 Y125.292 E9.71269
G1 X80.023 Y123.491 E9.74926
G1 X79.591 Y123.117 E9.75633
G1 X77.475 Y121.060 E9.79293
G1 X77.089 Y120.639 E9.80002
G1 X75.221 Y118.356 E9.83660
G1 X74.886 Y117.894 E9.84368
G1 X73.291 Y115.411 E9.88027
G1 X73.014 Y114.922 E9.88724
G1 X71.708 Y112.266 E9.92394
G1 X71.486 Y111.740 E9.93102
G1 X70.494 Y108.961 E9.96761
G1 X70.333 Y108.412 E9.97470
G1 X69.665 Y105.540 E10.01128
G1 X69.567 Y104.977 E10.01836
G1 X69.231 Y102.045 E10.05495
G1 X69.198 Y101.473 E10.06206
G1 X69.199 Y98.525 E10.09862
G1 X69.231 Y97.954 E10.10571
G1 X69.567 Y95.023 E10.14229
G1 X69.663 Y94.469 E10.14927
G1 X70.333 Y91.587 E10.18596
G1 X70.495 Y91.036 E10.19308
G1 X71.486 Y88.260 E10.22963
G1 X71.709 Y87.731 E10.23675
G1 X73.010 Y85.086 E10.27330
G1 X73.291 Y84.589 E10.28038
G1 X74.886 Y82.106 E10.31697
G1 X75.223 Y81.643 E10.32408
G1 X77.089 Y79.360 E10.36064
G1 X77.324 Y79.104 E10.36495
G1 X77.520 Y79.284 F12000.000
G1 X79.765 Y77.084 E10.40393 F2550.000
G1 X80.198 Y76.709 E10.41104
G1 X82.509 Y74.927 E10.44723
G1 X82.981 Y74.604 E10.45432
G1 X85.482 Y73.096 E10.49053
G1 X85.987 Y72.830 E10.49760
G1 X88.643 Y71.617 E10.53382
G1 X89.175 Y71.409 E10.54090
G1 X91.952 Y70.507 E10.57711
G1 X92.505 Y70.362 E10.58420
G1 X95.367 Y69.782 E10.62041
G1 X95.934 Y69.700 E10.62752
G1 X98.842 Y69.451 E10.66370
G1 X99.417 Y69.434 E10.67083
G1 X102.332 Y69.518 E10.70700
G1 X102.901 Y69.567 E10.71408 F2550.000
G1 X105.791 Y69.982 E10.75029
G1 X106.354 Y70.096 E10.75741
G1 X109.175 Y70.838 E10.79358
G1 X109.710 Y71.012 E10.80056
G1 X112.439 Y72.074 E10.83688
G1 X112.961 Y72.312 E10.84399
G1 X115.542 Y73.674 E10.88017
G1 X116.031 Y73.969 E10.88725
G1 X118.441 Y75.617 E10.92346
G1 X118.886 Y75.961 E10.93044
G1 X121.101 Y77.878 E10.96676
G1 X121.510 Y78.276 E10.97384
G1 X123.485 Y80.428 E11.01006
G1 X123.847 Y80.871 E11.01715
G1 X125.563 Y83.233 E11.05335
G1 X125.871 Y83.713 E11.06043
G1 X127.307 Y86.256 E11.09664
G1 X127.559 Y86.768 E11.10372
G1 X128.696 Y89.458 E11.13994
G1 X128.888 Y89.996 E11.14702
G1 X129.711 Y92.798 E11.18323
G1 X129.840 Y93.354 E11.19031
G1 X130.338 Y96.232 E11.22653
G1 X130.403 Y96.799 E11.23361
G1 X130.559 Y98.984 E11.26077
G1 X130.559 Y101.016 E11.28597
G1 X130.403 Y103.201 E11.31313
G1 X130.338 Y103.768 E11.32021
G1 X129.840 Y106.646 E11.35643
G1 X129.711 Y107.202 E11.36351
G1 X128.888 Y110.004 E11.39972
G1 X128.695 Y110.544 E11.40683
G1 X127.559 Y113.232 E11.44302
G1 X127.307 Y113.744 E11.45010
G1 X125.871 Y116.287 E11.48631
G1 X125.562 Y116.768 E11.49340
G1 X123.846 Y119.130 E11.52961
G1 X123.490 Y119.565 E11.53658
G1 X121.510 Y121.724 E11.57290
G1 X121.100 Y122.122 E11.57999
G1 X118.893 Y124.034 E11.61620
G1 X118.441 Y124.383 E11.62328
G1 X116.031 Y126.031 E11.65949
G1 X115.542 Y126.326 E11.66657
G1 X112.959 Y127.689 E11.70279
G1 X112.439 Y127.926 E11.70987
G1 X109.718 Y128.985 E11.74608
G1 X109.172 Y129.163 E11.75320
G1 X106.351 Y129.904 E11.78937
G1 X105.791 Y130.018 E11.79645
G1 X102.901 Y130.433 E11.83267
G1 X102.332 Y130.482 E11.83975
G1 X99.412 Y130.566 E11.87596
G1 X98.840 Y130.549 E11.88306
G1 X95.932 Y130.299 E11.91926
G1 X95.363 Y130.218 E11.92638
G1 X92.504 Y129.638 E11.96256
G1 X91.952 Y129.493 E11.96963
G1 X89.175 Y128.591 E12.00585
G1 X88.643 Y128.383 E12.01293
G1 X85.987 Y127.170 E12.04914
G1 X85.482 Y126.904 E12.05622
G1 X82.981 Y125.396 E12.09244
G1 X82.508 Y125.072 E12.09954
G1 X80.197 Y123.290 E12.13573
G1 X79.765 Y122.916 E12.14281
G1 X77.671 Y120.881 E12.17903
G1 X77.284 Y120.460 E12.18611
G1 X75.436 Y118.200 E12.22232
G1 X75.101 Y117.738 E12.22940
G1 X73.522 Y115.281 E12.26561
G1 X73.245 Y114.791 E12.27259
G1 X71.952 Y112.163 E12.30891
G1 X71.730 Y111.637 E12.31599
G1 X70.749 Y108.886 E12.35220
G1 X70.588 Y108.337 E12.35930
G1 X69.927 Y105.494 E12.39550
G1 X69.829 Y104.932 E12.40257
G1 X69.496 Y102.030 E12.43879
G1 X69.464 Y101.458 E12.44590
G1 X69.464 Y98.540 E12.48209
G1 X69.496 Y97.969 E12.48917
G1 X69.829 Y95.068 E12.52538
G1 X69.925 Y94.514 E12.53235
G1 X70.588 Y91.661 E12.56867
G1 X70.750 Y91.111 E12.57579
G1 X71.730 Y88.363 E12.61197
G1 X71.954 Y87.834 E12.61908
G1 X73.241 Y85.216 E12.65526
G1 X73.522 Y84.719 E12.66234
G1 X75.101 Y82.262 E12.69856
G1 X75.438 Y81.799 E12.70567
G1 X77.285 Y79.540 E12.74185
G1 X77.469 Y79.339 E12.74523
G1 X77.665 Y79.519 F12000.000
G1 X77.867 Y79.298 E12.74895 F2550.000
G1 X79.939 Y77.285 E12.78477
G1 X80.372 Y76.909 E12.79187
G1 X82.659 Y75.146 E12.82769
G1 X83.131 Y74.823 E12.83478
G1 X85.606 Y73.331 E12.87061
G1 X86.111 Y73.065 E12.87769
G1 X88.739 Y71.864 E12.91353
G1 X89.271 Y71.657 E12.92060
G1 X92.020 Y70.764 E12.95644
G1 X92.573 Y70.619 E12.96353
G1 X95.405 Y70.045 E12.99936
G1 X95.972 Y69.963 E13.00647
G1 X98.849 Y69.716 E13.04228
G1 X99.424 Y69.700 E13.04941
G1 X102.309 Y69.783 E13.08520
G1 X102.878 Y69.831 E13.09228 F2550.000
G1 X105.738 Y70.243 E13.12812
G1 X106.301 Y70.357 E13.13524
G1 X109.093 Y71.091 E13.17103
G1 X109.628 Y71.264 E13.17801
G1 X112.329 Y72.316 E13.21395
G1 X112.851 Y72.554 E13.22106
G1 X115.405 Y73.902 E13.25687
G1 X115.894 Y74.196 E13.26395
G1 X118.279 Y75.828 E13.29979
G1 X118.724 Y76.171 E13.30676
G1 X120.915 Y78.069 E13.34271
G1 X121.325 Y78.467 E13.34979
G1 X123.279 Y80.596 E13.38563
G1 X123.641 Y81.039 E13.39272
G1 X125.339 Y83.376 E13.42854
G1 X125.648 Y83.856 E13.43562
G1 X127.069 Y86.373 E13.47146
G1 X127.321 Y86.885 E13.47854
G1 X128.446 Y89.548 E13.51438
G1 X128.638 Y90.085 E13.52146
G1 X129.452 Y92.858 E13.55730
G1 X129.581 Y93.414 E13.56438
G1 X130.074 Y96.262 E13.60022
G1 X130.139 Y96.829 E13.60730
G1 X130.294 Y98.992 E13.63418
G1 X130.294 Y101.009 E13.65919
G1 X130.139 Y103.171 E13.68607
G1 X130.074 Y103.738 E13.69315
G1 X129.581 Y106.586 E13.72900
G1 X129.452 Y107.142 E13.73608
G1 X128.638 Y109.915 E13.77191
G1 X128.445 Y110.454 E13.77901
G1 X127.321 Y113.115 E13.81483
G1 X127.069 Y113.627 E13.82191
G1 X125.648 Y116.144 E13.85775
G1 X125.339 Y116.624 E13.86484
G1 X123.641 Y118.962 E13.90066
G1 X123.284 Y119.398 E13.90765
G1 X121.325 Y121.533 E13.94358
G1 X120.915 Y121.931 E13.95067
G1 X118.731 Y123.824 E13.98651
G1 X118.279 Y124.172 E13.99359
G1 X115.894 Y125.804 E14.02942
G1 X115.405 Y126.098 E14.03650
G1 X112.848 Y127.447 E14.07234
G1 X112.329 Y127.684 E14.07942
G1 X109.636 Y128.733 E14.11526
G1 X109.090 Y128.910 E14.12238
G1 X106.298 Y129.644 E14.15818
G1 X105.738 Y129.757 E14.16525
G1 X102.878 Y130.169 E14.20109
G1 X102.309 Y130.217 E14.20817
G1 X99.420 Y130.300 E14.24401
