; generated by Slic3r 1.2.7-dev on 2015-03-17 at 22:22:06

; external perimeters extrusion width = 0.25mm
; perimeters extrusion width = 0.43mm
; infill extrusion width = 0.43mm
; solid infill extrusion width = 0.28mm
; top infill extrusion width = 0.28mm

M107
M190 S55 ; set bed temperature
G28 ; home all axes
G90 ; use absolute coordinates
G21 ; set units to millimeters
G92 E0 ; set extruder coordinate to zero
M82 ; use absolute distances for extrusion
M109 S190 ; wait for temperature to be reached
G1 E10 F400 ; prime the nozzle

G21 ; set units to millimeters
G90 ; use absolute coordinates
M82 ; use absolute distances for extrusion
G92 E0
G1 E-3.00000 F3900.00000
G92 E0
G1 Z0.300 F12000.000
G1 X80.410 Y81.634 F12000.000
G1 E3.10000 F3900.00000
G1 X82.201 Y79.894 E3.13096 F2550.000
G1 X82.633 Y79.519 E3.13806
G1 X84.608 Y77.996 E3.16898
G1 X85.079 Y77.674 E3.17606
G1 X87.217 Y76.385 E3.20702
G1 X87.722 Y76.118 E3.21410
G1 X89.992 Y75.082 E3.24504
G1 X90.524 Y74.875 E3.25212
G1 X92.898 Y74.104 E3.28307
G1 X93.451 Y73.958 E3.29016
G1 X95.896 Y73.463 E3.32110
G1 X96.453 Y73.383 E3.32807
G1 X98.948 Y73.168 E3.35913
G1 X99.522 Y73.151 E3.36626
G1 X102.014 Y73.223 E3.39717
G1 X102.583 Y73.272 E3.40425 F2550.000
G1 X105.052 Y73.627 E3.43519
G1 X105.615 Y73.741 E3.44230
G1 X108.027 Y74.375 E3.47323
G1 X108.569 Y74.551 E3.48030
G1 X110.895 Y75.457 E3.51125
G1 X111.414 Y75.694 E3.51833
G1 X113.621 Y76.858 E3.54927
G1 X114.102 Y77.149 E3.55624
G1 X116.170 Y78.562 E3.58730
G1 X116.623 Y78.911 E3.59439
G1 X118.509 Y80.545 E3.62534
G1 X118.920 Y80.944 E3.63244
G1 X120.605 Y82.781 E3.66336
G1 X120.967 Y83.223 E3.67044
G1 X122.435 Y85.244 E3.70141
G1 X122.744 Y85.725 E3.70849
G1 X123.970 Y87.896 E3.73942
G1 X124.222 Y88.408 E3.74650
G1 X125.193 Y90.706 E3.77743
G1 X125.385 Y91.244 E3.78451
G1 X126.089 Y93.640 E3.81548
G1 X126.218 Y94.196 E3.82256
G1 X126.644 Y96.659 E3.85355
G1 X126.709 Y97.226 E3.86063
G1 X126.842 Y99.087 E3.88376
G1 X126.842 Y100.913 E3.90641
G1 X126.709 Y102.774 E3.92955
G1 X126.644 Y103.341 E3.93663
G1 X126.218 Y105.803 E3.96761
G1 X126.089 Y106.359 E3.97469
G1 X125.385 Y108.756 E4.00567
G1 X125.193 Y109.294 E4.01275
G1 X124.222 Y111.592 E4.04368
G1 X123.970 Y112.104 E4.05076
G1 X122.743 Y114.277 E4.08170
G1 X122.434 Y114.757 E4.08878
G1 X120.968 Y116.776 E4.11973
G1 X120.606 Y117.218 E4.12680
G1 X118.917 Y119.058 E4.15779
G1 X118.507 Y119.456 E4.16487
G1 X116.625 Y121.088 E4.19576
G1 X116.172 Y121.436 E4.20284
G1 X114.110 Y122.847 E4.23383
G1 X113.620 Y123.142 E4.24093
G1 X111.412 Y124.307 E4.27187
G1 X110.893 Y124.544 E4.27895
G1 X108.569 Y125.449 E4.30988
G1 X108.026 Y125.625 E4.31696
G1 X105.613 Y126.259 E4.34790
G1 X105.054 Y126.373 E4.35497
G1 X102.584 Y126.728 E4.38591
G1 X102.015 Y126.777 E4.39299
G1 X99.519 Y126.848 E4.42397
G1 X98.956 Y126.832 E4.43094
G1 X96.459 Y126.618 E4.46202
G1 X95.893 Y126.537 E4.46911
G1 X93.451 Y126.042 E4.50001
G1 X92.899 Y125.897 E4.50709
G1 X90.525 Y125.126 E4.53804
G1 X90.001 Y124.922 E4.54502
G1 X87.719 Y123.880 E4.57612
G1 X87.214 Y123.613 E4.58321
G1 X85.081 Y122.327 E4.61410
G1 X84.608 Y122.003 E4.62120
G1 X82.633 Y120.481 E4.65212
G1 X82.202 Y120.107 E4.65920
G1 X80.410 Y118.366 E4.69018
G1 X80.024 Y117.945 E4.69726
G1 X78.444 Y116.013 E4.72821
G1 X78.109 Y115.551 E4.73529
G1 X76.760 Y113.452 E4.76623
G1 X76.482 Y112.961 E4.77322
G1 X75.378 Y110.715 E4.80427
G1 X75.155 Y110.187 E4.81137
G1 X74.317 Y107.840 E4.84228
G1 X74.156 Y107.290 E4.84938
G1 X73.591 Y104.860 E4.88032
G1 X73.495 Y104.306 E4.88729
G1 X73.209 Y101.818 E4.91835
G1 X73.176 Y101.245 E4.92546
G1 X73.176 Y98.752 E4.95638
G1 X73.209 Y98.182 E4.96346
G1 X73.493 Y95.703 E4.99440
G1 X73.589 Y95.149 E5.00138
G1 X74.156 Y92.709 E5.03244
G1 X74.317 Y92.159 E5.03954
G1 X75.156 Y89.811 E5.07046
G1 X75.379 Y89.283 E5.07757
G1 X76.479 Y87.045 E5.10849
G1 X76.760 Y86.548 E5.11557
G1 X78.109 Y84.448 E5.14653
G1 X78.446 Y83.984 E5.15363
G1 X80.024 Y82.054 E5.18455
G1 X80.360 Y81.689 E5.19070
G1 X80.555 Y81.869 F12000.000
G1 X82.375 Y80.095 E5.22220 F2550.000
G1 X82.807 Y79.720 E5.22931
G1 X84.758 Y78.216 E5.25985
G1 X85.229 Y77.893 E5.26693
G1 X87.341 Y76.620 E5.29752
G1 X87.846 Y76.353 E5.30460
G1 X90.089 Y75.329 E5.33516
G1 X90.621 Y75.122 E5.34224
G1 X92.965 Y74.360 E5.37281
G1 X93.518 Y74.215 E5.37990
G1 X95.934 Y73.726 E5.41047
G1 X96.501 Y73.644 E5.41757
G1 X98.955 Y73.433 E5.44812
G1 X99.530 Y73.417 E5.45525
G1 X101.991 Y73.488 E5.48578
G1 X102.560 Y73.536 E5.49286 F2550.000
G1 X105.000 Y73.887 E5.52343
G1 X105.562 Y74.001 E5.53054
G1 X107.944 Y74.628 E5.56109
G1 X108.487 Y74.804 E5.56817
G1 X110.785 Y75.698 E5.59874
G1 X111.304 Y75.936 E5.60582
G1 X113.484 Y77.086 E5.63638
G1 X113.965 Y77.376 E5.64335
G1 X116.008 Y78.772 E5.67404
G1 X116.461 Y79.121 E5.68113
G1 X118.324 Y80.736 E5.71170
G1 X118.734 Y81.135 E5.71879
G1 X120.400 Y82.949 E5.74934
G1 X120.761 Y83.391 E5.75642
G1 X122.212 Y85.388 E5.78702
G1 X122.520 Y85.868 E5.79410
G1 X123.732 Y88.013 E5.82465
G1 X123.984 Y88.526 E5.83173
G1 X124.943 Y90.795 E5.86228
G1 X125.135 Y91.333 E5.86936
G1 X125.830 Y93.700 E5.89996
G1 X125.959 Y94.257 E5.90704
G1 X126.380 Y96.689 E5.93765
G1 X126.445 Y97.256 E5.94473
G1 X126.577 Y99.094 E5.96758
G1 X126.577 Y100.906 E5.99005
G1 X126.445 Y102.744 E6.01290
G1 X126.380 Y103.311 E6.01998
G1 X125.959 Y105.743 E6.05058
G1 X125.830 Y106.299 E6.05766
G1 X125.135 Y108.667 E6.08827
G1 X124.943 Y109.205 E6.09535
G1 X123.983 Y111.475 E6.12590
G1 X123.732 Y111.987 E6.13298
G1 X122.520 Y114.133 E6.16355
G1 X122.211 Y114.613 E6.17063
G1 X120.762 Y116.608 E6.20119
G1 X120.401 Y117.050 E6.20827
G1 X118.732 Y118.868 E6.23888
G1 X118.322 Y119.266 E6.24596
G1 X116.462 Y120.877 E6.27648
G1 X116.010 Y121.226 E6.28356
G1 X113.973 Y122.619 E6.31417
G1 X113.482 Y122.915 E6.32127
G1 X111.302 Y124.065 E6.35184
G1 X110.783 Y124.302 E6.35892
G1 X108.487 Y125.196 E6.38947
G1 X107.944 Y125.373 E6.39655
G1 X105.560 Y125.999 E6.42711
G1 X105.001 Y126.113 E6.43419
G1 X102.561 Y126.463 E6.46475
G1 X101.993 Y126.512 E6.47183
G1 X99.526 Y126.583 E6.50243
G1 X98.964 Y126.567 E6.50940
G1 X96.497 Y126.355 E6.54011
G1 X95.931 Y126.274 E6.54720
G1 X93.519 Y125.785 E6.57772
G1 X92.967 Y125.640 E6.58480
G1 X90.621 Y124.878 E6.61538
G1 X90.097 Y124.674 E6.62235
G1 X87.843 Y123.645 E6.65307
G1 X87.338 Y123.378 E6.66017
G1 X85.230 Y122.107 E6.69068
G1 X84.758 Y121.784 E6.69778
G1 X82.807 Y120.280 E6.72833
G1 X82.376 Y119.906 E6.73541
G1 X80.606 Y118.187 E6.76600
G1 X80.220 Y117.766 E6.77309
G1 X78.659 Y115.857 E6.80366
G1 X78.324 Y115.395 E6.81074
G1 X76.991 Y113.321 E6.84131
G1 X76.714 Y112.830 E6.84830
G1 X75.622 Y110.611 E6.87897
G1 X75.399 Y110.084 E6.88607
G1 X74.572 Y107.765 E6.91660
G1 X74.411 Y107.215 E6.92370
G1 X73.852 Y104.815 E6.95427
G1 X73.757 Y104.261 E6.96124
G1 X73.474 Y101.803 E6.99192
G1 X73.441 Y101.230 E6.99903
G1 X73.442 Y98.767 E7.02957
G1 X73.474 Y98.197 E7.03666
G1 X73.755 Y95.748 E7.06722
G1 X73.851 Y95.194 E7.07419
G1 X74.411 Y92.784 E7.10488
G1 X74.572 Y92.234 E7.11198
G1 X75.400 Y89.914 E7.14253
G1 X75.623 Y89.386 E7.14964
G1 X76.710 Y87.176 E7.18018
G1 X76.991 Y86.678 E7.18726
G1 X78.324 Y84.604 E7.21784
G1 X78.661 Y84.140 E7.22495
G1 X80.220 Y82.234 E7.25549
G1 X80.505 Y81.924 E7.26070
G1 X80.700 Y82.104 F12000.000
G1 X82.548 Y80.296 E7.29277 F2550.000
G1 X82.981 Y79.921 E7.29987
G1 X84.908 Y78.435 E7.33004
G1 X85.379 Y78.113 E7.33712
G1 X87.465 Y76.855 E7.36733
G1 X87.970 Y76.588 E7.37440
G1 X90.185 Y75.577 E7.40460
G1 X90.717 Y75.370 E7.41168
G1 X93.033 Y74.617 E7.44187
G1 X93.586 Y74.472 E7.44896
G1 X95.972 Y73.989 E7.47915
G1 X96.539 Y73.907 E7.48625
G1 X98.963 Y73.699 E7.51643
G1 X99.538 Y73.683 E7.52355
G1 X101.968 Y73.752 E7.55371
G1 X102.537 Y73.801 E7.56079 F2550.000
G1 X104.947 Y74.148 E7.59098
G1 X105.509 Y74.262 E7.59810
G1 X107.862 Y74.880 E7.62827
G1 X108.405 Y75.057 E7.63534
G1 X110.674 Y75.940 E7.66554
G1 X111.193 Y76.177 E7.67262
G1 X113.347 Y77.313 E7.70281
G1 X113.828 Y77.604 E7.70978
G1 X115.846 Y78.983 E7.74008
G1 X116.299 Y79.332 E7.74718
G1 X118.139 Y80.926 E7.77737
G1 X118.549 Y81.325 E7.78447
G1 X120.194 Y83.118 E7.81464
G1 X120.556 Y83.560 E7.82171
G1 X121.988 Y85.531 E7.85194
G1 X122.297 Y86.012 E7.85902
G1 X123.493 Y88.130 E7.88919
G1 X123.745 Y88.643 E7.89627
G1 X124.693 Y90.884 E7.92645
G1 X124.885 Y91.422 E7.93353
G1 X125.571 Y93.761 E7.96375
G1 X125.701 Y94.317 E7.97083
G1 X126.116 Y96.719 E8.00107
G1 X126.181 Y97.286 E8.00815
G1 X126.311 Y99.102 E8.03072
G1 X126.311 Y100.898 E8.05299
G1 X126.181 Y102.713 E8.07556
G1 X126.116 Y103.281 E8.08264
G1 X125.701 Y105.683 E8.11287
G1 X125.571 Y106.239 E8.11995
G1 X124.885 Y108.578 E8.15018
G1 X124.693 Y109.115 E8.15726
G1 X123.745 Y111.357 E8.18744
G1 X123.493 Y111.870 E8.19452
G1 X122.296 Y113.989 E8.22471
G1 X121.988 Y114.470 E8.23179
G1 X120.556 Y116.439 E8.26198
G1 X120.195 Y116.881 E8.26906
G1 X118.547 Y118.677 E8.29929
G1 X118.137 Y119.075 E8.30637
G1 X116.300 Y120.667 E8.33651
G1 X115.848 Y121.016 E8.34359
G1 X113.836 Y122.392 E8.37382
G1 X113.345 Y122.688 E8.38092
G1 X111.192 Y123.824 E8.41112
G1 X110.672 Y124.061 E8.41820
G1 X108.405 Y124.944 E8.44837
G1 X107.862 Y125.120 E8.45545
G1 X105.508 Y125.739 E8.48564
G1 X104.948 Y125.852 E8.49272
G1 X102.539 Y126.199 E8.52290
G1 X101.970 Y126.248 E8.52998
G1 X99.534 Y126.317 E8.56020
G1 X98.972 Y126.301 E8.56718
G1 X96.535 Y126.092 E8.59750
G1 X95.969 Y126.011 E8.60460
G1 X93.586 Y125.528 E8.63474
G1 X93.034 Y125.383 E8.64182
G1 X90.718 Y124.630 E8.67202
G1 X90.194 Y124.426 E8.67900
G1 X87.967 Y123.410 E8.70934
G1 X87.462 Y123.143 E8.71644
G1 X85.380 Y121.888 E8.74658
G1 X84.908 Y121.565 E8.75368
G1 X82.981 Y120.079 E8.78385
G1 X82.549 Y119.705 E8.79093
G1 X80.802 Y118.007 E8.82115
G1 X80.415 Y117.586 E8.82823
G1 X78.874 Y115.701 E8.85842
G1 X78.539 Y115.239 E8.86550
G1 X77.222 Y113.191 E8.89570
G1 X76.946 Y112.701 E8.90267
G1 X75.867 Y110.508 E8.93298
G1 X75.644 Y109.981 E8.94008
G1 X74.827 Y107.690 E8.97024
G1 X74.665 Y107.140 E8.97734
G1 X74.114 Y104.769 E9.00753
G1 X74.018 Y104.215 E9.01450
G1 X73.739 Y101.788 E9.04480
G1 X73.707 Y101.215 E9.05191
G1 X73.707 Y98.782 E9.08208
G1 X73.739 Y98.212 E9.08917
G1 X74.017 Y95.793 E9.11936
G1 X74.113 Y95.239 E9.12633
G1 X74.666 Y92.858 E9.15664
G1 X74.827 Y92.309 E9.16374
G1 X75.645 Y90.018 E9.19391
G1 X75.868 Y89.490 E9.20102
G1 X76.942 Y87.306 E9.23119
G1 X77.222 Y86.809 E9.23827
G1 X78.539 Y84.760 E9.26847
G1 X78.876 Y84.297 E9.27558
G1 X80.416 Y82.414 E9.30574
G1 X80.650 Y82.159 E9.31003
G1 X80.845 Y82.338 F12000.000
G1 X82.722 Y80.496 E9.34264 F2550.000
G1 X83.155 Y80.121 E9.34974
G1 X85.058 Y78.654 E9.37954
G1 X85.529 Y78.332 E9.38662
G1 X87.589 Y77.090 E9.41645
G1 X88.094 Y76.823 E9.42353
G1 X90.281 Y75.824 E9.45334
G1 X90.813 Y75.617 E9.46042
G1 X93.100 Y74.874 E9.49024
G1 X93.653 Y74.729 E9.49733
G1 X96.010 Y74.251 E9.52715
G1 X96.577 Y74.170 E9.53425
G1 X98.971 Y73.964 E9.56405
G1 X99.545 Y73.948 E9.57117
G1 X101.946 Y74.017 E9.60095
G1 X102.515 Y74.066 E9.60804 F2550.000
G1 X104.894 Y74.408 E9.63785
G1 X105.457 Y74.522 E9.64496
G1 X107.780 Y75.133 E9.67476
G1 X108.323 Y75.309 E9.68184
G1 X110.564 Y76.182 E9.71165
G1 X111.083 Y76.419 E9.71873
G1 X113.209 Y77.541 E9.74854
G1 X113.691 Y77.831 E9.75552
G1 X115.684 Y79.193 E9.78545
G1 X116.137 Y79.542 E9.79254
G1 X117.954 Y81.117 E9.82236
G1 X118.364 Y81.516 E9.82945
G1 X119.989 Y83.286 E9.85925
G1 X120.350 Y83.728 E9.86633
G1 X121.765 Y85.675 E9.89617
G1 X122.073 Y86.155 E9.90325
G1 X123.255 Y88.248 E9.93305
G1 X123.507 Y88.760 E9.94013
G1 X124.443 Y90.974 E9.96993
G1 X124.634 Y91.511 E9.97701
G1 X125.313 Y93.821 E10.00686
G1 X125.442 Y94.377 E10.01394
G1 X125.852 Y96.749 E10.04380
G1 X125.917 Y97.317 E10.05088
G1 X126.046 Y99.110 E10.07317
G1 X126.046 Y100.890 E10.09525
G1 X125.917 Y102.683 E10.11754
G1 X125.852 Y103.250 E10.12462
G1 X125.442 Y105.623 E10.15447
G1 X125.313 Y106.179 E10.16155
G1 X124.634 Y108.488 E10.19140
G1 X124.443 Y109.026 E10.19848
G1 X123.507 Y111.240 E10.22829
G1 X123.255 Y111.752 E10.23537
G1 X122.073 Y113.846 E10.26518
G1 X121.764 Y114.326 E10.27226
G1 X120.351 Y116.271 E10.30208
G1 X119.989 Y116.713 E10.30916
G1 X118.362 Y118.487 E10.33901
G1 X117.952 Y118.885 E10.34609
G1 X116.138 Y120.457 E10.37586
G1 X115.686 Y120.805 E10.38294
G1 X113.698 Y122.164 E10.41279
G1 X113.208 Y122.460 E10.41989
G1 X111.081 Y123.582 E10.44971
G1 X110.562 Y123.819 E10.45679
G1 X108.323 Y124.691 E10.48659
G1 X107.780 Y124.867 E10.49367
G1 X105.455 Y125.478 E10.52348
G1 X104.895 Y125.592 E10.53056
G1 X102.516 Y125.934 E10.56037
G1 X101.947 Y125.983 E10.56745
G1 X99.541 Y126.052 E10.59729
G1 X98.979 Y126.036 E10.60426
G1 X96.573 Y125.829 E10.63422
G1 X96.007 Y125.748 E10.64131
G1 X93.654 Y125.271 E10.67108
G1 X93.102 Y125.126 E10.67816
G1 X90.814 Y124.383 E10.70798
G1 X90.290 Y124.179 E10.71496
G1 X88.091 Y123.175 E10.74493
G1 X87.586 Y122.908 E10.75202
G1 X85.530 Y121.669 E10.78178
G1 X85.058 Y121.346 E10.78888
G1 X83.155 Y119.878 E10.81868
G1 X82.723 Y119.505 E10.82576
G1 X80.997 Y117.827 E10.85560
G1 X80.611 Y117.406 E10.86269
G1 X79.089 Y115.545 E10.89251
G1 X78.754 Y115.083 E10.89958
G1 X77.454 Y113.060 E10.92940
G1 X77.177 Y112.571 E10.93637
G1 X76.112 Y110.404 E10.96631
G1 X75.889 Y109.877 E10.97341
G1 X75.082 Y107.615 E11.00319
G1 X74.920 Y107.065 E11.01029
G1 X74.376 Y104.724 E11.04010
G1 X74.280 Y104.170 E11.04708
G1 X74.004 Y101.772 E11.07700
G1 X73.972 Y101.200 E11.08411
G1 X73.972 Y98.798 E11.11391
G1 X74.004 Y98.227 E11.12099
G1 X74.279 Y95.839 E11.15080
G1 X74.374 Y95.285 E11.15778
G1 X74.921 Y92.933 E11.18771
G1 X75.082 Y92.384 E11.19481
G1 X75.890 Y90.121 E11.22460
G1 X76.113 Y89.593 E11.23171
G1 X77.173 Y87.437 E11.26151
G1 X77.454 Y86.940 E11.26859
G1 X78.754 Y84.916 E11.29841
G1 X79.091 Y84.453 E11.30552
G1 X80.611 Y82.593 E11.33531
G1 X80.795 Y82.394 E11.33867
G1 X80.990 Y82.573 F12000.000
G1 X81.193 Y82.352 E11.34239 F2550.000
G1 X82.896 Y80.697 E11.37184
G1 X83.329 Y80.322 E11.37894
G1 X85.208 Y78.873 E11.40836
G1 X85.679 Y78.551 E11.41543
G1 X87.713 Y77.325 E11.44489
G1 X88.218 Y77.058 E11.45197
G1 X90.378 Y76.072 E11.48141
G1 X90.910 Y75.865 E11.48849
G1 X93.168 Y75.131 E11.51793
G1 X93.721 Y74.986 E11.52502
G1 X96.047 Y74.514 E11.55446
G1 X96.614 Y74.433 E11.56156
G1 X98.978 Y74.230 E11.59098
G1 X99.553 Y74.214 E11.59811
G1 X101.923 Y74.281 E11.62752
G1 X102.492 Y74.330 E11.63460 F2550.000
G1 X104.841 Y74.668 E11.66403
G1 X105.404 Y74.782 E11.67115
G1 X107.698 Y75.385 E11.70057
G1 X108.241 Y75.562 E11.70765
G1 X110.454 Y76.423 E11.73709
G1 X110.973 Y76.660 E11.74417
G1 X113.072 Y77.768 E11.77360
G1 X113.554 Y78.059 E11.78058
G1 X115.521 Y79.403 E11.81013
G1 X115.974 Y79.752 E11.81722
G1 X117.769 Y81.307 E11.84666
G1 X118.179 Y81.706 E11.85376
G1 X119.783 Y83.454 E11.88318
G1 X120.144 Y83.896 E11.89026
G1 X121.541 Y85.819 E11.91973
G1 X121.850 Y86.299 E11.92681
G1 X123.017 Y88.365 E11.95623
G1 X123.268 Y88.877 E11.96331
G1 X124.192 Y91.063 E11.99274
G1 X124.384 Y91.601 E11.99982
G1 X125.054 Y93.881 E12.02929
G1 X125.183 Y94.437 E12.03636
G1 X125.588 Y96.780 E12.06585
G1 X125.653 Y97.347 E12.07292
G1 X125.780 Y99.117 E12.09494
G1 X125.780 Y100.883 E12.11683
G1 X125.653 Y102.653 E12.13884
G1 X125.588 Y103.220 E12.14592
G1 X125.183 Y105.563 E12.17539
G1 X125.054 Y106.119 E12.18247
G1 X124.384 Y108.399 E12.21195
G1 X124.192 Y108.937 E12.21903
G1 X123.268 Y111.123 E12.24846
G1 X123.016 Y111.635 E12.25554
G1 X121.849 Y113.702 E12.28497
G1 X121.541 Y114.182 E12.29205
G1 X120.145 Y116.103 E12.32149
G1 X119.784 Y116.545 E12.32857
G1 X118.177 Y118.296 E12.35805
G1 X117.767 Y118.694 E12.36513
G1 X115.976 Y120.246 E12.39452
G1 X115.524 Y120.595 E12.40160
G1 X113.561 Y121.937 E12.43108
G1 X113.071 Y122.233 E12.43818
G1 X110.971 Y123.340 E12.46762
G1 X110.452 Y123.578 E12.47470
G1 X108.241 Y124.438 E12.50413
G1 X107.698 Y124.615 E12.51120
G1 X105.402 Y125.218 E12.54064
G1 X104.843 Y125.332 E12.54772
G1 X102.493 Y125.669 E12.57715
G1 X101.924 Y125.718 E12.58423
G1 X99.549 Y125.786 E12.61370
G1 X98.987 Y125.770 E12.62067
G1 X96.611 Y125.567 E12.65025
