; generated by Slic3r 1.2.7-dev on 2015-03-17 at 18:21:43

; external perimeters extrusion width = 0.25mm
; perimeters extrusion width = 0.43mm
; infill extrusion width = 0.43mm
; solid infill extrusion width = 0.28mm
; top infill extrusion width = 0.28mm

M107
M190 S55 ; set bed temperature
G28 ; home all axes
G90 ; use absolute coordinates
G21 ; set units to millimeters
G92 E0
M82 ; use absolute distances for extrusion
M109 S190 ; wait for temperature to be reached
G1 E10 F400 ; prime the nozzle
G21 ; set units to millimeters
G90 ; use absolute coordinates
M82 ; use absolute distances for extrusion
G92 E0
G1 E-3.00000 F3900.00000
G92 E0
G1 Z0.300 F12000.000
G1 X89.551 Y90.022 F12000.000
G1 E3.10000 F3900.00000
G1 X90.325 Y89.270 E3.11338 F2550.000
G1 X90.750 Y88.902 E3.12036
G1 X91.611 Y88.237 E3.13385
G1 X92.083 Y87.915 E3.14093
G1 X93.007 Y87.358 E3.15431
G1 X93.511 Y87.091 E3.16139
G1 X94.493 Y86.643 E3.17477
G1 X95.025 Y86.436 E3.18185
G1 X96.052 Y86.102 E3.19524
G1 X96.604 Y85.957 E3.20232
G1 X97.662 Y85.743 E3.21570
G1 X98.227 Y85.662 E3.22278
G1 X99.302 Y85.569 E3.23617
G1 X99.873 Y85.553 E3.24325
G1 X100.952 Y85.584 E3.25663
G1 X101.521 Y85.633 E3.26371 F2550.000
G1 X102.589 Y85.786 E3.27709
G1 X103.140 Y85.898 E3.28407
G1 X104.192 Y86.174 E3.29756
G1 X104.736 Y86.351 E3.30465
G1 X105.741 Y86.742 E3.31802
G1 X106.252 Y86.975 E3.32499
G1 X107.215 Y87.483 E3.33848
G1 X107.704 Y87.778 E3.34557
G1 X108.595 Y88.387 E3.35895
G1 X109.047 Y88.736 E3.36603
G1 X109.862 Y89.442 E3.37941
G1 X110.272 Y89.840 E3.38649
G1 X111.002 Y90.635 E3.39987
G1 X111.363 Y91.077 E3.40695
G1 X111.997 Y91.950 E3.42034
G1 X112.306 Y92.431 E3.42742
G1 X112.837 Y93.370 E3.44080
G1 X113.089 Y93.883 E3.44789
G1 X113.509 Y94.877 E3.46127
G1 X113.701 Y95.415 E3.46834
G1 X114.005 Y96.450 E3.48173
G1 X114.134 Y97.006 E3.48881
G1 X114.318 Y98.070 E3.50219
G1 X114.383 Y98.637 E3.50927
G1 X114.441 Y99.445 E3.51931
G1 X114.441 Y100.555 E3.53309
G1 X114.383 Y101.363 E3.54313
G1 X114.318 Y101.930 E3.55021
G1 X114.134 Y102.994 E3.56359
G1 X114.005 Y103.550 E3.57067
G1 X113.701 Y104.585 E3.58405
G1 X113.509 Y105.123 E3.59113
G1 X113.089 Y106.117 E3.60452
G1 X112.837 Y106.630 E3.61160
G1 X112.306 Y107.569 E3.62498
G1 X111.997 Y108.050 E3.63207
G1 X111.363 Y108.923 E3.64545
G1 X111.002 Y109.365 E3.65253
G1 X110.272 Y110.160 E3.66591
G1 X109.862 Y110.558 E3.67299
G1 X109.047 Y111.265 E3.68637
G1 X108.595 Y111.613 E3.69345
G1 X107.704 Y112.222 E3.70684
G1 X107.215 Y112.517 E3.71392
G1 X106.260 Y113.021 E3.72730
G1 X105.741 Y113.258 E3.73438
G1 X104.735 Y113.650 E3.74776
G1 X104.191 Y113.826 E3.75485
G1 X103.148 Y114.100 E3.76823
G1 X102.589 Y114.214 E3.77531
G1 X101.521 Y114.367 E3.78869
G1 X100.952 Y114.416 E3.79577
G1 X99.873 Y114.447 E3.80915
G1 X99.311 Y114.431 E3.81613
G1 X98.227 Y114.338 E3.82962
G1 X97.661 Y114.257 E3.83671
G1 X96.604 Y114.043 E3.85008
G1 X96.052 Y113.898 E3.85716
G1 X95.025 Y113.564 E3.87054
G1 X94.492 Y113.357 E3.87764
G1 X93.511 Y112.909 E3.89101
G1 X93.007 Y112.642 E3.89809
G1 X92.082 Y112.085 E3.91147
G1 X91.611 Y111.763 E3.91855
G1 X90.756 Y111.104 E3.93194
G1 X90.325 Y110.730 E3.93902
G1 X89.551 Y109.978 E3.95240
G1 X89.165 Y109.557 E3.95948
G1 X88.482 Y108.721 E3.97286
G1 X88.146 Y108.259 E3.97994
G1 X87.563 Y107.352 E3.99333
G1 X87.282 Y106.854 E4.00041
G1 X86.806 Y105.886 E4.01379
G1 X86.583 Y105.360 E4.02088
G1 X86.221 Y104.343 E4.03425
G1 X86.060 Y103.796 E4.04133
G1 X85.815 Y102.744 E4.05472
G1 X85.719 Y102.190 E4.06169
G1 X85.595 Y101.110 E4.07518
G1 X85.562 Y100.538 E4.08229
G1 X85.562 Y99.460 E4.09564
G1 X85.595 Y98.890 E4.10272
G1 X85.718 Y97.818 E4.11611
G1 X85.815 Y97.256 E4.12319
G1 X86.060 Y96.204 E4.13657
G1 X86.221 Y95.656 E4.14365
G1 X86.583 Y94.640 E4.15703
G1 X86.806 Y94.113 E4.16413
G1 X87.282 Y93.146 E4.17750
G1 X87.558 Y92.656 E4.18447
G1 X88.146 Y91.740 E4.19796
G1 X88.482 Y91.278 E4.20504
G1 X89.165 Y90.443 E4.21843
G1 X89.500 Y90.078 E4.22457
G1 X89.696 Y90.257 F12000.000
G1 X90.499 Y89.471 E4.23851 F2550.000
G1 X90.931 Y89.097 E4.24560
G1 X91.761 Y88.457 E4.25860
G1 X92.233 Y88.134 E4.26569
G1 X93.131 Y87.593 E4.27869
G1 X93.635 Y87.326 E4.28577
G1 X94.590 Y86.890 E4.29877
G1 X95.122 Y86.683 E4.30585
G1 X96.119 Y86.359 E4.31886
G1 X96.672 Y86.214 E4.32594
G1 X97.700 Y86.006 E4.33895
G1 X98.265 Y85.924 E4.34603
G1 X99.310 Y85.835 E4.35904
G1 X99.880 Y85.818 E4.36612
G1 X100.929 Y85.848 E4.37912
G1 X101.498 Y85.897 E4.38620 F2550.000
G1 X102.536 Y86.046 E4.39921
G1 X103.088 Y86.158 E4.40620
G1 X104.110 Y86.426 E4.41930
G1 X104.654 Y86.603 E4.42639
G1 X105.631 Y86.983 E4.43939
G1 X106.142 Y87.217 E4.44636
G1 X107.078 Y87.710 E4.45947
G1 X107.567 Y88.005 E4.46656
G1 X108.432 Y88.597 E4.47956
G1 X108.885 Y88.946 E4.48664
G1 X109.677 Y89.633 E4.49965
G1 X110.087 Y90.031 E4.50673
G1 X110.796 Y90.803 E4.51974
G1 X111.157 Y91.245 E4.52682
G1 X111.774 Y92.094 E4.53982
G1 X112.083 Y92.574 E4.54690
G1 X112.599 Y93.488 E4.55991
G1 X112.851 Y94.000 E4.56700
G1 X113.259 Y94.966 E4.58000
G1 X113.451 Y95.504 E4.58708
G1 X113.746 Y96.510 E4.60009
G1 X113.875 Y97.066 E4.60717
G1 X114.054 Y98.100 E4.62017
G1 X114.119 Y98.667 E4.62725
G1 X114.176 Y99.452 E4.63701
G1 X114.176 Y100.548 E4.65060
G1 X114.119 Y101.333 E4.66036
G1 X114.054 Y101.900 E4.66744
G1 X113.875 Y102.934 E4.68044
G1 X113.746 Y103.490 E4.68752
G1 X113.451 Y104.496 E4.70053
G1 X113.259 Y105.034 E4.70761
G1 X112.850 Y106.000 E4.72062
G1 X112.599 Y106.512 E4.72770
G1 X112.083 Y107.426 E4.74071
G1 X111.774 Y107.907 E4.74779
G1 X111.157 Y108.755 E4.76079
G1 X110.796 Y109.197 E4.76788
G1 X110.087 Y109.969 E4.78088
G1 X109.677 Y110.367 E4.78796
G1 X108.885 Y111.054 E4.80097
G1 X108.432 Y111.403 E4.80805
G1 X107.567 Y111.995 E4.82106
G1 X107.078 Y112.290 E4.82814
G1 X106.150 Y112.779 E4.84114
G1 X105.631 Y113.016 E4.84822
G1 X104.653 Y113.397 E4.86123
G1 X104.109 Y113.574 E4.86832
G1 X103.096 Y113.840 E4.88132
G1 X102.536 Y113.954 E4.88840
G1 X101.498 Y114.103 E4.90141
G1 X100.929 Y114.152 E4.90849
G1 X99.880 Y114.182 E4.92149
G1 X99.309 Y114.165 E4.92858
G1 X98.265 Y114.076 E4.94158
G1 X97.698 Y113.994 E4.94867
G1 X96.671 Y113.786 E4.96167
G1 X96.119 Y113.641 E4.96875
G1 X95.122 Y113.317 E4.98176
G1 X94.589 Y113.109 E4.98885
G1 X93.635 Y112.674 E5.00184
G1 X93.130 Y112.407 E5.00892
G1 X92.232 Y111.866 E5.02193
G1 X91.761 Y111.543 E5.02901
G1 X90.930 Y110.903 E5.04202
G1 X90.499 Y110.529 E5.04910
G1 X89.747 Y109.798 E5.06211
G1 X89.361 Y109.377 E5.06919
G1 X88.696 Y108.565 E5.08219
G1 X88.361 Y108.103 E5.08928
G1 X87.794 Y107.221 E5.10228
G1 X87.513 Y106.724 E5.10936
G1 X87.050 Y105.782 E5.12237
G1 X86.828 Y105.256 E5.12945
G1 X86.475 Y104.269 E5.14246
G1 X86.315 Y103.721 E5.14954
G1 X86.077 Y102.699 E5.16254
G1 X85.981 Y102.145 E5.16952
G1 X85.860 Y101.094 E5.18263
G1 X85.827 Y100.522 E5.18974
G1 X85.828 Y99.476 E5.20272
G1 X85.860 Y98.906 E5.20980
G1 X85.980 Y97.863 E5.22281
G1 X86.077 Y97.301 E5.22989
G1 X86.315 Y96.279 E5.24289
G1 X86.476 Y95.731 E5.24998
G1 X86.828 Y94.743 E5.26298
G1 X87.051 Y94.216 E5.27008
G1 X87.513 Y93.276 E5.28307
G1 X87.790 Y92.787 E5.29004
G1 X88.361 Y91.897 E5.30316
G1 X88.697 Y91.435 E5.31024
G1 X89.361 Y90.623 E5.32324
G1 X89.645 Y90.313 E5.32846
G1 X89.841 Y90.492 F12000.000
G1 X90.673 Y89.672 E5.34295 F2550.000
G1 X91.105 Y89.297 E5.35004
G1 X91.911 Y88.676 E5.36266
G1 X92.383 Y88.353 E5.36975
G1 X93.254 Y87.828 E5.38238
G1 X93.759 Y87.561 E5.38946
G1 X94.686 Y87.138 E5.40209
G1 X95.218 Y86.931 E5.40917
G1 X96.187 Y86.616 E5.42180
G1 X96.739 Y86.471 E5.42888
G1 X97.737 Y86.269 E5.44151
G1 X98.302 Y86.187 E5.44859
G1 X99.317 Y86.100 E5.46122
G1 X99.888 Y86.084 E5.46830
G1 X100.906 Y86.113 E5.48093
G1 X101.475 Y86.162 E5.48801 F2550.000
G1 X102.483 Y86.307 E5.50064
G1 X103.034 Y86.418 E5.50762
G1 X104.028 Y86.679 E5.52036
G1 X104.572 Y86.856 E5.52745
G1 X105.520 Y87.225 E5.54007
G1 X106.032 Y87.459 E5.54704
G1 X106.941 Y87.938 E5.55978
G1 X107.430 Y88.233 E5.56686
G1 X108.270 Y88.807 E5.57949
G1 X108.723 Y89.156 E5.58657
G1 X109.492 Y89.823 E5.59920
G1 X109.902 Y90.221 E5.60628
G1 X110.590 Y90.972 E5.61891
G1 X110.952 Y91.413 E5.62599
G1 X111.551 Y92.238 E5.63862
G1 X111.859 Y92.718 E5.64570
G1 X112.360 Y93.605 E5.65834
G1 X112.608 Y94.110 E5.66531
G1 X113.009 Y95.055 E5.67805
G1 X113.200 Y95.593 E5.68513
G1 X113.487 Y96.571 E5.69776
G1 X113.617 Y97.127 E5.70484
G1 X113.790 Y98.130 E5.71747
G1 X113.856 Y98.698 E5.72455
G1 X113.910 Y99.460 E5.73403
G1 X113.910 Y100.540 E5.74742
G1 X113.856 Y101.302 E5.75690
G1 X113.790 Y101.870 E5.76398
G1 X113.617 Y102.873 E5.77661
G1 X113.487 Y103.429 E5.78369
G1 X113.200 Y104.407 E5.79632
G1 X113.009 Y104.945 E5.80340
G1 X112.612 Y105.883 E5.81603
G1 X112.360 Y106.395 E5.82311
G1 X111.859 Y107.282 E5.83575
G1 X111.550 Y107.763 E5.84283
G1 X110.952 Y108.587 E5.85546
G1 X110.590 Y109.029 E5.86254
G1 X109.902 Y109.779 E5.87517
G1 X109.492 Y110.177 E5.88225
G1 X108.722 Y110.844 E5.89488
G1 X108.270 Y111.193 E5.90196
G1 X107.429 Y111.768 E5.91459
G1 X106.941 Y112.062 E5.92167
G1 X106.040 Y112.538 E5.93430
G1 X105.520 Y112.775 E5.94138
G1 X104.571 Y113.144 E5.95401
G1 X104.027 Y113.321 E5.96110
G1 X103.043 Y113.580 E5.97373
G1 X102.483 Y113.693 E5.98081
G1 X101.475 Y113.838 E5.99344
G1 X100.906 Y113.887 E6.00052
G1 X99.888 Y113.916 E6.01315
G1 X99.317 Y113.900 E6.02023
G1 X98.302 Y113.813 E6.03286
G1 X97.736 Y113.731 E6.03995
G1 X96.739 Y113.529 E6.05257
G1 X96.187 Y113.384 E6.05965
G1 X95.218 Y113.069 E6.07228
G1 X94.685 Y112.862 E6.07938
G1 X93.759 Y112.439 E6.09199
G1 X93.254 Y112.172 E6.09907
G1 X92.382 Y111.646 E6.11171
G1 X91.911 Y111.324 E6.11879
G1 X91.104 Y110.702 E6.13142
G1 X90.673 Y110.328 E6.13850
G1 X89.942 Y109.618 E6.15113
G1 X89.556 Y109.198 E6.15821
G1 X88.911 Y108.409 E6.17084
G1 X88.576 Y107.947 E6.17792
G1 X88.025 Y107.090 E6.19055
G1 X87.744 Y106.593 E6.19763
G1 X87.295 Y105.679 E6.21026
G1 X87.072 Y105.153 E6.21735
G1 X86.730 Y104.194 E6.22997
G1 X86.569 Y103.646 E6.23706
G1 X86.339 Y102.654 E6.24969
G1 X86.243 Y102.100 E6.25666
G1 X86.125 Y101.079 E6.26940
G1 X86.093 Y100.507 E6.27650
G1 X86.093 Y99.491 E6.28911
G1 X86.125 Y98.921 E6.29619
G1 X86.241 Y97.909 E6.30882
G1 X86.339 Y97.346 E6.31590
G1 X86.570 Y96.354 E6.32853
G1 X86.730 Y95.806 E6.33561
G1 X87.073 Y94.847 E6.34824
G1 X87.295 Y94.320 E6.35534
G1 X87.744 Y93.407 E6.36795
G1 X88.021 Y92.916 E6.37494
G1 X88.576 Y92.053 E6.38767
G1 X88.912 Y91.591 E6.39475
G1 X89.556 Y90.802 E6.40738
G1 X89.790 Y90.547 E6.41167
G1 X89.986 Y90.727 F12000.000
G1 X90.847 Y89.872 E6.42671 F2550.000
G1 X91.279 Y89.498 E6.43380
G1 X92.061 Y88.895 E6.44604
G1 X92.533 Y88.572 E6.45313
G1 X93.378 Y88.062 E6.46538
G1 X93.883 Y87.796 E6.47246
G1 X94.782 Y87.385 E6.48472
G1 X95.314 Y87.178 E6.49179
G1 X96.254 Y86.873 E6.50405
G1 X96.807 Y86.728 E6.51113
G1 X97.775 Y86.531 E6.52339
G1 X98.340 Y86.450 E6.53047
G1 X99.325 Y86.366 E6.54272
G1 X99.896 Y86.349 E6.54980
G1 X100.884 Y86.378 E6.56206
G1 X101.452 Y86.426 E6.56914 F2550.000
G1 X102.431 Y86.567 E6.58139
G1 X102.982 Y86.679 E6.58836
G1 X103.946 Y86.932 E6.60073
G1 X104.490 Y87.108 E6.60782
G1 X105.410 Y87.467 E6.62006
G1 X105.921 Y87.700 E6.62704
G1 X106.803 Y88.165 E6.63940
G1 X107.293 Y88.460 E6.64648
G1 X108.108 Y89.018 E6.65873
G1 X108.560 Y89.367 E6.66582
G1 X109.307 Y90.014 E6.67807
G1 X109.717 Y90.411 E6.68515
G1 X110.385 Y91.140 E6.69740
G1 X110.746 Y91.582 E6.70448
G1 X111.327 Y92.381 E6.71674
G1 X111.636 Y92.861 E6.72382
G1 X112.122 Y93.722 E6.73607
G1 X112.374 Y94.235 E6.74316
G1 X112.758 Y95.145 E6.75541
G1 X112.950 Y95.682 E6.76249
G1 X113.229 Y96.631 E6.77475
G1 X113.358 Y97.187 E6.78182
G1 X113.527 Y98.161 E6.79408
G1 X113.592 Y98.728 E6.80116
G1 X113.645 Y99.467 E6.81035
G1 X113.645 Y100.533 E6.82356
G1 X113.592 Y101.272 E6.83276
G1 X113.527 Y101.839 E6.83984
G1 X113.358 Y102.813 E6.85209
G1 X113.229 Y103.369 E6.85917
G1 X112.950 Y104.318 E6.87143
G1 X112.758 Y104.855 E6.87851
G1 X112.374 Y105.766 E6.89076
G1 X112.122 Y106.278 E6.89784
G1 X111.636 Y107.139 E6.91010
G1 X111.327 Y107.619 E6.91719
G1 X110.746 Y108.418 E6.92943
G1 X110.385 Y108.861 E6.93652
G1 X109.717 Y109.588 E6.94877
G1 X109.307 Y109.986 E6.95585
G1 X108.560 Y110.634 E6.96811
G1 X108.108 Y110.982 E6.97519
G1 X107.292 Y111.540 E6.98744
G1 X106.803 Y111.835 E6.99452
G1 X105.929 Y112.296 E7.00678
G1 X105.410 Y112.533 E7.01386
G1 X104.489 Y112.892 E7.02611
G1 X103.945 Y113.069 E7.03320
G1 X102.990 Y113.320 E7.04545
G1 X102.431 Y113.433 E7.05253
G1 X101.452 Y113.574 E7.06478
G1 X100.884 Y113.622 E7.07186
G1 X99.896 Y113.651 E7.08412
G1 X99.324 Y113.634 E7.09120
G1 X98.340 Y113.550 E7.10345
G1 X97.774 Y113.468 E7.11055
G1 X96.806 Y113.272 E7.12279
G1 X96.254 Y113.127 E7.12987
G1 X95.314 Y112.822 E7.14212
G1 X94.781 Y112.614 E7.14922
G1 X93.883 Y112.204 E7.16146
G1 X93.378 Y111.938 E7.16854
G1 X92.532 Y111.427 E7.18079
G1 X92.061 Y111.105 E7.18787
G1 X91.278 Y110.501 E7.20013
G1 X90.847 Y110.128 E7.20721
G1 X90.138 Y109.439 E7.21947
G1 X89.752 Y109.018 E7.22654
G1 X89.126 Y108.253 E7.23880
G1 X88.791 Y107.791 E7.24588
G1 X88.256 Y106.960 E7.25814
G1 X87.976 Y106.463 E7.26522
G1 X87.540 Y105.576 E7.27747
G1 X87.317 Y105.049 E7.28456
G1 X86.985 Y104.119 E7.29681
G1 X86.824 Y103.571 E7.30389
G1 X86.601 Y102.609 E7.31614
G1 X86.505 Y102.054 E7.32312
G1 X86.391 Y101.064 E7.33548
G1 X86.358 Y100.492 E7.34258
G1 X86.358 Y99.506 E7.35481
G1 X86.391 Y98.936 E7.36189
G1 X86.503 Y97.954 E7.37415
G1 X86.601 Y97.391 E7.38123
G1 X86.824 Y96.429 E7.39348
G1 X86.985 Y95.881 E7.40057
G1 X87.317 Y94.950 E7.41282
G1 X87.540 Y94.423 E7.41992
G1 X87.976 Y93.537 E7.43215
G1 X88.252 Y93.048 E7.43913
G1 X88.791 Y92.209 E7.45149
G1 X89.126 Y91.747 E7.45857
G1 X89.935 Y90.782 E7.47418
G1 X90.131 Y90.962 F12000.000
G1 X90.334 Y90.741 E7.47790 F2550.000
G1 X91.021 Y90.073 E7.48978
G1 X91.453 Y89.699 E7.49687
G1 X92.211 Y89.114 E7.50874
G1 X92.682 Y88.792 E7.51582
G1 X93.502 Y88.297 E7.52770
G1 X94.007 Y88.031 E7.53478
G1 X94.879 Y87.633 E7.54666
G1 X95.411 Y87.426 E7.55374
G1 X96.322 Y87.130 E7.56562
G1 X96.874 Y86.985 E7.57270
G1 X97.813 Y86.794 E7.58458
G1 X98.378 Y86.713 E7.59166
G1 X99.333 Y86.631 E7.60354
G1 X99.903 Y86.615 E7.61061
G1 X100.861 Y86.642 E7.62249
G1 X101.430 Y86.691 E7.62957 F2550.000
G1 X102.378 Y86.827 E7.64145
G1 X102.929 Y86.939 E7.64843
G1 X103.864 Y87.184 E7.66041
G1 X104.408 Y87.361 E7.66750
G1 X105.300 Y87.708 E7.67937
G1 X105.811 Y87.942 E7.68635
G1 X106.666 Y88.393 E7.69833
G1 X107.155 Y88.688 E7.70542
G1 X107.946 Y89.228 E7.71729
G1 X108.398 Y89.577 E7.72437
G1 X109.122 Y90.204 E7.73625
G1 X109.531 Y90.602 E7.74333
G1 X110.179 Y91.308 E7.75521
G1 X110.541 Y91.750 E7.76229
G1 X111.104 Y92.525 E7.77417
G1 X111.412 Y93.005 E7.78125
G1 X111.883 Y93.839 E7.79313
G1 X112.135 Y94.352 E7.80021
G1 X112.508 Y95.234 E7.81209
G1 X112.700 Y95.772 E7.81917
G1 X112.970 Y96.691 E7.83105
G1 X113.099 Y97.247 E7.83813
G1 X113.263 Y98.191 E7.85001
G1 X113.328 Y98.758 E7.85708
G1 X113.379 Y99.475 E7.86600
G1 X113.379 Y100.525 E7.87902
G1 X113.328 Y101.242 E7.88793
G1 X113.263 Y101.809 E7.89501
G1 X113.099 Y102.753 E7.90689
G1 X112.970 Y103.309 E7.91397
G1 X112.700 Y104.228 E7.92585
G1 X112.508 Y104.766 E7.93293
G1 X112.135 Y105.648 E7.94481
G1 X111.883 Y106.161 E7.95189
G1 X111.412 Y106.995 E7.96377
G1 X111.103 Y107.476 E7.97085
G1 X110.541 Y108.250 E7.98273
G1 X110.179 Y108.692 E7.98981
G1 X109.531 Y109.398 E8.00169
G1 X109.122 Y109.796 E8.00877
G1 X108.398 Y110.423 E8.02065
G1 X107.946 Y110.772 E8.02773
G1 X107.155 Y111.313 E8.03960
G1 X106.666 Y111.607 E8.04668
G1 X105.819 Y112.054 E8.05856
G1 X105.300 Y112.292 E8.06564
G1 X104.407 Y112.639 E8.07752
G1 X103.863 Y112.816 E8.08461
G1 X102.937 Y113.059 E8.09648
G1 X102.378 Y113.173 E8.10356
G1 X101.430 Y113.309 E8.11544
G1 X100.861 Y113.358 E8.12252
G1 X99.903 Y113.385 E8.13440
G1 X99.332 Y113.369 E8.14149
G1 X98.378 Y113.287 E8.15336
G1 X97.812 Y113.205 E8.16045
G1 X96.874 Y113.015 E8.17232
G1 X96.322 Y112.870 E8.17940
G1 X95.411 Y112.574 E8.19128
G1 X94.878 Y112.367 E8.19837
G1 X94.007 Y111.969 E8.21024
G1 X93.502 Y111.703 E8.21732
