; generated by Slic3r 1.2.7-dev on 2015-03-18 at 17:44:57

; external perimeters extrusion width = 0.25mm
; perimeters extrusion width = 0.43mm
; infill extrusion width = 0.43mm
; solid infill extrusion width = 0.28mm
; top infill extrusion width = 0.28mm

M107
M190 S60 ; set bed temperature
G28 ; home all axes
G90 ; use absolute coordinates
G21 ; set units to millimeters
G92 E0 ; set extruder coordinate to zero
M82 ; use absolute distances for extrusion
M109 S190 ; wait for temperature to be reached
G1 E10 F400 ; prime the nozzle

G21 ; set units to millimeters
G90 ; use absolute coordinates
M82 ; use absolute distances for extrusion
G92 E0
G1 E-3.00000 F3900.00000
G92 E0
G1 Z0.300 F12000.000
G1 X80.997 Y82.173 F12000.000
G1 E3.10000 F3900.00000
G1 X82.722 Y80.496 E3.12983 F2550.000
G1 X83.155 Y80.121 E3.13693
G1 X85.058 Y78.654 E3.16672
G1 X85.529 Y78.332 E3.17380
G1 X87.589 Y77.090 E3.20364
G1 X88.094 Y76.823 E3.21071
G1 X90.281 Y75.824 E3.24053
G1 X90.813 Y75.617 E3.24761
G1 X93.100 Y74.874 E3.27743
G1 X93.653 Y74.729 E3.28452
G1 X96.010 Y74.251 E3.31433
G1 X96.566 Y74.171 E3.32131
G1 X98.971 Y73.964 E3.35123
G1 X99.545 Y73.948 E3.35836
G1 X101.946 Y74.017 E3.38814
G1 X102.515 Y74.066 E3.39522 F2550.000
G1 X104.894 Y74.408 E3.42503
G1 X105.457 Y74.522 E3.43215
G1 X107.780 Y75.133 E3.46194
G1 X108.323 Y75.309 E3.46902
G1 X110.564 Y76.182 E3.49884
G1 X111.083 Y76.419 E3.50592
G1 X113.209 Y77.541 E3.53573
G1 X113.691 Y77.831 E3.54270
G1 X115.684 Y79.193 E3.57263
G1 X116.137 Y79.542 E3.57973
G1 X117.954 Y81.117 E3.60954
G1 X118.364 Y81.516 E3.61664
G1 X119.989 Y83.286 E3.64643
G1 X120.350 Y83.728 E3.65351
G1 X121.765 Y85.675 E3.68336
G1 X122.073 Y86.155 E3.69044
G1 X123.255 Y88.248 E3.72024
G1 X123.507 Y88.760 E3.72732
G1 X124.443 Y90.974 E3.75712
G1 X124.634 Y91.511 E3.76420
G1 X125.313 Y93.821 E3.79405
G1 X125.442 Y94.377 E3.80112
G1 X125.852 Y96.749 E3.83098
G1 X125.917 Y97.317 E3.83806
G1 X126.046 Y99.110 E3.86035
G1 X126.046 Y100.890 E3.88244
G1 X125.917 Y102.683 E3.90472
G1 X125.852 Y103.250 E3.91180
G1 X125.442 Y105.623 E3.94166
G1 X125.313 Y106.179 E3.94874
G1 X124.634 Y108.488 E3.97859
G1 X124.443 Y109.026 E3.98567
G1 X123.507 Y111.240 E4.01548
G1 X123.255 Y111.752 E4.02256
G1 X122.073 Y113.846 E4.05237
G1 X121.764 Y114.326 E4.05945
G1 X120.351 Y116.271 E4.08926
G1 X119.989 Y116.713 E4.09634
G1 X118.362 Y118.487 E4.12619
G1 X117.952 Y118.885 E4.13327
G1 X116.138 Y120.457 E4.16304
G1 X115.686 Y120.805 E4.17012
G1 X113.698 Y122.164 E4.19998
G1 X113.208 Y122.460 E4.20708
G1 X111.081 Y123.582 E4.23690
G1 X110.562 Y123.819 E4.24398
G1 X108.323 Y124.691 E4.27377
G1 X107.780 Y124.867 E4.28085
G1 X105.455 Y125.478 E4.31066
G1 X104.895 Y125.592 E4.31774
G1 X102.516 Y125.934 E4.34755
G1 X101.947 Y125.983 E4.35463
G1 X99.541 Y126.052 E4.38448
G1 X98.979 Y126.036 E4.39145
G1 X96.573 Y125.829 E4.42140
G1 X96.007 Y125.748 E4.42849
G1 X93.654 Y125.271 E4.45826
G1 X93.102 Y125.126 E4.46534
G1 X90.814 Y124.383 E4.49517
G1 X90.290 Y124.179 E4.50214
G1 X88.091 Y123.175 E4.53211
G1 X87.586 Y122.908 E4.53921
G1 X85.530 Y121.669 E4.56897
G1 X85.058 Y121.346 E4.57607
G1 X83.155 Y119.878 E4.60587
G1 X82.723 Y119.505 E4.61294
G1 X80.997 Y117.827 E4.64279
G1 X80.611 Y117.406 E4.64987
G1 X79.089 Y115.545 E4.67969
G1 X78.754 Y115.083 E4.68677
G1 X77.454 Y113.060 E4.71659
G1 X77.177 Y112.571 E4.72356
G1 X76.112 Y110.404 E4.75350
G1 X75.889 Y109.877 E4.76059
G1 X75.082 Y107.615 E4.79038
G1 X74.920 Y107.065 E4.79748
G1 X74.376 Y104.724 E4.82729
G1 X74.280 Y104.170 E4.83426
G1 X74.004 Y101.772 E4.86419
G1 X73.972 Y101.200 E4.87130
G1 X73.972 Y98.798 E4.90109
G1 X74.004 Y98.227 E4.90818
G1 X74.279 Y95.839 E4.93799
G1 X74.374 Y95.285 E4.94496
G1 X74.921 Y92.933 E4.97490
G1 X75.082 Y92.384 E4.98200
G1 X75.890 Y90.121 E5.01179
G1 X76.113 Y89.593 E5.01890
G1 X77.173 Y87.437 E5.04870
G1 X77.454 Y86.940 E5.05577
G1 X78.754 Y84.916 E5.08560
G1 X79.091 Y84.453 E5.09271
G1 X80.611 Y82.593 E5.12249
G1 X80.947 Y82.228 E5.12864
G1 X81.142 Y82.408 F12000.000
G1 X82.896 Y80.697 E5.15902 F2550.000
G1 X83.329 Y80.322 E5.16612
G1 X85.208 Y78.873 E5.19554
G1 X85.679 Y78.551 E5.20262
G1 X87.713 Y77.325 E5.23208
G1 X88.218 Y77.058 E5.23916
G1 X90.378 Y76.072 E5.26860
G1 X90.910 Y75.865 E5.27567
G1 X93.168 Y75.131 E5.30512
G1 X93.721 Y74.986 E5.31221
G1 X96.047 Y74.514 E5.34165
G1 X96.614 Y74.433 E5.34875
G1 X98.978 Y74.230 E5.37817
G1 X99.553 Y74.214 E5.38529
G1 X101.923 Y74.281 E5.41470
G1 X102.492 Y74.330 E5.42178 F2550.000
G1 X104.841 Y74.668 E5.45122
G1 X105.404 Y74.782 E5.45833
G1 X107.698 Y75.385 E5.48775
G1 X108.241 Y75.562 E5.49483
G1 X110.454 Y76.423 E5.52427
G1 X110.973 Y76.660 E5.53135
G1 X113.072 Y77.768 E5.56079
G1 X113.554 Y78.059 E5.56776
G1 X115.521 Y79.403 E5.59731
G1 X115.974 Y79.752 E5.60441
G1 X117.769 Y81.307 E5.63385
G1 X118.179 Y81.706 E5.64094
G1 X119.783 Y83.454 E5.67036
G1 X120.144 Y83.896 E5.67744
G1 X121.541 Y85.819 E5.70691
G1 X121.850 Y86.299 E5.71399
G1 X123.017 Y88.365 E5.74341
G1 X123.268 Y88.877 E5.75049
G1 X124.192 Y91.063 E5.77992
G1 X124.384 Y91.601 E5.78700
G1 X125.054 Y93.881 E5.81647
G1 X125.183 Y94.437 E5.82355
G1 X125.588 Y96.780 E5.85303
G1 X125.653 Y97.347 E5.86011
G1 X125.780 Y99.117 E5.88212
G1 X125.780 Y100.883 E5.90401
G1 X125.653 Y102.653 E5.92602
G1 X125.588 Y103.220 E5.93310
G1 X125.183 Y105.563 E5.96258
G1 X125.054 Y106.119 E5.96966
G1 X124.384 Y108.399 E5.99913
G1 X124.192 Y108.937 E6.00621
G1 X123.268 Y111.123 E6.03564
G1 X123.016 Y111.635 E6.04272
G1 X121.849 Y113.702 E6.07216
G1 X121.541 Y114.182 E6.07924
G1 X120.145 Y116.103 E6.10868
G1 X119.784 Y116.545 E6.11576
G1 X118.177 Y118.296 E6.14523
G1 X117.767 Y118.694 E6.15231
G1 X115.976 Y120.246 E6.18171
G1 X115.524 Y120.595 E6.18879
G1 X113.561 Y121.937 E6.21827
G1 X113.071 Y122.233 E6.22536
G1 X110.971 Y123.340 E6.25481
G1 X110.452 Y123.578 E6.26189
G1 X108.241 Y124.438 E6.29131
G1 X107.698 Y124.615 E6.29839
G1 X105.402 Y125.218 E6.32782
G1 X104.843 Y125.332 E6.33490
G1 X102.493 Y125.669 E6.36434
G1 X101.924 Y125.718 E6.37142
G1 X99.549 Y125.786 E6.40088
G1 X98.987 Y125.770 E6.40786
G1 X96.611 Y125.567 E6.43743
G1 X96.045 Y125.485 E6.44452
G1 X93.721 Y125.014 E6.47392
G1 X93.169 Y124.869 E6.48100
G1 X90.910 Y124.135 E6.51045
G1 X90.386 Y123.931 E6.51742
G1 X88.215 Y122.940 E6.54702
G1 X87.710 Y122.673 E6.55411
G1 X85.680 Y121.449 E6.58350
G1 X85.208 Y121.126 E6.59060
G1 X83.329 Y119.678 E6.62002
G1 X82.897 Y119.304 E6.62709
G1 X81.193 Y117.648 E6.65656
G1 X80.807 Y117.227 E6.66365
G1 X79.304 Y115.389 E6.69309
G1 X78.968 Y114.927 E6.70017
G1 X77.685 Y112.930 E6.72961
G1 X77.408 Y112.440 E6.73658
G1 X76.356 Y110.301 E6.76614
G1 X76.134 Y109.774 E6.77324
G1 X75.337 Y107.540 E6.80265
G1 X75.175 Y106.991 E6.80975
G1 X74.638 Y104.679 E6.83918
G1 X74.542 Y104.125 E6.84616
G1 X74.270 Y101.757 E6.87571
G1 X74.237 Y101.185 E6.88282
G1 X74.237 Y98.813 E6.91223
G1 X74.270 Y98.242 E6.91932
G1 X74.540 Y95.884 E6.94875
G1 X74.636 Y95.330 E6.95573
G1 X75.176 Y93.008 E6.98528
G1 X75.337 Y92.459 E6.99239
G1 X76.134 Y90.224 E7.02180
G1 X76.357 Y89.696 E7.02891
G1 X77.404 Y87.567 E7.05833
G1 X77.685 Y87.070 E7.06541
G1 X78.969 Y85.072 E7.09486
G1 X79.306 Y84.609 E7.10197
G1 X80.807 Y82.773 E7.13138
G1 X81.092 Y82.463 E7.13660
G1 X81.287 Y82.642 F12000.000
G1 X83.070 Y80.898 E7.16753 F2550.000
G1 X83.503 Y80.523 E7.17463
G1 X85.358 Y79.093 E7.20367
G1 X85.829 Y78.770 E7.21075
G1 X87.837 Y77.559 E7.23983
G1 X88.342 Y77.293 E7.24691
G1 X90.474 Y76.319 E7.27597
G1 X91.006 Y76.112 E7.28305
G1 X93.235 Y75.388 E7.31212
G1 X93.788 Y75.243 E7.31921
G1 X96.085 Y74.777 E7.34827
G1 X96.652 Y74.696 E7.35538
G1 X98.986 Y74.495 E7.38442
G1 X99.560 Y74.479 E7.39155
G1 X101.900 Y74.546 E7.42058
G1 X102.469 Y74.595 E7.42766 F2550.000
G1 X104.789 Y74.929 E7.45672
G1 X105.351 Y75.042 E7.46383
G1 X107.616 Y75.638 E7.49287
G1 X108.159 Y75.814 E7.49995
G1 X110.343 Y76.665 E7.52902
G1 X110.862 Y76.902 E7.53610
G1 X112.935 Y77.996 E7.56516
G1 X113.417 Y78.286 E7.57213
G1 X115.359 Y79.614 E7.60131
G1 X115.812 Y79.963 E7.60840
G1 X117.583 Y81.498 E7.63746
G1 X117.994 Y81.897 E7.64456
G1 X119.577 Y83.622 E7.67360
G1 X119.939 Y84.064 E7.68068
G1 X121.318 Y85.962 E7.70978
G1 X121.626 Y86.443 E7.71686
G1 X122.778 Y88.482 E7.74590
G1 X123.030 Y88.994 E7.75298
G1 X123.942 Y91.152 E7.78203
G1 X124.134 Y91.690 E7.78911
G1 X124.795 Y93.941 E7.81821
G1 X124.924 Y94.497 E7.82529
G1 X125.325 Y96.810 E7.85439
G1 X125.390 Y97.377 E7.86147
G1 X125.515 Y99.125 E7.88320
G1 X125.515 Y100.875 E7.90491
G1 X125.390 Y102.623 E7.92663
G1 X125.325 Y103.190 E7.93371
G1 X124.925 Y105.502 E7.96281
G1 X124.795 Y106.059 E7.96989
G1 X124.134 Y108.310 E7.99899
G1 X123.942 Y108.848 E8.00607
G1 X123.030 Y111.006 E8.03512
G1 X122.778 Y111.518 E8.04220
G1 X121.626 Y113.559 E8.07126
G1 X121.317 Y114.039 E8.07834
G1 X119.940 Y115.935 E8.10741
G1 X119.578 Y116.377 E8.11449
G1 X117.991 Y118.106 E8.14358
G1 X117.582 Y118.504 E8.15067
G1 X115.813 Y120.036 E8.17968
G1 X115.361 Y120.385 E8.18676
G1 X113.424 Y121.710 E8.21587
G1 X112.934 Y122.005 E8.22296
G1 X110.861 Y123.099 E8.25203
G1 X110.341 Y123.336 E8.25911
G1 X108.158 Y124.186 E8.28816
G1 X107.616 Y124.362 E8.29524
G1 X105.349 Y124.958 E8.32430
G1 X104.790 Y125.071 E8.33137
G1 X102.470 Y125.405 E8.36043
G1 X101.902 Y125.454 E8.36751
G1 X99.556 Y125.521 E8.39660
G1 X98.993 Y125.505 E8.40359
G1 X96.648 Y125.304 E8.43278
G1 X96.082 Y125.222 E8.43987
G1 X93.789 Y124.757 E8.46889
G1 X93.237 Y124.612 E8.47597
G1 X91.007 Y123.888 E8.50504
G1 X90.483 Y123.684 E8.51201
G1 X88.339 Y122.705 E8.54123
G1 X87.834 Y122.439 E8.54832
G1 X85.830 Y121.230 E8.57734
G1 X85.357 Y120.907 E8.58444
G1 X83.503 Y119.477 E8.61348
G1 X83.071 Y119.103 E8.62056
G1 X81.389 Y117.468 E8.64965
G1 X81.003 Y117.047 E8.65673
G1 X79.519 Y115.233 E8.68580
G1 X79.183 Y114.771 E8.69288
G1 X77.916 Y112.799 E8.72194
G1 X77.640 Y112.309 E8.72892
G1 X76.601 Y110.198 E8.75810
G1 X76.378 Y109.671 E8.76520
G1 X75.591 Y107.465 E8.79423
G1 X75.430 Y106.916 E8.80133
G1 X74.899 Y104.633 E8.83039
G1 X74.803 Y104.079 E8.83737
G1 X74.535 Y101.742 E8.86654
G1 X74.502 Y101.170 E8.87365
G1 X74.502 Y98.828 E8.90269
G1 X74.535 Y98.257 E8.90977
G1 X74.802 Y95.929 E8.93883
G1 X74.898 Y95.375 E8.94581
G1 X75.430 Y93.083 E8.97499
G1 X75.592 Y92.534 E8.98209
G1 X76.379 Y90.328 E9.01113
G1 X76.602 Y89.800 E9.01824
G1 X77.636 Y87.698 E9.04728
G1 X77.916 Y87.201 E9.05436
G1 X79.184 Y85.229 E9.08344
G1 X79.521 Y84.765 E9.09054
G1 X81.003 Y82.953 E9.11958
G1 X81.237 Y82.698 E9.12387
G1 X81.432 Y82.877 F12000.000
G1 X83.244 Y81.099 E9.15535 F2550.000
G1 X83.677 Y80.724 E9.16245
G1 X85.508 Y79.312 E9.19112
G1 X85.979 Y78.990 E9.19820
G1 X87.961 Y77.794 E9.22690
G1 X88.466 Y77.528 E9.23398
G1 X90.570 Y76.567 E9.26267
G1 X91.102 Y76.360 E9.26975
G1 X93.303 Y75.645 E9.29844
G1 X93.856 Y75.500 E9.30553
G1 X96.123 Y75.040 E9.33421
G1 X96.690 Y74.959 E9.34132
G1 X98.993 Y74.761 E9.36998
G1 X99.568 Y74.745 E9.37711
G1 X101.877 Y74.811 E9.40576
G1 X102.446 Y74.860 E9.41285 F2550.000
G1 X104.736 Y75.189 E9.44153
G1 X105.298 Y75.303 E9.44864
G1 X107.534 Y75.891 E9.47731
G1 X108.077 Y76.067 E9.48439
G1 X110.233 Y76.906 E9.51308
G1 X110.752 Y77.144 E9.52016
G1 X112.798 Y78.223 E9.54884
G1 X113.280 Y78.513 E9.55582
G1 X115.197 Y79.824 E9.58462
G1 X115.650 Y80.173 E9.59171
G1 X117.398 Y81.688 E9.62040
G1 X117.809 Y82.087 E9.62749
G1 X119.372 Y83.790 E9.65616
G1 X119.733 Y84.232 E9.66324
G1 X121.094 Y86.106 E9.69196
G1 X121.403 Y86.586 E9.69904
G1 X122.540 Y88.599 E9.72771
G1 X122.792 Y89.112 E9.73479
G1 X123.692 Y91.242 E9.76346
G1 X123.884 Y91.779 E9.77054
G1 X124.536 Y94.001 E9.79926
G1 X124.666 Y94.557 E9.80634
G1 X125.061 Y96.840 E9.83507
G1 X125.126 Y97.407 E9.84215
G1 X125.249 Y99.132 E9.86359
G1 X125.249 Y100.868 E9.88511
G1 X125.126 Y102.592 E9.90656
G1 X125.061 Y103.160 E9.91363
G1 X124.666 Y105.442 E9.94236
G1 X124.537 Y105.998 E9.94944
G1 X123.884 Y108.221 E9.97816
G1 X123.692 Y108.758 E9.98524
G1 X122.792 Y110.889 E10.01392
G1 X122.540 Y111.401 E10.02100
G1 X121.402 Y113.415 E10.04968
G1 X121.094 Y113.895 E10.05676
G1 X119.734 Y115.767 E10.08545
G1 X119.373 Y116.209 E10.09253
G1 X117.806 Y117.915 E10.12125
G1 X117.397 Y118.313 E10.12833
G1 X115.651 Y119.826 E10.15698
G1 X115.199 Y120.174 E10.16406
G1 X113.287 Y121.482 E10.19278
G1 X112.797 Y121.778 E10.19988
G1 X110.750 Y122.857 E10.22857
G1 X110.231 Y123.094 E10.23565
G1 X108.076 Y123.933 E10.26432
G1 X107.534 Y124.109 E10.27140
G1 X105.297 Y124.697 E10.30008
G1 X104.737 Y124.811 E10.30716
G1 X102.448 Y125.140 E10.33584
G1 X101.879 Y125.189 E10.34292
G1 X99.564 Y125.255 E10.37164
G1 X99.002 Y125.239 E10.37861
G1 X96.686 Y125.041 E10.40744
G1 X96.120 Y124.959 E10.41453
G1 X93.856 Y124.501 E10.44317
G1 X93.304 Y124.355 E10.45025
G1 X91.103 Y123.640 E10.47895
G1 X90.578 Y123.436 E10.48593
G1 X88.463 Y122.471 E10.51476
G1 X87.958 Y122.204 E10.52185
G1 X85.980 Y121.011 E10.55049
G1 X85.507 Y120.688 E10.55759
G1 X83.677 Y119.276 E10.58626
G1 X83.245 Y118.902 E10.59334
G1 X81.585 Y117.288 E10.62205
G1 X81.198 Y116.868 E10.62914
G1 X79.734 Y115.077 E10.65783
G1 X79.398 Y114.615 E10.66491
G1 X78.147 Y112.668 E10.69359
G1 X77.871 Y112.179 E10.70057
G1 X76.846 Y110.094 E10.72937
G1 X76.623 Y109.567 E10.73647
G1 X75.846 Y107.390 E10.76513
G1 X75.685 Y106.841 E10.77223
G1 X75.161 Y104.588 E10.80091
G1 X75.065 Y104.034 E10.80789
G1 X74.800 Y101.727 E10.83668
G1 X74.767 Y101.155 E10.84379
G1 X74.767 Y98.843 E10.87246
G1 X74.800 Y98.273 E10.87954
G1 X75.064 Y95.975 E10.90823
G1 X75.160 Y95.420 E10.91520
G1 X75.685 Y93.158 E10.94401
G1 X75.847 Y92.608 E10.95111
G1 X76.624 Y90.431 E10.97977
G1 X76.847 Y89.903 E10.98688
G1 X77.867 Y87.829 E11.01555
G1 X78.148 Y87.331 E11.02263
G1 X79.399 Y85.385 E11.05132
G1 X79.735 Y84.921 E11.05843
G1 X81.199 Y83.132 E11.08709
G1 X81.382 Y82.933 E11.09045
G1 E8.09045 F3900.00000
G92 E0
G1 X96.508 Y96.906 F12000.000
G1 E3.10000 F3900.00000
G1 X96.906 Y96.508 E3.10699 F1530.000
G1 X97.350 Y96.161 E3.11397
G1 X97.832 Y95.869 E3.12096
G1 X98.346 Y95.638 E3.12794
G1 X98.884 Y95.470 E3.13493
G1 X99.446 Y95.368 E3.14202
G1 X100.000 Y95.335 E3.14890 F1530.000
G1 X100.562 Y95.369 E3.15589
G1 X101.116 Y95.470 E3.16287
G1 X101.654 Y95.638 E3.16986
G1 X102.175 Y95.873 E3.17695
G1 X102.650 Y96.161 E3.18383
G1 X103.094 Y96.508 E3.19082
G1 X103.497 Y96.913 E3.19791
G1 X103.839 Y97.350 E3.20479
G1 X104.131 Y97.831 E3.21177
G1 X104.354 Y98.318 E3.21840
G1 X104.530 Y98.883 E3.22575
G1 X104.631 Y99.438 E3.23274
G1 X104.665 Y100.000 E3.23972
G1 X104.631 Y100.562 E3.24671
G1 X104.530 Y101.116 E3.25369
G1 X104.362 Y101.654 E3.26068
G1 X104.131 Y102.168 E3.26767
G1 X103.839 Y102.650 E3.27465
G1 X103.492 Y103.094 E3.28164
G1 X103.094 Y103.492 E3.28862
G1 X102.668 Y103.829 E3.29536
G1 X102.168 Y104.131 E3.30260
G1 X101.646 Y104.365 E3.30969
G1 X101.116 Y104.530 E3.31657
G1 X100.562 Y104.631 E3.32356
G1 X100.000 Y104.665 E3.33054
G1 X99.438 Y104.631 E3.33753
G1 X98.884 Y104.530 E3.34451
G1 X98.346 Y104.362 E3.35150
G1 X97.832 Y104.131 E3.35849
G1 X97.350 Y103.839 E3.36547
G1 X96.906 Y103.492 E3.37246
G1 X96.508 Y103.094 E3.37944
G1 X96.161 Y102.650 E3.38643
G1 X95.869 Y102.168 E3.39342
G1 X95.638 Y101.654 E3.40040
G1 X95.470 Y101.116 E3.40739
G1 X95.369 Y100.562 E3.41438
G1 X95.335 Y100.000 E3.42136
G1 X95.369 Y99.437 E3.42835
G1 X95.473 Y98.876 E3.43544
G1 X95.638 Y98.346 E3.44232
G1 X95.869 Y97.832 E3.44931
G1 X96.161 Y97.350 E3.45629
G1 X96.462 Y96.965 E3.46235
G1 X96.359 Y96.429 F12000.000
G1 E0.46235 F3900.00000
G92 E0
G1 X98.561 Y104.613 F12000.000
G1 E3.10000 F3900.00000
G1 X97.992 Y104.398 E3.10755 F1530.000
G1 X97.503 Y104.140 E3.11439
G1 X97.048 Y103.829 E3.12124
G1 X96.630 Y103.467 E3.12808
G1 X96.257 Y103.060 E3.13493
G1 X95.933 Y102.614 E3.14177
G1 X95.661 Y102.133 E3.14862
G1 X95.446 Y101.625 E3.15546
G1 X95.293 Y101.103 E3.16220
G1 X95.197 Y100.551 E3.16916
G1 X95.165 Y100.000 E3.17600
G1 X95.197 Y99.449 E3.18284
G1 X95.291 Y98.905 E3.18969
G1 X95.446 Y98.375 E3.19654
G1 X95.661 Y97.867 E3.20338
G1 X95.933 Y97.386 E3.21023
G1 X96.257 Y96.940 E3.21707
