; generated by Slic3r 1.2.7-dev on 2015-03-26 at 19:05:37

; external perimeters extrusion width = 0.25mm
; perimeters extrusion width = 0.43mm
; infill extrusion width = 0.43mm
; solid infill extrusion width = 0.28mm
; top infill extrusion width = 0.28mm

M107
M190 S55 ; set bed temperature
G28 ; home all axes
G90 ; use absolute coordinates
G21 ; set units to millimeters
G92 E0 ; set extruder coordinate to zero
M82 ; use absolute distances for extrusion
M109 S190 ; wait for temperature to be reached
G1 E10 F400 ; prime the nozzle

G21 ; set units to millimeters
G90 ; use absolute coordinates
M82 ; use absolute distances for extrusion
G92 E0
G1 E-3.00000 F3900.00000
G92 E0
G1 Z0.300 F12000.000
G1 X77.423 Y76.483 F12000.000
G1 E3.10000 F3900.00000
G1 X78.296 Y75.676 E3.11474 F2550.000
G1 X79.961 Y74.287 E3.14163
G1 X80.912 Y73.573 E3.15638
G1 X82.711 Y72.363 E3.18327
G1 X83.730 Y71.751 E3.19801
G1 X85.644 Y70.731 E3.22490
G1 X86.721 Y70.227 E3.23964
G1 X88.730 Y69.410 E3.26653
G1 X89.853 Y69.020 E3.28128
G1 X91.935 Y68.414 E3.30817
G1 X93.092 Y68.141 E3.32291
G1 X95.225 Y67.752 E3.34980
G1 X96.404 Y67.599 E3.36454
G1 X98.567 Y67.432 E3.39143
G1 X99.755 Y67.401 E3.40618
G1 X101.923 Y67.457 E3.43307
G1 X103.108 Y67.549 E3.44781 F2550.000
G1 X105.259 Y67.827 E3.47470
G1 X106.428 Y68.040 E3.48944
G1 X108.539 Y68.539 E3.51634
G1 X109.680 Y68.871 E3.53108
G1 X111.728 Y69.583 E3.55797
G1 X112.665 Y69.964 E3.57050
G1 X114.794 Y70.950 E3.59960
G1 X115.843 Y71.509 E3.61434
G1 X117.702 Y72.626 E3.64123
G1 X118.689 Y73.289 E3.65598
G1 X120.423 Y74.591 E3.68287
G1 X121.336 Y75.352 E3.69761
G1 X122.928 Y76.825 E3.72450
G1 X123.757 Y77.677 E3.73924
G1 X125.189 Y79.306 E3.76613
G1 X125.927 Y80.238 E3.78088
G1 X127.183 Y82.005 E3.80777
G1 X127.821 Y83.008 E3.82251
G1 X128.889 Y84.896 E3.84940
G1 X129.421 Y85.959 E3.86414
G1 X130.289 Y87.946 E3.89103
G1 X130.709 Y89.059 E3.90578
G1 X131.368 Y91.124 E3.93267
G1 X131.671 Y92.274 E3.94741
G1 X132.114 Y94.397 E3.97430
G1 X132.297 Y95.571 E3.98904
G1 X132.520 Y97.728 E4.01594
G1 X132.582 Y98.916 E4.03068
G1 X132.582 Y101.084 E4.05757
G1 X132.520 Y102.272 E4.07231
G1 X132.297 Y104.429 E4.09920
G1 X132.114 Y105.603 E4.11394
G1 X131.671 Y107.726 E4.14084
G1 X131.368 Y108.876 E4.15558
G1 X130.709 Y110.941 E4.18247
G1 X130.289 Y112.054 E4.19721
G1 X129.421 Y114.041 E4.22410
G1 X128.889 Y115.104 E4.23885
G1 X127.821 Y116.992 E4.26574
G1 X127.183 Y117.995 E4.28048
G1 X125.927 Y119.762 E4.30737
G1 X125.189 Y120.694 E4.32211
G1 X123.757 Y122.323 E4.34900
G1 X122.928 Y123.175 E4.36375
G1 X121.336 Y124.648 E4.39064
G1 X120.423 Y125.409 E4.40538
G1 X118.689 Y126.711 E4.43227
G1 X117.702 Y127.374 E4.44701
G1 X115.843 Y128.491 E4.47390
G1 X114.794 Y129.050 E4.48865
G1 X112.830 Y129.969 E4.51554
G1 X111.729 Y130.417 E4.53028
G1 X109.680 Y131.129 E4.55717
G1 X108.539 Y131.461 E4.57191
G1 X106.428 Y131.960 E4.59881
G1 X105.259 Y132.173 E4.61355
G1 X103.108 Y132.451 E4.64044
G1 X101.923 Y132.543 E4.65518
G1 X99.755 Y132.599 E4.68207
G1 X98.567 Y132.568 E4.69681
G1 X96.404 Y132.401 E4.72371
G1 X95.225 Y132.248 E4.73845
G1 X93.092 Y131.859 E4.76534
G1 X91.935 Y131.586 E4.78008
G1 X89.853 Y130.980 E4.80697
G1 X88.730 Y130.590 E4.82172
G1 X86.721 Y129.773 E4.84861
G1 X85.644 Y129.269 E4.86335
G1 X83.730 Y128.249 E4.89024
G1 X82.711 Y127.637 E4.90498
G1 X80.912 Y126.427 E4.93187
G1 X79.961 Y125.713 E4.94662
G1 X78.296 Y124.324 E4.97351
G1 X77.423 Y123.517 E4.98825
G1 X75.910 Y121.964 E5.01514
G1 X75.125 Y121.071 E5.02988
G1 X73.779 Y119.370 E5.05677
G1 X73.090 Y118.401 E5.07152
G1 X71.927 Y116.572 E5.09841
G1 X71.341 Y115.537 E5.11315
G1 X70.371 Y113.597 E5.14004
G1 X69.895 Y112.508 E5.15478
G1 X69.130 Y110.479 E5.18167
G1 X68.769 Y109.346 E5.19642
G1 X68.217 Y107.249 E5.22331
G1 X67.973 Y106.085 E5.23805
G1 X67.640 Y103.943 E5.26494
G1 X67.536 Y102.937 E5.27747
G1 X67.413 Y101.137 E5.29985
G1 X67.397 Y100.542 E5.30723
G1 X67.413 Y98.863 E5.32805
G1 X67.517 Y97.240 E5.34822
G1 X67.640 Y96.057 E5.36297
G1 X67.973 Y93.915 E5.38986
G1 X68.217 Y92.751 E5.40460
G1 X68.769 Y90.654 E5.43149
G1 X69.130 Y89.521 E5.44623
G1 X69.895 Y87.492 E5.47312
G1 X70.371 Y86.403 E5.48787
G1 X71.341 Y84.463 E5.51476
G1 X71.927 Y83.428 E5.52950
G1 X73.090 Y81.599 E5.55639
G1 X73.779 Y80.630 E5.57113
G1 X75.125 Y78.929 E5.59802
G1 X75.910 Y78.036 E5.61277
G1 X77.371 Y76.537 E5.63873
G1 X77.561 Y76.722 F12000.000
G1 X78.476 Y75.871 E5.65423 F2550.000
G1 X80.120 Y74.499 E5.68078
G1 X81.071 Y73.786 E5.69552
G1 X82.848 Y72.590 E5.72208
G1 X83.867 Y71.978 E5.73682
G1 X85.757 Y70.972 E5.76337
G1 X86.834 Y70.468 E5.77811
G1 X88.817 Y69.661 E5.80467
G1 X89.940 Y69.271 E5.81941
G1 X91.996 Y68.672 E5.84596
G1 X93.153 Y68.399 E5.86070
G1 X95.260 Y68.015 E5.88725
G1 X96.439 Y67.863 E5.90200
G1 X98.573 Y67.697 E5.92855
G1 X99.762 Y67.667 E5.94329
G1 X101.902 Y67.722 E5.96984
G1 X103.088 Y67.814 E5.98458 F2550.000
G1 X105.211 Y68.089 E6.01114
G1 X106.381 Y68.302 E6.02588
G1 X108.465 Y68.794 E6.05243
G1 X109.606 Y69.126 E6.06717
G1 X111.628 Y69.829 E6.09373
G1 X112.564 Y70.210 E6.10626
G1 X114.669 Y71.185 E6.13502
G1 X115.718 Y71.744 E6.14976
G1 X117.554 Y72.846 E6.17631
G1 X118.540 Y73.510 E6.19105
G1 X120.253 Y74.795 E6.21761
G1 X121.166 Y75.556 E6.23235
G1 X122.737 Y77.011 E6.25890
G1 X123.567 Y77.862 E6.27364
G1 X124.981 Y79.470 E6.30020
G1 X125.718 Y80.403 E6.31494
G1 X126.959 Y82.148 E6.34149
G1 X127.597 Y83.151 E6.35623
G1 X128.652 Y85.014 E6.38278
G1 X129.183 Y86.078 E6.39753
G1 X130.041 Y88.040 E6.42408
G1 X130.460 Y89.152 E6.43882
G1 X131.111 Y91.192 E6.46537
G1 X131.414 Y92.342 E6.48012
G1 X131.852 Y94.438 E6.50667
G1 X132.035 Y95.612 E6.52141
G1 X132.255 Y97.742 E6.54796
G1 X132.316 Y98.929 E6.56270
G1 X132.316 Y101.071 E6.58926
G1 X132.255 Y102.258 E6.60400
G1 X132.035 Y104.388 E6.63055
G1 X131.852 Y105.562 E6.64529
G1 X131.414 Y107.658 E6.67185
G1 X131.111 Y108.808 E6.68659
G1 X130.460 Y110.848 E6.71314
G1 X130.041 Y111.960 E6.72788
G1 X129.183 Y113.922 E6.75443
G1 X128.652 Y114.986 E6.76918
G1 X127.597 Y116.849 E6.79573
G1 X127.055 Y117.702 E6.80826
G1 X125.718 Y119.597 E6.83702
G1 X124.981 Y120.530 E6.85176
G1 X123.567 Y122.138 E6.87831
G1 X122.737 Y122.989 E6.89306
G1 X121.166 Y124.444 E6.91961
G1 X120.253 Y125.205 E6.93435
G1 X118.540 Y126.490 E6.96090
G1 X117.554 Y127.154 E6.97565
G1 X115.718 Y128.256 E7.00220
G1 X114.669 Y128.815 E7.01694
G1 X112.730 Y129.723 E7.04349
G1 X111.628 Y130.171 E7.05823
G1 X109.606 Y130.874 E7.08479
G1 X108.465 Y131.206 E7.09953
G1 X106.381 Y131.698 E7.12608
G1 X105.211 Y131.911 E7.14082
G1 X103.088 Y132.186 E7.16738
G1 X101.902 Y132.278 E7.18212
G1 X99.762 Y132.333 E7.20867
G1 X98.573 Y132.303 E7.22341
G1 X96.439 Y132.137 E7.24996
G1 X95.260 Y131.985 E7.26471
G1 X93.153 Y131.601 E7.29126
G1 X91.996 Y131.328 E7.30600
G1 X89.940 Y130.729 E7.33255
G1 X88.817 Y130.339 E7.34730
G1 X86.834 Y129.532 E7.37385
G1 X85.757 Y129.028 E7.38859
G1 X83.867 Y128.022 E7.41514
G1 X82.848 Y127.410 E7.42988
G1 X81.071 Y126.214 E7.45644
G1 X80.121 Y125.501 E7.47118
G1 X78.476 Y124.129 E7.49773
G1 X77.604 Y123.322 E7.51248
G1 X76.109 Y121.788 E7.53902
G1 X75.325 Y120.895 E7.55377
G1 X73.996 Y119.216 E7.58032
G1 X73.307 Y118.247 E7.59506
G1 X72.158 Y116.441 E7.62161
G1 X71.572 Y115.406 E7.63636
G1 X70.615 Y113.491 E7.66291
G1 X70.139 Y112.401 E7.67765
G1 X69.383 Y110.398 E7.70420
G1 X69.022 Y109.265 E7.71895
G1 X68.477 Y107.195 E7.74550
G1 X68.233 Y106.031 E7.76024
G1 X67.904 Y103.915 E7.78679
G1 X67.800 Y102.910 E7.79932
G1 X67.678 Y101.130 E7.82145
G1 X67.663 Y100.535 E7.82882
G1 X67.678 Y98.870 E7.84948
G1 X67.782 Y97.267 E7.86939
G1 X67.904 Y96.085 E7.88414
G1 X68.233 Y93.969 E7.91069
G1 X68.477 Y92.805 E7.92543
G1 X69.022 Y90.735 E7.95198
G1 X69.384 Y89.602 E7.96673
G1 X70.139 Y87.599 E7.99328
G1 X70.615 Y86.509 E8.00802
G1 X71.572 Y84.594 E8.03457
G1 X72.158 Y83.559 E8.04931
G1 X73.307 Y81.753 E8.07587
G1 X73.996 Y80.784 E8.09061
G1 X75.325 Y79.105 E8.11716
G1 X76.109 Y78.212 E8.13190
G1 X77.509 Y76.776 E8.15676
G1 X77.699 Y76.961 F12000.000
G1 X78.657 Y76.066 E8.17303 F2550.000
G1 X80.280 Y74.712 E8.19924
G1 X81.231 Y73.998 E8.21398
G1 X82.985 Y72.818 E8.24019
G1 X84.004 Y72.206 E8.25494
G1 X85.870 Y71.213 E8.28115
G1 X86.946 Y70.709 E8.29589
G1 X88.905 Y69.912 E8.32211
G1 X90.027 Y69.522 E8.33685
G1 X92.057 Y68.931 E8.36306
G1 X93.214 Y68.658 E8.37780
G1 X95.294 Y68.279 E8.40402
G1 X96.473 Y68.126 E8.41876
G1 X98.580 Y67.963 E8.44497
G1 X99.769 Y67.932 E8.45971
G1 X101.882 Y67.987 E8.48593
G1 X103.067 Y68.079 E8.50067 F2550.000
G1 X105.163 Y68.350 E8.52688
G1 X106.333 Y68.563 E8.54162
G1 X108.390 Y69.049 E8.56784
G1 X109.532 Y69.381 E8.58258
G1 X111.528 Y70.075 E8.60879
G1 X112.464 Y70.456 E8.62132
G1 X114.544 Y71.419 E8.64974
G1 X115.594 Y71.978 E8.66449
G1 X117.406 Y73.066 E8.69070
G1 X118.392 Y73.730 E8.70544
G1 X120.083 Y74.999 E8.73166
G1 X120.996 Y75.760 E8.74640
G1 X122.547 Y77.196 E8.77261
G1 X123.377 Y78.048 E8.78735
G1 X124.772 Y79.635 E8.81357
G1 X125.510 Y80.568 E8.82831
G1 X126.735 Y82.290 E8.85452
G1 X127.373 Y83.294 E8.86926
G1 X128.414 Y85.133 E8.89548
G1 X128.946 Y86.197 E8.91022
G1 X129.792 Y88.133 E8.93643
G1 X130.212 Y89.246 E8.95117
G1 X130.854 Y91.260 E8.97739
G1 X131.157 Y92.409 E8.99213
G1 X131.590 Y94.478 E9.01834
G1 X131.772 Y95.653 E9.03309
G1 X131.990 Y97.756 E9.05930
G1 X132.051 Y98.943 E9.07404
G1 X132.051 Y101.057 E9.10025
G1 X131.990 Y102.244 E9.11500
G1 X131.772 Y104.347 E9.14121
G1 X131.590 Y105.522 E9.15595
G1 X131.157 Y107.591 E9.18216
G1 X130.854 Y108.740 E9.19691
G1 X130.212 Y110.754 E9.22312
G1 X129.792 Y111.866 E9.23786
G1 X128.946 Y113.803 E9.26407
G1 X128.414 Y114.867 E9.27882
G1 X127.373 Y116.706 E9.30503
G1 X126.831 Y117.559 E9.31756
G1 X125.510 Y119.432 E9.34598
G1 X124.772 Y120.365 E9.36073
G1 X123.377 Y121.952 E9.38694
G1 X122.547 Y122.804 E9.40168
G1 X120.996 Y124.240 E9.42789
G1 X120.083 Y125.001 E9.44264
G1 X118.392 Y126.270 E9.46885
G1 X117.406 Y126.934 E9.48359
G1 X115.594 Y128.022 E9.50980
G1 X114.544 Y128.581 E9.52455
G1 X112.630 Y129.477 E9.55076
G1 X111.528 Y129.925 E9.56550
G1 X109.532 Y130.619 E9.59171
G1 X108.390 Y130.951 E9.60646
G1 X106.333 Y131.437 E9.63267
G1 X105.163 Y131.650 E9.64741
G1 X103.067 Y131.921 E9.67362
G1 X101.882 Y132.013 E9.68837
G1 X99.769 Y132.068 E9.71458
G1 X98.580 Y132.037 E9.72932
G1 X96.473 Y131.874 E9.75554
G1 X95.294 Y131.721 E9.77028
G1 X93.214 Y131.342 E9.79649
G1 X92.057 Y131.069 E9.81123
G1 X90.027 Y130.478 E9.83745
G1 X88.905 Y130.088 E9.85219
G1 X86.946 Y129.291 E9.87840
G1 X85.870 Y128.787 E9.89314
G1 X84.004 Y127.794 E9.91936
G1 X82.985 Y127.182 E9.93410
G1 X81.231 Y126.002 E9.96031
G1 X80.280 Y125.288 E9.97505
G1 X78.657 Y123.934 E10.00127
G1 X77.784 Y123.127 E10.01601
G1 X76.309 Y121.613 E10.04222
G1 X75.524 Y120.720 E10.05697
G1 X74.212 Y119.062 E10.08318
G1 X73.523 Y118.093 E10.09792
G1 X72.389 Y116.310 E10.12413
G1 X71.803 Y115.275 E10.13888
G1 X70.858 Y113.384 E10.16509
G1 X70.382 Y112.295 E10.17983
G1 X69.636 Y110.317 E10.20604
G1 X69.275 Y109.184 E10.22079
G1 X68.737 Y107.140 E10.24700
G1 X68.493 Y105.977 E10.26174
G1 X68.168 Y103.888 E10.28795
G1 X68.064 Y102.883 E10.30048
G1 X67.944 Y101.123 E10.32236
G1 X67.929 Y100.529 E10.32973
G1 X67.944 Y98.877 E10.35022
G1 X68.046 Y97.295 E10.36988
G1 X68.168 Y96.112 E10.38462
G1 X68.493 Y94.023 E10.41083
G1 X68.737 Y92.860 E10.42558
G1 X69.275 Y90.815 E10.45179
G1 X69.637 Y89.683 E10.46653
G1 X70.382 Y87.705 E10.49274
G1 X70.858 Y86.616 E10.50749
G1 X71.803 Y84.725 E10.53370
G1 X72.389 Y83.690 E10.54844
G1 X73.523 Y81.907 E10.57465
G1 X74.212 Y80.938 E10.58940
G1 X75.524 Y79.280 E10.61561
G1 X76.309 Y78.387 E10.63035
G1 X77.646 Y77.015 E10.65411
G1 X77.836 Y77.200 F12000.000
G1 X78.837 Y76.261 E10.67114 F2550.000
G1 X80.439 Y74.924 E10.69701
G1 X81.390 Y74.210 E10.71175
G1 X83.121 Y73.046 E10.73763
G1 X84.141 Y72.434 E10.75237
G1 X85.982 Y71.453 E10.77824
G1 X87.059 Y70.949 E10.79298
G1 X88.992 Y70.163 E10.81886
G1 X90.115 Y69.772 E10.83360
G1 X92.118 Y69.189 E10.85947
G1 X93.275 Y68.916 E10.87422
G1 X95.328 Y68.542 E10.90009
G1 X96.507 Y68.390 E10.91483
G1 X98.587 Y68.229 E10.94071
G1 X99.776 Y68.198 E10.95545
G1 X101.861 Y68.252 E10.98132
G1 X103.047 Y68.343 E10.99606 F2550.000
G1 X105.116 Y68.611 E11.02194
G1 X106.285 Y68.824 E11.03668
G1 X108.316 Y69.304 E11.06256
G1 X109.458 Y69.636 E11.07730
G1 X111.428 Y70.321 E11.10317
G1 X112.364 Y70.702 E11.11570
G1 X114.419 Y71.654 E11.14378
G1 X115.469 Y72.213 E11.15853
G1 X117.257 Y73.287 E11.18440
G1 X118.244 Y73.950 E11.19914
G1 X119.913 Y75.203 E11.22502
G1 X120.826 Y75.964 E11.23976
G1 X122.357 Y77.382 E11.26563
G1 X123.187 Y78.233 E11.28038
G1 X124.564 Y79.800 E11.30625
G1 X125.302 Y80.732 E11.32099
G1 X126.511 Y82.433 E11.34687
G1 X127.149 Y83.436 E11.36161
G1 X128.177 Y85.252 E11.38748
G1 X128.708 Y86.315 E11.40222
G1 X129.544 Y88.227 E11.42810
G1 X129.963 Y89.340 E11.44284
G1 X130.598 Y91.327 E11.46871
G1 X130.900 Y92.477 E11.48346
G1 X131.327 Y94.519 E11.50933
G1 X131.510 Y95.694 E11.52407
G1 X131.725 Y97.769 E11.54995
G1 X131.786 Y98.957 E11.56469
G1 X131.786 Y101.043 E11.59056
G1 X131.725 Y102.231 E11.60531
G1 X131.510 Y104.306 E11.63118
G1 X131.327 Y105.481 E11.64592
G1 X130.900 Y107.523 E11.67180
G1 X130.598 Y108.673 E11.68654
G1 X129.963 Y110.660 E11.71241
G1 X129.544 Y111.773 E11.72715
G1 X128.708 Y113.685 E11.75303
G1 X128.177 Y114.748 E11.76777
G1 X127.149 Y116.564 E11.79364
G1 X126.606 Y117.417 E11.80617
G1 X125.302 Y119.268 E11.83426
G1 X124.564 Y120.200 E11.84900
G1 X123.187 Y121.767 E11.87487
G1 X122.357 Y122.618 E11.88962
G1 X120.826 Y124.036 E11.91549
G1 X119.913 Y124.797 E11.93023
G1 X118.244 Y126.050 E11.95611
G1 X117.257 Y126.713 E11.97085
G1 X115.469 Y127.787 E11.99672
G1 X114.419 Y128.346 E12.01146
G1 X112.530 Y129.231 E12.03734
G1 X111.428 Y129.679 E12.05208
G1 X109.458 Y130.364 E12.07795
G1 X108.316 Y130.696 E12.09270
G1 X106.285 Y131.176 E12.11857
G1 X105.116 Y131.389 E12.13331
G1 X103.047 Y131.657 E12.15919
G1 X101.861 Y131.748 E12.17393
G1 X99.776 Y131.802 E12.19980
G1 X98.587 Y131.771 E12.21455
G1 X96.507 Y131.610 E12.24042
G1 X95.328 Y131.458 E12.25516
G1 X93.275 Y131.084 E12.28103
G1 X92.118 Y130.811 E12.29578
G1 X90.115 Y130.228 E12.32165
G1 X88.992 Y129.837 E12.33639
G1 X87.059 Y129.051 E12.36227
G1 X85.982 Y128.547 E12.37701
G1 X84.141 Y127.566 E12.40288
G1 X83.121 Y126.954 E12.41763
G1 X81.390 Y125.790 E12.44350
G1 X80.439 Y125.076 E12.45824
G1 X78.837 Y123.739 E12.48412
G1 X77.965 Y122.932 E12.49886
G1 X76.508 Y121.438 E12.52473
G1 X75.724 Y120.545 E12.53948
G1 X74.429 Y118.909 E12.56535
G1 X73.740 Y117.940 E12.58009
G1 X72.620 Y116.179 E12.60596
G1 X72.034 Y115.144 E12.62071
G1 X71.102 Y113.278 E12.64658
G1 X70.626 Y112.189 E12.66132
G1 X69.890 Y110.236 E12.68720
G1 X69.528 Y109.104 E12.70194
G1 X68.997 Y107.086 E12.72781
G1 X68.753 Y105.922 E12.74256
G1 X68.432 Y103.861 E12.76843
G1 X68.328 Y102.856 E12.78096
G1 X68.209 Y101.116 E12.80258
G1 X68.194 Y100.522 E12.80995
G1 X68.209 Y98.884 E12.83027
G1 X68.310 Y97.322 E12.84967
G1 X68.432 Y96.139 E12.86442
G1 X68.753 Y94.078 E12.89029
G1 X68.997 Y92.914 E12.90503
G1 X69.528 Y90.896 E12.93091
G1 X69.890 Y89.764 E12.94565
G1 X70.626 Y87.811 E12.97152
G1 X71.102 Y86.722 E12.98627
G1 X72.034 Y84.856 E13.01214
G1 X72.620 Y83.821 E13.02688
G1 X73.740 Y82.060 E13.05276
G1 X74.429 Y81.091 E13.06750
G1 X75.724 Y79.455 E13.09337
G1 X76.508 Y78.562 E13.10811
G1 X77.784 Y77.254 E13.13078
G1 E10.13078 F3900.00000
G92 E0
G1 X97.183 Y89.532 F12000.000
G1 E3.10000 F3900.00000
G1 X98.055 Y89.326 E3.11110 F1530.000
G1 X99.163 Y89.183 E3.12496
G1 X100.279 Y89.154 E3.13881
G1 X101.251 Y89.229 E3.15089
G1 X101.393 Y89.240 E3.15266 F1530.000
G1 X102.492 Y89.440 E3.16651
G1 X103.565 Y89.752 E3.18037
G1 X104.599 Y90.173 E3.19422
G1 X105.585 Y90.698 E3.20807
G1 X106.512 Y91.322 E3.22192
G1 X107.370 Y92.037 E3.23578
G1 X108.150 Y92.837 E3.24963
G1 X108.843 Y93.713 E3.26348
G1 X109.442 Y94.656 E3.27733
G1 X109.942 Y95.655 E3.29118
G1 X110.336 Y96.700 E3.30504
G1 X110.620 Y97.781 E3.31889
G1 X110.792 Y98.884 E3.33274
